( pcb2gcode 1.1.4 )

G94     ( Inches per minute feed rate. )
G20     ( Units == INCHES.             )
G90     ( Absolute coordinates.        )
S30000  ( RPM spindle speed.           )
M3      ( Spindle on clockwise.        )

G64 P0.00125 ( set maximum deviation from commanded toolpath )

G00 Z0.039370
 X2.821650 Y0.010698
F7.874016
G01 Z-0.003937
 X2.807400 Y-0.003552
 X1.348400
 X1.344150 Y-0.007802
 Y-1.405052
 X1.351150 Y-1.417552
 X1.354900 Y-1.420052
 X1.368150
 X1.372400 Y-1.415802
 Y-1.402552
 X1.372150
 Y-1.401052
 X1.371900
 Y-1.399802
 X1.371400 Y-1.398802
 Y-1.397552
 X1.371150
 Y-1.396302
 X1.370400 Y-1.394052
 Y-1.255802
 X1.370650
 Y-1.254552
 X1.370900
 Y-1.253302
 X1.371150
 Y-1.252052
 X1.371650 Y-1.251052
 Y-1.249802
 X1.371900
 Y-1.248552
 X1.372650 Y-1.246302
 Y-1.245052
 X1.372900
 Y-1.243802
 X1.380900 Y-1.230552
 X1.405900 Y-1.205552
 X1.417900 Y-1.197802
 X1.419150
 Y-1.197552
 X1.420400
 X1.421650 Y-1.197052
 X1.422900
 Y-1.196802
 X1.424400
 Y-1.196552
 X1.425650
 Y-1.196302
 X1.426900
 X1.428150 Y-1.195802
 X1.429400
 Y-1.195552
 X1.430650
 Y-1.195302
 X1.431900
 X1.445400 Y-1.181302
 Y-1.168052
 X1.430650 Y-1.152302
 X1.424650 Y-1.137552
 X1.380900 Y-1.094052
 X1.373150 Y-1.082052
 Y-1.080802
 X1.372400 Y-1.078552
 Y-1.077302
 X1.372150
 Y-1.076052
 X1.371650 Y-1.075052
 Y-1.073802
 X1.371400
 Y-1.072552
 X1.370900 Y-1.071552
 Y-1.070302
 X1.370650
 Y-1.069052
 X1.370400
 Y-0.905552
 X1.370900 Y-0.904302
 Y-0.903052
 X1.371650 Y-0.900802
 Y-0.899552
 X1.372150 Y-0.898552
 Y-0.897302
 X1.372900 Y-0.895052
 Y-0.893802
 X1.380900 Y-0.880552
 X1.421900 Y-0.838302
 Y-0.818802
 X1.430650 Y-0.797552
 X1.445400 Y-0.781302
 Y-0.768052
 X1.430650 Y-0.752302
 X1.421900 Y-0.731052
 Y-0.718802
 X1.430650 Y-0.697552
 X1.445400 Y-0.681302
 Y-0.668052
 X1.430650 Y-0.652302
 X1.421900 Y-0.631052
 Y-0.618802
 X1.430650 Y-0.597552
 X1.445400 Y-0.581302
 Y-0.323302
 X1.448150 Y-0.310052
 X1.455900 Y-0.298052
 X1.683400 Y-0.070552
 X1.695400 Y-0.062802
 X1.696650
 X1.697900 Y-0.062302
 X1.699150
 Y-0.062052
 X1.700400
 Y-0.061802
 X1.701900
 Y-0.061552
 X1.703150
 X1.704400 Y-0.061052
 X1.705650
 Y-0.060802
 X1.706900
 Y-0.060552
 X1.708150
 Y-0.060302
 X2.559400
 Y-0.060552
 X2.560650
 Y-0.060802
 X2.561900
 Y-0.061052
 X2.563150
 Y-0.061302
 X2.564400
 X2.565650 Y-0.061802
 X2.567150
 Y-0.062052
 X2.568400
 Y-0.062302
 X2.569650
 Y-0.062552
 X2.570900
 X2.584150 Y-0.070552
 X2.731650 Y-0.218052
 X2.738400 Y-0.228052
 Y-0.782302
 X2.738650
 Y-0.784052
 X2.742150 Y-0.790802
 Y-0.992302
 X2.779400 Y-1.029552
 X2.792650
 X2.796900 Y-1.025302
 Y-1.018802
 X2.805650 Y-0.997552
 X2.820400 Y-0.981302
 Y-0.968052
 X2.805650 Y-0.952302
 X2.796900 Y-0.931052
 Y-0.918802
 X2.805650 Y-0.897552
 X2.823400 Y-0.878552
 Y-0.877302
 X2.832400 Y-0.868302
 X2.835400 Y-0.869302
 X2.836650
 Y-0.869552
 X2.838150
 Y-0.869802
 X2.839900
 Y-0.870052
 X2.860150
 Y-0.869802
 X2.861900
 Y-0.869552
 X2.863400
 X2.867900 Y-0.868302
 X2.876900 Y-0.877302
 Y-0.878552
 X2.893650 Y-0.895302
 X2.932900
 X2.942400 Y-0.886302
 X2.949150 Y-0.883552
 X2.950650
 X2.954900 Y-0.879302
 Y-0.870802
 X2.962900 Y-0.862802
 X2.965400
 Y-0.863052
 X2.967900
 Y-0.863302
 X2.982150
 Y-0.863052
 X2.984650
 Y-0.862802
 X2.987150
 X2.995150 Y-0.870552
 Y-0.879302
 X2.999400 Y-0.883552
 X3.000900
 X3.007650 Y-0.886302
 X3.017400 Y-0.895302
 X3.046150
 X3.056400 Y-0.886302
 X3.075150 Y-0.878552
 X3.084900
 X3.103900 Y-0.886302
 X3.113400 Y-0.895802
 X3.118650 Y-0.901302
 X3.126400 Y-0.920052
 Y-0.929552
 X3.118650 Y-0.948302
 X3.102150 Y-0.966302
 Y-0.979552
 X3.104400 Y-0.983052
 X3.114400 Y-0.987802
 X3.123650 Y-1.002052
 X3.129150 Y-1.005552
 X3.316900 Y-1.193552
 X3.323900 Y-1.196302
 X3.334650 Y-1.207052
 X3.338650 Y-1.211302
 X3.346400 Y-1.230052
 Y-1.239552
 X3.337900 Y-1.259052
 X3.323650 Y-1.273302
 X3.304900 Y-1.281052
 X3.295400
 X3.276150 Y-1.273052
 X3.261650 Y-1.258552
 X3.253900 Y-1.239552
 Y-1.230052
 X3.256150 Y-1.225302
 Y-1.224052
 X3.256400
 Y-1.210802
 X3.111650 Y-1.066052
 X3.054400
 X3.047150 Y-1.063052
 X3.037900 Y-1.054302
 X2.893650
 X2.879650 Y-1.068302
 Y-1.081552
 X2.894400 Y-1.097302
 X2.903150 Y-1.118802
 Y-1.130802
 X2.894400 Y-1.152552
 X2.879650 Y-1.168302
 Y-1.181552
 X2.894400 Y-1.197302
 X2.903150 Y-1.218802
 Y-1.230802
 X2.894400 Y-1.252552
 X2.879650 Y-1.268302
 Y-1.281552
 X2.894400 Y-1.297302
 X2.903150 Y-1.318802
 Y-1.330802
 X2.894400 Y-1.352552
 X2.879650 Y-1.368302
 Y-1.381552
 X2.894400 Y-1.397302
 X2.903150 Y-1.418802
 Y-1.430802
 X2.894400 Y-1.452552
 X2.879650 Y-1.468302
 Y-1.481552
 X2.894400 Y-1.497302
 X2.900900 Y-1.512552
 X2.944150 Y-1.555552
 X2.952150 Y-1.567802
 Y-1.569052
 X2.952400
 Y-1.570302
 X2.952650
 Y-1.571552
 X2.953150 Y-1.572802
 Y-1.574052
 X2.953400
 Y-1.575552
 X2.953650
 Y-1.576802
 X2.953900
 Y-1.578052
 X2.954400 Y-1.579302
 Y-1.580552
 X2.954650
 Y-1.736302
 X2.958900 Y-1.740552
 X2.972150
 Y-1.740302
 X2.973400
 X2.993900 Y-1.731552
 X3.006150
 X3.022400 Y-1.738802
 X3.023650
 Y-1.739052
 X3.036900
 X3.040400 Y-1.736802
 X3.041650 Y-1.732802
 Y-1.731552
 X3.041900
 Y-1.730302
 X3.042150
 Y-1.729052
 X3.042650 Y-1.727802
 Y-1.726552
 X3.042900
 Y-1.725302
 X3.043150
 Y-1.724052
 X3.043650 Y-1.722802
 Y-1.721552
 X3.054650 Y-1.704802
 X3.069400 Y-1.695302
 X3.071900 Y-1.691552
 Y-1.678302
 X3.052650 Y-1.661802
 X3.046900 Y-1.650802
 X3.050900
 X3.058400 Y-1.663052
 X3.073900 Y-1.671302
 X3.076400
 Y-1.671552
 X3.078900
 Y-1.671802
 X3.121150
 Y-1.671552
 X3.123650
 Y-1.671302
 X3.126150
 X3.135650 Y-1.667552
 X3.141650 Y-1.663052
 X3.149150 Y-1.650802
 X3.154900
 X3.157150 Y-1.654552
 Y-1.656302
 X3.161400 Y-1.660552
 X3.174650
 X3.260900 Y-1.575552
 X3.272900 Y-1.567802
 X3.274400
 Y-1.567552
 X3.275650
 Y-1.567302
 X3.277150
 Y-1.567052
 X3.278400
 X3.343900 Y-1.501552
 Y-1.490052
 X3.351650 Y-1.471052
 X3.366400 Y-1.456302
 X3.385150 Y-1.448552
 X3.394900
 X3.413900 Y-1.456302
 X3.423900 Y-1.465302
 X3.464400
 Y-1.465552
 X3.465650
 Y-1.465802
 X3.466900
 Y-1.466052
 X3.468150
 Y-1.466302
 X3.469400
 Y-1.466552
 X3.470650
 Y-1.466802
 X3.472150
 Y-1.467052
 X3.473400
 Y-1.467302
 X3.474650
 Y-1.467552
 X3.475900
 Y-1.467802
 X3.477150
 X3.489400 Y-1.475802
 X3.519150 Y-1.505552
 X3.527150 Y-1.517802
 Y-1.519052
 X3.527650 Y-1.520302
 Y-1.521552
 X3.527900
 Y-1.522802
 X3.528150
 Y-1.524052
 X3.528400
 Y-1.525552
 X3.528900 Y-1.526802
 Y-1.528052
 X3.529150
 Y-1.529302
 X3.529400
 Y-1.530552
 X3.529650
 Y-1.551302
 X3.533900 Y-1.555552
 X3.547150
 Y-1.555302
 X3.548400
 X3.568900 Y-1.546552
 X3.581150
 X3.602400 Y-1.555302
 X3.619400 Y-1.572302
 X3.628150 Y-1.593802
 Y-1.605802
 X3.619400 Y-1.627552
 X3.604650 Y-1.643302
 Y-1.819302
 X3.608900 Y-1.823552
 X3.622150
 X3.629650 Y-1.814802
 X3.646900 Y-1.803802
 X3.648150
 X3.649400 Y-1.803302
 X3.650650
 Y-1.803052
 X3.651900
 Y-1.802802
 X3.653150
 Y-1.802552
 X3.654400
 Y-1.802302
 X3.655650
 Y-1.802052
 X3.656900
 Y-1.801802
 X3.658150
 X3.659400 Y-1.801302
 X3.660650
 Y-1.801052
 X3.661900
 Y-1.800802
 X3.663150
 Y-1.800552
 X3.664400
 Y-1.800302
 X3.665650
 Y-1.800052
 X3.684650
 Y-1.800302
 X3.685900
 X3.687150 Y-1.800802
 X3.688400
 Y-1.801052
 X3.689650
 Y-1.801302
 X3.690900
 Y-1.801552
 X3.692150
 Y-1.801802
 X3.693400
 Y-1.802052
 X3.694650
 Y-1.802302
 X3.695900
 X3.697150 Y-1.802802
 X3.698400
 Y-1.803052
 X3.699650
 Y-1.803302
 X3.700900
 Y-1.803552
 X3.702150
 Y-1.803802
 X3.703400
 X3.713400 Y-1.809802
 X3.726650
 X3.730900 Y-1.805552
 Y-1.693052
 X3.730650
 Y-1.690802
 X3.730400
 Y-1.688802
 X3.730150
 Y-1.686552
 X3.729900
 Y-1.684552
 X3.729650
 Y-1.682302
 X3.729400
 Y-1.680302
 X3.729150
 Y-1.678052
 X3.728900
 Y-1.676052
 X3.728650
 Y-1.673802
 X3.728400
 Y-1.671802
 X3.728150
 Y-1.669552
 X3.727900
 Y-1.667552
 X3.727650
 Y-1.665302
 X3.727400
 Y-1.663302
 X3.727150
 Y-1.661052
 X3.726900
 Y-1.659052
 X3.726650
 Y-1.656802
 X3.726400
 Y-1.654802
 X3.726150
 Y-1.652552
 X3.725900
 Y-1.650302
 X3.725650
 Y-1.648302
 X3.725400
 Y-1.646052
 X3.725150
 Y-1.644052
 X3.724900
 Y-1.641802
 X3.724650
 Y-1.639802
 X3.724400
 Y-1.637552
 X3.724150
 Y-1.635552
 X3.723900
 Y-1.633302
 X3.723650
 Y-1.631302
 X3.723400
 Y-1.629052
 X3.723150
 Y-1.627052
 X3.722900
 Y-1.624802
 X3.722650
 Y-1.622802
 X3.722400
 Y-1.620552
 X3.722150
 Y-1.618552
 X3.721900
 Y-1.616302
 X3.721650
 Y-1.614302
 X3.721400
 Y-1.612052
 X3.721150
 Y-1.610052
 X3.720900
 Y-1.607802
 X3.720650
 Y-1.605802
 X3.720400
 Y-1.603552
 X3.720150
 Y-1.601552
 X3.719900
 Y-1.599302
 X3.719650
 Y-1.597302
 X3.719400
 Y-1.595052
 X3.719150
 Y-1.593052
 X3.718900
 Y-1.590802
 X3.718650
 Y-1.588802
 X3.718400
 Y-1.586552
 X3.718150
 Y-1.584552
 X3.717900
 Y-1.582302
 X3.717650
 Y-1.580302
 X3.717400
 Y-1.578052
 X3.717150
 Y-1.576052
 X3.716900
 Y-1.573802
 X3.716650
 Y-1.571802
 X3.716400
 Y-1.569552
 X3.716150
 Y-1.567552
 X3.715900
 Y-1.565302
 X3.715650
 Y-1.563302
 X3.715400
 Y-1.561052
 X3.715150
 Y-1.559052
 X3.714900
 Y-1.556802
 X3.714650
 Y-1.554802
 X3.714400
 Y-1.552552
 X3.714150
 Y-1.550552
 X3.713900
 Y-1.548302
 X3.713650
 Y-1.546302
 X3.713400
 Y-1.544052
 X3.713150
 Y-1.542052
 X3.712900
 Y-1.539802
 X3.712650
 Y-1.537802
 X3.712400
 Y-1.535552
 X3.712150
 Y-1.533552
 X3.711900
 Y-1.531302
 X3.711650
 Y-1.529302
 X3.711400
 Y-1.527052
 X3.711150
 Y-1.525052
 X3.710900
 Y-1.522802
 X3.710650
 Y-1.520802
 X3.710400
 Y-1.518552
 X3.710150
 Y-1.516552
 X3.709900
 Y-1.514302
 X3.709650
 Y-1.512302
 X3.709400
 Y-1.510052
 X3.709150
 Y-1.508052
 X3.708900
 Y-1.505802
 X3.708650
 Y-1.503802
 X3.708400
 Y-1.501552
 X3.708150
 Y-1.499552
 X3.707900
 Y-1.497302
 X3.707650
 Y-1.495302
 X3.707400
 Y-1.493052
 X3.707150
 Y-1.491052
 X3.706900
 Y-1.488802
 X3.706650
 Y-1.486802
 X3.706400
 Y-1.484552
 X3.706150
 Y-1.482552
 X3.705900
 Y-1.480302
 X3.705650
 Y-1.478302
 X3.705400
 Y-1.476052
 X3.705150
 Y-1.474052
 X3.704900
 Y-1.471802
 X3.704650
 Y-1.469802
 X3.704400
 Y-1.467552
 X3.704150
 Y-1.465552
 X3.703900
 Y-1.463302
 X3.703650
 Y-1.461302
 X3.703400
 Y-1.459052
 X3.703150
 Y-1.457052
 X3.702900
 Y-1.454802
 X3.702650
 Y-1.452802
 X3.702400
 Y-1.450552
 X3.702150
 Y-1.448552
 X3.701900
 Y-1.446302
 X3.701650
 Y-1.444302
 X3.701400
 Y-1.442052
 X3.701150
 Y-1.440052
 X3.700900
 Y-1.437802
 X3.700650
 Y-1.435802
 X3.700400
 Y-1.433552
 X3.700150
 Y-1.431552
 X3.699900
 Y-1.429302
 X3.699650
 Y-1.427302
 X3.699400
 Y-1.425052
 X3.699150
 Y-1.423052
 X3.698900
 Y-1.420802
 X3.698650
 Y-1.418802
 X3.698400
 Y-1.416552
 X3.698150
 Y-1.414552
 X3.697900
 Y-1.412302
 X3.697650
 Y-1.410302
 X3.697400
 Y-1.408052
 X3.697150
 Y-1.406052
 X3.696900
 Y-1.403802
 X3.696650
 Y-1.401802
 X3.696400
 Y-1.399552
 X3.696150
 Y-1.397552
 X3.695900
 Y-1.395302
 X3.695650
 Y-1.393302
 X3.695400
 Y-1.391052
 X3.695150
 Y-1.389052
 X3.694900
 Y-1.386802
 X3.694650
 Y-1.384802
 X3.694400
 Y-1.382552
 X3.694150
 Y-1.380552
 X3.693900
 Y-1.378302
 X3.693650
 Y-1.376302
 X3.693400
 Y-1.374052
 X3.693150
 Y-1.372052
 X3.692900
 Y-1.369802
 X3.692650
 Y-1.367802
 X3.692400
 Y-1.365552
 X3.692150
 Y-1.363552
 X3.691900
 Y-1.361302
 X3.691650
 Y-1.359302
 X3.691400
 Y-1.357052
 X3.691150
 Y-1.355052
 X3.690900
 Y-1.352802
 X3.690650
 Y-1.350802
 X3.690400
 Y-1.348552
 X3.690150
 Y-1.346552
 X3.689900
 Y-1.344302
 X3.689650
 Y-1.342302
 X3.689400
 Y-1.340052
 X3.689150
 Y-1.338052
 X3.688900
 Y-1.335802
 X3.688650
 Y-1.333802
 X3.688400
 Y-1.331552
 X3.688150
 Y-1.329552
 X3.687900
 Y-1.327302
 X3.687650
 Y-1.325302
 X3.687400
 Y-1.323052
 X3.687150
 Y-1.321052
 X3.686900
 Y-1.318802
 X3.686650
 Y-1.316802
 X3.686400
 Y-1.314552
 X3.686150
 Y-1.312552
 X3.685900
 Y-1.310302
 X3.685650
 Y-1.308302
 X3.685400
 Y-1.306052
 X3.685150
 Y-1.304052
 X3.684900
 Y-1.301802
 X3.684650
 Y-1.299802
 X3.684400
 Y-1.297552
 X3.684150
 Y-1.295552
 X3.683900
 Y-1.293302
 X3.683650
 Y-1.291302
 X3.683400
 Y-1.289052
 X3.683150
 Y-1.287052
 X3.682900
 Y-1.284802
 X3.682650
 Y-1.282802
 X3.682400
 Y-1.280552
 X3.682150
 Y-1.278552
 X3.681900
 Y-1.276302
 X3.681650
 Y-1.274302
 X3.681400
 Y-1.272052
 X3.681150
 Y-1.270552
 X3.529650 Y-1.119052
 X3.505900
 Y-0.974052
 X3.501650 Y-0.969802
 X3.488400
 X3.481400 Y-0.974552
 X3.465900 Y-0.979052
 Y-0.971802
 X3.471150
 Y-0.971552
 X3.473650
 Y-0.971302
 X3.476150
 X3.485650 Y-0.967552
 X3.491900 Y-0.962802
 X3.500400 Y-0.947052
 Y-0.944552
 X3.500650
 Y-0.942052
 X3.500900
 Y-0.927802
 X3.500650
 Y-0.925302
 X3.500400
 Y-0.922802
 X3.496650 Y-0.913302
 X3.491900 Y-0.907052
 X3.476150 Y-0.898552
 X3.473650
 Y-0.898302
 X3.471150
 Y-0.898052
 X3.428900
 Y-0.898302
 X3.426400
 Y-0.898552
 X3.423900
 X3.414400 Y-0.902302
 X3.408400 Y-0.906802
 X3.400900 Y-0.919052
 X3.396650
 X3.402650 Y-0.907802
 X3.421900 Y-0.891302
 Y-0.878052
 X3.419400 Y-0.874302
 X3.403650 Y-0.864302
 X3.333900
 X3.329650 Y-0.868552
 Y-0.901052
 X3.338650 Y-0.911302
 X3.346400 Y-0.930052
 Y-0.939552
 X3.337900 Y-0.959052
 X3.323650 Y-0.973302
 X3.304900 Y-0.981052
 X3.295400
 X3.276150 Y-0.973052
 X3.261650 Y-0.958552
 X3.253900 Y-0.939552
 Y-0.930052
 X3.261650 Y-0.911052
 X3.270400 Y-0.901052
 Y-0.868552
 X3.261650 Y-0.858552
 X3.253900 Y-0.839552
 Y-0.830052
 X3.261650 Y-0.811052
 X3.276400 Y-0.796302
 X3.295150 Y-0.788552
 X3.304900
 X3.323900 Y-0.796302
 X3.333900 Y-0.805302
 X3.403650
 X3.419650 Y-0.795302
 X3.422150 Y-0.791552
 Y-0.778302
 X3.419650 Y-0.774552
 X3.404650 Y-0.764802
 X3.393650 Y-0.747802
 Y-0.746552
 X3.393150 Y-0.745302
 Y-0.744052
 X3.392650 Y-0.742802
 Y-0.741552
 X3.392150 Y-0.740302
 Y-0.739052
 X3.391900
 Y-0.737802
 X3.391400 Y-0.736552
 Y-0.735302
 X3.391650 Y-0.733052
 Y-0.731802
 X3.392150 Y-0.730552
 Y-0.729302
 X3.392650 Y-0.728052
 Y-0.726802
 X3.393150 Y-0.725552
 Y-0.724302
 X3.393650 Y-0.723052
 Y-0.721802
 X3.404650 Y-0.704802
 X3.421900 Y-0.693802
 X3.423150
 Y-0.693552
 X3.424400
 Y-0.693302
 X3.425650
 Y-0.693052
 X3.426900
 Y-0.692802
 X3.428150
 Y-0.692552
 X3.429400
 X3.430650 Y-0.692052
 X3.431900
 Y-0.691802
 X3.433150
 Y-0.691552
 X3.434400
 Y-0.691302
 X3.435650
 Y-0.691052
 X3.436900
 Y-0.690802
 X3.438150
 Y-0.690552
 X3.439400
 X3.440650 Y-0.690052
 X3.459650
 Y-0.690302
 X3.460900
 Y-0.690552
 X3.462150
 Y-0.690802
 X3.463400
 Y-0.691052
 X3.464650
 Y-0.691302
 X3.465900
 Y-0.691552
 X3.467150
 X3.468400 Y-0.692052
 X3.469650
 Y-0.692302
 X3.470900
 Y-0.692552
 X3.472150
 Y-0.692802
 X3.473400
 Y-0.693052
 X3.474650
 Y-0.693302
 X3.475900
 Y-0.693552
 X3.477150
 X3.488400 Y-0.699802
 X3.501650
 X3.505900 Y-0.695552
 Y-0.605552
 X3.578400 Y-0.557552
 X3.580900 Y-0.553802
 Y-0.138052
 X3.588400 Y-0.130552
 X3.591400 Y-0.124052
 Y-0.122302
 X3.591650
 Y-0.037552
 X3.591400
 Y-0.035802
 X3.588400 Y-0.029302
 X3.580900 Y-0.021802
 Y-0.007802
 X3.576650 Y-0.003552
 X3.562650
 X3.545900 Y0.013198
 X2.824150
 X2.821650 Y0.010698
G00 Z0.039370
 X3.669400 Y-0.009552
F7.874016
G01 Z-0.003937
 Y-0.027552
 X3.669650
 Y-0.041802
 X3.669900
 Y-0.056302
 X3.670150
 Y-0.070802
 X3.670400
 Y-0.085302
 X3.670650
 Y-0.099552
 X3.670900
 Y-0.114052
 X3.671150
 Y-0.128552
 X3.671400
 Y-0.142802
 X3.671650
 Y-0.157302
 X3.671900
 Y-0.171802
 X3.672150
 Y-0.186052
 X3.672400
 Y-0.200552
 X3.672650
 Y-0.215052
 X3.672900
 Y-0.229302
 X3.673150
 Y-0.243802
 X3.673400
 Y-0.258302
 X3.673650
 Y-0.272802
 X3.673900
 Y-0.287052
 X3.674150
 Y-0.301552
 X3.674400
 Y-0.316052
 X3.674650
 Y-0.330302
 X3.674900
 Y-0.344802
 X3.675150
 Y-0.359302
 X3.675400
 Y-0.373552
 X3.675650
 Y-0.388052
 X3.675900
 Y-0.402552
 X3.676150
 Y-0.416802
 X3.676400
 Y-0.431302
 X3.676650
 Y-0.445802
 X3.676900
 Y-0.460302
 X3.677150
 Y-0.474552
 X3.677400
 Y-0.489052
 X3.677650
 Y-0.503552
 X3.677900
 Y-0.517802
 X3.678150
 Y-0.532302
 X3.678400
 Y-0.546802
 X3.678650
 Y-0.561052
 X3.678900
 Y-0.569302
 X3.594150 Y-0.655302
 Y-0.678052
 X3.594400
 Y-0.698802
 X3.594650
 Y-0.719552
 X3.594900
 Y-0.740302
 X3.595150
 Y-0.761052
 X3.595400
 Y-0.781802
 X3.595650
 Y-0.802552
 X3.595900
 Y-0.823302
 X3.596150
 Y-0.844052
 X3.596400
 Y-0.864802
 X3.596650
 Y-0.885552
 X3.596900
 Y-0.906302
 X3.597150
 Y-0.927052
 X3.597400
 Y-0.947802
 X3.597650
 Y-0.968552
 X3.597900
 Y-0.989302
 X3.598150
 Y-1.010052
 X3.598400
 Y-1.030802
 X3.598650
 Y-1.051302
 X3.598900
 Y-1.072052
 X3.599150
 Y-1.083302
 X3.601650 Y-1.087052
 X3.819150 Y-1.200552
 Y-1.229302
 X3.819400
 Y-1.293052
 X3.819650
 Y-1.356802
 X3.819900
 Y-1.420552
 X3.820150
 Y-1.484302
 X3.820400
 Y-1.548052
 X3.820650
 Y-1.612052
 X3.820900
 Y-1.675802
 X3.821150
 Y-1.739552
 X3.821400
 Y-1.803302
 X3.821650
 Y-1.867052
 X3.821900
 Y-1.930802
 X3.822150
 Y-1.994552
 X3.822400
 Y-2.058552
 X3.822650
 Y-2.122302
 X3.822900
 Y-2.186052
 X3.823150
 Y-2.249802
 X3.823400
 Y-2.313552
 X3.823650
 Y-2.377302
 X3.823900
 Y-2.441302
 X3.824150
 Y-2.474052
 X3.825900 Y-2.477302
 X3.940150 Y-2.570802
 X4.069650
 X4.073900 Y-2.566552
 Y-2.553302
 X4.071650 Y-2.549802
 X4.066400 Y-2.548302
 X4.065150
 X4.063900 Y-2.547802
 X4.062650
 X4.061400 Y-2.547302
 X4.060150
 X4.045900 Y-2.539052
 X4.003650 Y-2.498052
 X3.984150
 X3.962650 Y-2.489302
 X3.945650 Y-2.472302
 X3.936900 Y-2.451052
 Y-2.438802
 X3.945650 Y-2.417552
 X3.960400 Y-2.401302
 Y-2.335052
 X3.870900 Y-2.244052
 X3.863150 Y-2.232052
 Y-2.230802
 X3.862900
 Y-2.229552
 X3.862400 Y-2.228552
 Y-2.227302
 X3.862150
 Y-2.226052
 X3.861400 Y-2.223802
 Y-2.222552
 X3.860650 Y-2.220302
 Y-2.219052
 X3.860400
 Y-2.090552
 X3.860650
 Y-2.089302
 X3.860900
 Y-2.088052
 X3.861150
 Y-2.086802
 X3.861650 Y-2.085802
 Y-2.084552
 X3.861900
 Y-2.083302
 X3.862400 Y-2.082302
 Y-2.081052
 X3.862650
 Y-2.079802
 X3.863150 Y-2.078802
 Y-2.077552
 X3.870900 Y-2.065552
 X3.910900 Y-2.025552
 X3.924150 Y-2.017552
 X3.925400
 X3.944650 Y-2.005302
 X3.947150 Y-2.001552
 Y-1.988302
 X3.944650 Y-1.984552
 X3.929650 Y-1.974802
 X3.918400 Y-1.956552
 Y-1.955302
 X3.918150
 Y-1.954052
 X3.917900
 Y-1.952802
 X3.917400 Y-1.951552
 Y-1.950302
 X3.917150
 Y-1.949052
 X3.916900
 Y-1.947802
 X3.916400 Y-1.946552
 Y-1.945302
 X3.916650 Y-1.943052
 Y-1.941802
 X3.916900
 Y-1.940552
 X3.917150
 Y-1.939302
 X3.917400
 Y-1.938052
 X3.917900 Y-1.936802
 Y-1.935552
 X3.918150
 Y-1.934302
 X3.918400
 Y-1.933052
 X3.929650 Y-1.914802
 X3.938150 Y-1.907302
 Y-1.894052
 X3.933900 Y-1.889802
 X3.931650
 X3.923150 Y-1.885552
 X3.918900 Y-1.881302
 X3.915900 Y-1.874052
 Y-1.864052
 X3.919150 Y-1.860802
 X3.924150
 Y-1.881802
 X4.025900
 Y-1.860802
 X4.030900
 X4.034150 Y-1.864052
 Y-1.874052
 X4.029900 Y-1.882552
 X4.025650 Y-1.886802
 X4.018400 Y-1.889802
 X4.016400
 X4.012150 Y-1.894052
 Y-1.907302
 X4.014900 Y-1.911302
 X4.021650 Y-1.915302
 X4.066150
 X4.076400 Y-1.906302
 X4.095150 Y-1.898552
 X4.104900
 X4.125400 Y-1.907802
 X4.138650 Y-1.921302
 X4.146400 Y-1.940052
 Y-1.949552
 X4.138400 Y-1.968552
 X4.123650 Y-1.983302
 X4.104900 Y-1.991052
 X4.095400
 X4.076400 Y-1.983302
 X4.066150 Y-1.974302
 X4.021650
 X4.005650 Y-1.984552
 X4.003150 Y-1.988302
 Y-2.001552
 X4.005650 Y-2.005302
 X4.021650 Y-2.015302
 X4.159900
 X4.170400 Y-2.004802
 Y-0.910052
 X4.095900 Y-0.834052
 X4.088150 Y-0.822052
 Y-0.820802
 X4.087400 Y-0.818552
 Y-0.817302
 X4.086400 Y-0.813802
 Y-0.812552
 X4.085650 Y-0.810302
 Y-0.809052
 X4.085400
 Y-0.450802
 X4.088150 Y-0.437552
 X4.095900 Y-0.425552
 X4.177900 Y-0.342552
 Y-0.329302
 X4.173900 Y-0.319552
 Y-0.310052
 X4.181650 Y-0.291052
 X4.196400 Y-0.276302
 X4.215150 Y-0.268552
 X4.224900
 X4.245150 Y-0.277552
 X4.258650 Y-0.291302
 X4.266400 Y-0.310052
 Y-0.319552
 X4.258650 Y-0.338302
 X4.144650 Y-0.455052
 Y-0.695302
 X4.148900 Y-0.699552
 X4.162150
 X4.176400 Y-0.686302
 X4.195150 Y-0.678552
 X4.204900
 X4.223900 Y-0.686302
 X4.239900 Y-0.701052
 X4.267400
 X4.334900 Y-0.634802
 X4.344900 Y-0.628302
 X4.346150
 X4.347400 Y-0.627802
 X4.348650
 X4.350900 Y-0.627052
 X4.352150
 X4.353400 Y-0.626552
 X4.354650
 X4.355900 Y-0.626052
 X4.519900
 X4.526150 Y-0.623052
 X4.527400
 X4.528650 Y-0.622552
 X4.529900
 X4.532150 Y-0.621802
 X4.533400
 X4.535900 Y-0.621052
 X4.577400
 X4.581650 Y-0.616802
 Y-0.603552
 X4.576150 Y-0.588552
 Y-0.583802
 X4.576400
 Y-0.579302
 X4.576650
 Y-0.577802
 X4.579650 Y-0.570552
 X4.584400 Y-0.575302
 Y-0.577802
 X4.584150
 Y-0.592052
 X4.584400
 Y-0.594552
 X4.584650
 Y-0.596802
 X4.588400 Y-0.606302
 X4.593150 Y-0.612302
 X4.608150 Y-0.620302
 X4.610400
 Y-0.620552
 X4.612900
 Y-0.620802
 X4.627150
 Y-0.620552
 X4.629650
 Y-0.620302
 X4.631900
 X4.641400 Y-0.616552
 X4.647150 Y-0.612052
 X4.655400 Y-0.596802
 Y-0.594552
 X4.655650
 Y-0.592052
 X4.655900
 Y-0.577802
 X4.655650
 Y-0.575302
 X4.660150 Y-0.570552
 X4.664150 Y-0.581552
 Y-0.584302
 X4.663900
 Y-0.589802
 X4.663650
 Y-0.591802
 X4.658650 Y-0.603552
 Y-0.616802
 X4.662900 Y-0.621052
 X4.679650
 X4.697900 Y-0.603302
 X4.715650 Y-0.596052
 X4.724400
 X4.742150 Y-0.603302
 X4.746900 Y-0.607802
 X4.756400 Y-0.617302
 X4.763900 Y-0.635552
 Y-0.644052
 X4.756650 Y-0.661802
 X4.742150 Y-0.676302
 X4.728400 Y-0.681802
 X4.725400 Y-0.685802
 Y-0.699052
 X4.727650 Y-0.702552
 X4.746400 Y-0.711302
 X4.754150
 X4.755400 Y-0.711802
 X4.756650
 X4.757900 Y-0.712302
 X4.759150
 X4.760400 Y-0.712802
 X4.761650
 X4.763900 Y-0.713552
 X4.765150
 X4.767650 Y-0.714302
 X4.768900
 X4.782150 Y-0.722802
 X4.822150 Y-0.762802
 X4.830900 Y-0.777302
 Y-0.778552
 X4.831150
 Y-0.779802
 X4.831650 Y-0.781052
 Y-0.782302
 X4.832400 Y-0.784552
 Y-0.785802
 X4.832900 Y-0.787052
 Y-0.788302
 X4.833400 Y-0.789552
 Y-0.790802
 X4.833650
 Y-0.919052
 X4.833150 Y-0.920302
 Y-0.921552
 X4.832150 Y-0.925052
 Y-0.926302
 X4.831650 Y-0.927552
 Y-0.928802
 X4.830900 Y-0.931052
 Y-0.932302
 X4.820650 Y-0.948302
 X4.772150 Y-0.996802
 X4.757650 Y-1.005552
 X4.756400
 X4.753900 Y-1.006302
 X4.752650
 X4.750400 Y-1.007052
 X4.749150
 X4.747900 Y-1.007552
 X4.746650
 X4.745400 Y-1.008052
 X4.744150
 Y-1.008302
 X4.686900
 X4.558650 Y-1.136552
 Y-1.263052
 X4.622150 Y-1.327802
 X4.630900 Y-1.342302
 Y-1.343552
 X4.631150
 Y-1.344802
 X4.631400
 Y-1.346052
 X4.632150 Y-1.348302
 Y-1.349552
 X4.632650 Y-1.350802
 Y-1.352052
 X4.632900
 Y-1.353302
 X4.633150
 Y-1.354552
 X4.633650 Y-1.355802
 Y-1.503802
 X4.637900 Y-1.508052
 X4.651150
 X4.654650 Y-1.505802
 X4.659150 Y-1.494302
 X4.674900 Y-1.478802
 X4.694650 Y-1.470552
 X4.705400
 X4.725150 Y-1.478802
 X4.729650 Y-1.483052
 X4.741150 Y-1.494552
 X4.749400 Y-1.514302
 Y-1.525052
 X4.741150 Y-1.545052
 X4.724150 Y-1.563302
 Y-1.576552
 X4.741150 Y-1.594552
 X4.749400 Y-1.614302
 Y-1.625052
 X4.741150 Y-1.645052
 X4.724150 Y-1.663302
 Y-1.676552
 X4.741150 Y-1.694552
 X4.749400 Y-1.714302
 Y-1.725052
 X4.741150 Y-1.745052
 X4.724150 Y-1.763302
 Y-1.776552
 X4.741150 Y-1.794552
 X4.749400 Y-1.814302
 Y-1.825052
 X4.741150 Y-1.845052
 X4.733650 Y-1.853802
 Y-1.934052
 X4.737900 Y-1.938302
 X4.747650
 X4.756650 Y-1.947802
 Y-1.962052
 X4.747900 Y-1.971302
 X4.737900
 X4.733650 Y-1.975552
 Y-1.994052
 X4.733150 Y-1.995302
 Y-1.996552
 X4.732900
 Y-1.997802
 X4.732400 Y-1.998802
 Y-2.000052
 X4.732150
 Y-2.001302
 X4.731900
 Y-2.002552
 X4.731650
 Y-2.003802
 X4.731150 Y-2.004802
 Y-2.006052
 X4.730900
 Y-2.007302
 X4.730650
 Y-2.008552
 X4.729650 Y-2.011052
 Y-2.289302
 X4.729150 Y-2.290552
 Y-2.291802
 X4.728900
 Y-2.293052
 X4.728650
 Y-2.294302
 X4.728400
 Y-2.295552
 X4.728150
 Y-2.296802
 X4.727900
 Y-2.298052
 X4.727650
 Y-2.299302
 X4.727150 Y-2.300552
 Y-2.301802
 X4.719150 Y-2.314052
 X4.589150 Y-2.444052
 X4.575900 Y-2.452052
 X4.574650
 X4.573400 Y-2.452552
 X4.572150
 X4.570900 Y-2.453052
 X4.569400
 X4.568150 Y-2.453552
 X4.566900
 X4.565650 Y-2.454052
 X4.564400
 Y-2.454302
 X4.560400
 X4.552150 Y-2.461302
 X4.534400 Y-2.468552
 X4.525900
 X4.507650 Y-2.461052
 X4.499650 Y-2.454302
 X4.390150
 X4.304150 Y-2.539052
 X4.291150 Y-2.547052
 X4.289900
 X4.288650 Y-2.547552
 X4.287400
 X4.285150 Y-2.548302
 X4.283900
 X4.282650 Y-2.548802
 X4.281400
 X4.276400 Y-2.553302
 Y-2.566552
 X4.280650 Y-2.570802
 X4.861400
 X4.865650 Y-2.566552
 Y-0.007802
 X4.861400 Y-0.003552
 X3.673650
 X3.669400 Y-0.007802
 Y-0.009552
G00 Z0.039370
 X-0.002100
F7.874016
G01 Z-0.003937
 Y-0.627802
 X-0.001850
 Y-0.667052
 X-0.001600
 Y-0.706302
 X-0.001350
 Y-0.745552
 X-0.001100
 Y-0.784802
 X-0.000850
 Y-0.823802
 X-0.000600
 Y-0.863052
 X-0.000350
 Y-0.902302
 X-0.000100
 Y-0.941552
 X0.000150
 Y-0.980802
 X0.000400
 Y-1.020052
 X0.000650
 Y-1.059052
 X0.000900
 Y-1.098302
 X0.001150
 Y-1.137552
 X0.001400
 Y-1.176802
 X0.001650
 Y-1.216052
 X0.001900
 Y-1.255302
 X0.002150
 Y-1.294302
 X0.002400
 Y-1.333552
 X0.002650
 Y-1.372802
 X0.002900
 Y-1.412052
 X0.003150
 Y-1.451302
 X0.003400
 Y-1.490552
 X0.003650
 Y-1.529552
 X0.003900
 Y-1.568802
 X0.004150
 Y-1.608052
 X0.004400
 Y-1.647302
 X0.004650
 Y-1.686552
 X0.004900
 Y-1.725552
 X0.005150
 Y-1.764802
 X0.005400
 Y-1.804052
 X0.005650
 Y-1.843302
 X0.005900
 Y-1.882552
 X0.006150
 Y-1.921802
 X0.006400
 Y-1.960802
 X0.006650
 Y-2.000052
 X0.006900
 Y-2.039302
 X0.007150
 Y-2.078552
 X0.007400
 Y-2.117802
 X0.007650
 Y-2.157052
 X0.007900
 Y-2.196052
 X0.008150
 Y-2.235302
 X0.008400
 Y-2.274552
 X0.008650
 Y-2.313802
 X0.008900
 Y-2.353052
 X0.009150
 Y-2.392302
 X0.009400
 Y-2.431302
 X0.009650
 Y-2.470552
 X0.009900
 Y-2.509802
 X0.010150
 Y-2.549052
 X0.010400
 Y-2.588302
 X0.010650
 Y-2.627302
 X0.010900
 Y-2.666552
 X0.011150
 Y-2.705802
 X0.011400
 Y-2.745052
 X0.011650
 Y-2.784302
 X0.011900
 Y-2.823552
 X0.012150
 Y-2.862552
 X0.012400
 Y-2.901802
 X0.012650
 Y-2.941052
 X0.012900
 Y-2.980302
 X0.013150
 Y-3.019552
 X0.013400
 Y-3.058802
 X0.013650
 Y-3.097802
 X0.013900
 Y-3.137052
 X0.014150
 Y-3.176302
 X0.014400
 Y-3.215552
 X0.014650
 Y-3.254802
 X0.014900
 Y-3.294052
 X0.015150
 Y-3.333052
 X0.015400
 Y-3.372302
 X0.015650
 Y-3.411552
 X0.015900
 Y-3.450802
 X0.016150
 Y-3.490052
 X0.016400
 Y-3.529052
 X0.016650
 Y-3.568302
 X0.016900
 Y-3.607552
 X0.017150
 Y-3.646802
 X0.017400
 Y-3.686052
 X0.017650
 Y-3.725302
 X0.017900
 Y-3.764302
 X0.018150
 Y-3.803552
 X0.018400
 Y-3.842802
 X0.018650
 Y-3.872802
 X0.018900
 Y-3.893552
 X0.019150
 Y-3.904802
 X0.019400 Y-3.905552
 X1.705650
 X1.705900 Y-3.904802
 Y-2.318052
 X1.705650
 Y-2.316552
 X1.705400
 Y-2.315052
 X1.705150
 Y-2.313552
 X1.704900
 Y-2.312052
 X1.704650
 Y-2.310552
 X1.704400
 Y-2.309052
 X1.704150
 Y-2.307552
 X1.703900
 Y-2.306052
 X1.703650
 Y-2.304552
 X1.703400
 Y-2.303052
 X1.703150
 Y-2.301552
 X1.702900
 Y-2.300052
 X1.702650
 Y-2.298552
 X1.702400
 Y-2.297052
 X1.702150
 Y-2.295552
 X1.701900
 Y-2.294052
 X1.701400 Y-2.292802
 Y-2.291302
 X1.701150
 Y-2.289802
 X1.700900
 Y-2.288302
 X1.700650
 Y-2.286802
 X1.700400
 Y-2.285302
 X1.700150
 Y-2.283802
 X1.699900
 Y-2.282302
 X1.699650
 Y-2.280802
 X1.699400
 Y-2.279302
 X1.699150
 Y-2.277802
 X1.698900
 Y-2.276302
 X1.698650
 Y-2.274802
 X1.698400
 Y-2.273302
 X1.698150
 Y-2.271802
 X1.697900
 Y-2.270302
 X1.697650
 Y-2.268802
 X1.697400
 Y-2.267302
 X1.697150
 Y-2.265802
 X1.696900
 Y-2.264302
 X1.696650
 Y-2.262802
 X1.696400
 Y-2.261302
 X1.696150
 Y-2.259802
 X1.695900
 Y-2.258302
 X1.695650
 Y-2.256802
 X1.695400
 Y-2.255302
 X1.695150
 Y-2.253802
 X1.694900
 Y-2.252302
 X1.694650
 Y-2.250802
 X1.694400
 Y-2.249302
 X1.694150
 Y-2.247802
 X1.693900
 Y-2.246302
 X1.693650
 Y-2.244802
 X1.693400
 Y-2.243302
 X1.693150
 Y-2.241802
 X1.692900
 Y-2.240302
 X1.692650
 Y-2.238802
 X1.692400
 Y-2.237302
 X1.692150
 Y-2.235802
 X1.691900
 Y-2.234302
 X1.691650
 Y-2.232802
 X1.691400
 Y-2.231302
 X1.691150
 Y-2.229802
 X1.690900
 Y-2.228302
 X1.690650
 Y-2.226802
 X1.690400
 Y-2.225302
 X1.690150
 Y-2.223802
 X1.689900
 Y-2.222302
 X1.689650
 Y-2.220802
 X1.689400
 Y-2.219302
 X1.689150
 Y-2.217802
 X1.688900
 Y-2.216302
 X1.688650
 Y-2.214802
 X1.688400
 Y-2.213302
 X1.688150
 Y-2.211802
 X1.687900
 Y-2.210302
 X1.687650
 Y-2.208802
 X1.687400
 Y-2.207302
 X1.687150
 Y-2.205802
 X1.686900
 Y-2.204302
 X1.686650
 Y-2.202802
 X1.686400
 Y-2.201302
 X1.686150
 Y-2.199802
 X1.685900
 Y-2.198302
 X1.685650
 Y-2.196802
 X1.685400
 Y-2.195302
 X1.685150
 Y-2.193802
 X1.684900
 Y-2.192302
 X1.684650
 Y-2.190802
 X1.684400
 Y-2.189302
 X1.684150
 Y-2.187802
 X1.683900
 Y-2.186302
 X1.683650
 Y-2.184802
 X1.683400
 Y-2.183302
 X1.683150
 Y-2.181802
 X1.682900
 Y-2.180302
 X1.682650
 Y-2.178802
 X1.682400
 Y-2.177302
 X1.682150
 Y-2.175802
 X1.681900
 Y-2.174302
 X1.681650
 Y-2.172802
 X1.681400
 Y-2.171302
 X1.681150
 Y-2.170052
 X1.605400 Y-2.068552
 X1.505900 Y-2.019052
 X1.430900 Y-1.943802
 Y-1.942552
 X1.430650
 Y-1.941302
 X1.430150 Y-1.940052
 Y-1.938802
 X1.429900
 Y-1.937552
 X1.429650
 Y-1.936302
 X1.429150 Y-1.935052
 Y-1.933802
 X1.428900
 Y-1.932552
 X1.428650
 Y-1.931302
 X1.428150 Y-1.930052
 Y-1.928802
 X1.427900
 Y-1.927552
 X1.427650
 Y-1.926302
 X1.427150 Y-1.925052
 Y-1.923802
 X1.426900
 Y-1.922552
 X1.426650
 Y-1.921302
 X1.426150 Y-1.920052
 Y-1.918802
 X1.425900
 Y-1.917552
 X1.425650
 Y-1.916302
 X1.425150 Y-1.915052
 Y-1.913802
 X1.424900
 Y-1.912552
 X1.424650
 Y-1.911302
 X1.424400
 Y-1.910052
 X1.423900 Y-1.908802
 Y-1.907552
 X1.423650
 Y-1.906302
 X1.423400
 Y-1.905052
 X1.422900 Y-1.903802
 Y-1.902552
 X1.422650
 Y-1.901302
 X1.422400
 Y-1.900052
 X1.421900 Y-1.898802
 Y-1.897552
 X1.421650
 Y-1.896302
 X1.421400
 Y-1.895052
 X1.420900 Y-1.893802
 Y-1.892552
 X1.420650
 Y-1.891302
 X1.420400
 Y-1.890052
 X1.419900 Y-1.888802
 Y-1.887552
 X1.419650
 Y-1.886302
 X1.419400
 Y-1.885052
 X1.418900 Y-1.883802
 Y-1.882552
 X1.418650
 Y-1.881302
 X1.418400
 Y-1.880052
 X1.418150
 Y-1.878802
 X1.417650 Y-1.877552
 Y-1.876302
 X1.417400
 Y-1.875052
 X1.417150
 Y-1.873802
 X1.416650 Y-1.872552
 Y-1.871302
 X1.416400
 Y-1.870052
 X1.416150
 Y-1.868802
 X1.415650 Y-1.867552
 Y-1.866302
 X1.415400
 Y-1.865052
 X1.415150
 Y-1.863802
 X1.414650 Y-1.862552
 Y-1.861302
 X1.414400
 Y-1.860052
 X1.414150
 Y-1.858802
 X1.413650 Y-1.857552
 Y-1.856302
 X1.413400
 Y-1.855052
 X1.413150
 Y-1.853802
 X1.412650 Y-1.852552
 Y-1.851302
 X1.412400
 Y-1.850052
 X1.412150
 Y-1.848802
 X1.411900
 Y-1.847552
 X1.411400 Y-1.846302
 Y-1.845052
 X1.411150
 Y-1.843802
 X1.410900
 Y-1.842552
 X1.410400 Y-1.841302
 Y-1.840052
 X1.410150
 Y-1.838802
 X1.409900
 Y-1.837552
 X1.409400 Y-1.836302
 Y-1.835052
 X1.409150
 Y-1.833802
 X1.408900
 Y-1.832552
 X1.408400 Y-1.831302
 Y-1.830052
 X1.408150
 Y-1.828802
 X1.407900
 Y-1.827552
 X1.407400 Y-1.826302
 Y-1.825052
 X1.407150
 Y-1.823802
 X1.406900
 Y-1.822552
 X1.404900 Y-1.817552
 X1.380900 Y-1.794052
 Y-1.754552
 X1.376650 Y-1.750302
 X1.371650
 Y-1.741802
 X1.384650 Y-1.732802
 X1.390900 Y-1.723802
 X1.394400 Y-1.714552
 Y-1.713302
 X1.394650
 Y-1.711802
 X1.394900
 Y-1.710052
 X1.395150
 Y-1.689802
 X1.394900
 Y-1.688052
 X1.394650
 Y-1.686552
 X1.394400
 Y-1.685302
 X1.389150 Y-1.672802
 X1.384650 Y-1.667052
 X1.371650 Y-1.658052
 Y-1.648802
 X1.376650
 X1.380900 Y-1.644552
 Y-1.544552
 X1.305900 Y-1.419052
 Y-0.007802
 X1.301650 Y-0.003552
 X-0.001600
 X-0.002100 Y-0.003802
 Y-0.009552
G00 Z0.039370
 X3.455650 Y-0.052552
F7.874016
G01 Z-0.003937
 X3.445900 Y-0.063302
 X3.332650
 Y-0.063552
 X3.330900
 X3.322150 Y-0.068552
 X3.293150 Y-0.097552
 X3.288650 Y-0.105802
 Y-0.107552
 X3.288400
 Y-0.232302
 X3.288650
 Y-0.234052
 X3.293150 Y-0.242302
 X3.348400 Y-0.297302
 Y-0.422302
 X3.348650
 Y-0.424052
 X3.351650 Y-0.430552
 X3.360900 Y-0.436302
 X3.362650
 Y-0.436552
 X3.449150
 Y-0.451802
 X3.550900
 Y-0.378052
 X3.449150
 Y-0.393302
 X3.391650
 Y-0.277552
 X3.391400
 Y-0.275802
 X3.387400 Y-0.268052
 X3.331650 Y-0.212552
 Y-0.127302
 X3.352400 Y-0.106552
 X3.445900
 X3.455900 Y-0.117802
 X3.467900 Y-0.122802
 X3.470400
 Y-0.123052
 X3.472900
 Y-0.123302
 X3.487150
 Y-0.123052
 X3.489650
 Y-0.122802
 X3.492150
 X3.500650 Y-0.119802
 X3.508400 Y-0.114302
 X3.513400 Y-0.108302
 X3.517900 Y-0.097052
 Y-0.094552
 X3.518150
 Y-0.092052
 X3.518400
 Y-0.077802
 X3.518150
 Y-0.075302
 X3.517900
 Y-0.072802
 X3.513400 Y-0.061552
 X3.508400 Y-0.055552
 X3.500150 Y-0.049802
 X3.492150 Y-0.047052
 X3.489650
 Y-0.046802
 X3.487150
 Y-0.046552
 X3.472900
 Y-0.046802
 X3.470400
 Y-0.047052
 X3.467900
 X3.455650 Y-0.052552
G00 Z0.039370
 X3.155650
F7.874016
G01 Z-0.003937
 X3.147150 Y-0.060802
 X3.142150 Y-0.072802
 Y-0.075302
 X3.141900
 Y-0.077802
 X3.141650
 Y-0.092052
 X3.141900
 Y-0.094552
 X3.142150
 Y-0.097052
 X3.147150 Y-0.109052
 X3.158400 Y-0.119052
 Y-0.206552
 X3.151650 Y-0.213052
 X3.147150 Y-0.223302
 Y-0.225302
 X3.146900
 Y-0.227802
 X3.146650
 Y-0.242052
 X3.146900
 Y-0.244552
 X3.147150
 Y-0.246552
 X3.154150 Y-0.259802
 X3.168400 Y-0.267802
 X3.170400
 Y-0.268052
 X3.172900
 Y-0.268302
 X3.187150
 Y-0.268052
 X3.189650
 Y-0.267802
 X3.191650
 X3.205900 Y-0.259802
 X3.212900 Y-0.246552
 Y-0.244552
 X3.213150
 Y-0.242052
 X3.213400
 Y-0.227802
 X3.213150
 Y-0.225302
 X3.212900
 Y-0.223302
 X3.208400 Y-0.213052
 X3.201650 Y-0.206552
 Y-0.119052
 X3.212900 Y-0.109052
 X3.217900 Y-0.097052
 Y-0.094552
 X3.218150
 Y-0.092052
 X3.218400
 Y-0.077802
 X3.218150
 Y-0.075302
 X3.217900
 Y-0.072802
 X3.213400 Y-0.061552
 X3.208900 Y-0.056052
 X3.200150 Y-0.049802
 X3.192150 Y-0.047052
 X3.189650
 Y-0.046802
 X3.187150
 Y-0.046552
 X3.172900
 Y-0.046802
 X3.170400
 Y-0.047052
 X3.167900
 X3.155650 Y-0.052552
G00 Z0.039370
 X1.684150 Y-0.074302
F7.874016
G01 Z-0.003937
 X1.458150 Y-0.300052
 X1.453650 Y-0.308302
 Y-0.310052
 X1.453400
 Y-0.583052
 X1.440400 Y-0.592052
 X1.434150 Y-0.601052
 X1.430650 Y-0.610302
 Y-0.611552
 X1.430400
 Y-0.613052
 X1.430150
 Y-0.614802
 X1.429900
 Y-0.635052
 X1.430150
 Y-0.636802
 X1.430400
 Y-0.638302
 X1.430650
 Y-0.639552
 X1.435900 Y-0.652052
 X1.440900 Y-0.658302
 X1.447900 Y-0.664052
 X1.460400 Y-0.669302
 X1.461650
 Y-0.669552
 X1.463150
 Y-0.669802
 X1.464900
 Y-0.670052
 X1.485150
 Y-0.669802
 X1.486900
 Y-0.669552
 X1.488400
 Y-0.669302
 X1.489650
 X1.502150 Y-0.664052
 X1.507900 Y-0.659552
 X1.516900 Y-0.646552
 X1.565900
 X1.575900 Y-0.657802
 X1.587900 Y-0.662802
 X1.590400
 Y-0.663052
 X1.592900
 Y-0.663302
 X1.607150
 Y-0.663052
 X1.609650
 Y-0.662802
 X1.612150
 X1.620650 Y-0.659802
 X1.627900 Y-0.654802
 X1.633400 Y-0.648302
 X1.637900 Y-0.637052
 Y-0.634552
 X1.638150
 Y-0.632052
 X1.638400
 Y-0.617802
 X1.638150
 Y-0.615302
 X1.637900
 Y-0.612802
 X1.634900 Y-0.604302
 X1.629150 Y-0.596302
 X1.623400 Y-0.591552
 X1.612150 Y-0.587052
 X1.609650
 Y-0.586802
 X1.607150
 Y-0.586552
 X1.592900
 Y-0.586802
 X1.590400
 Y-0.587052
 X1.587900
 X1.575900 Y-0.592052
 X1.565900 Y-0.603302
 X1.516900
 X1.509650 Y-0.592052
 X1.496650 Y-0.583052
 Y-0.329802
 X1.714900 Y-0.111552
 X2.552650
 X2.690900 Y-0.249802
 Y-1.009802
 X2.691150
 Y-1.011552
 X2.695650 Y-1.019802
 X2.804900 Y-1.128802
 Y-1.135052
 X2.805150
 Y-1.136802
 X2.805400
 Y-1.138302
 X2.805650
 Y-1.139552
 X2.810900 Y-1.152052
 X2.816900 Y-1.159302
 X2.822900 Y-1.164052
 X2.835400 Y-1.169302
 X2.836650
 Y-1.169552
 X2.838150
 Y-1.169802
 X2.839900
 Y-1.170052
 X2.860150
 Y-1.169802
 X2.861900
 Y-1.169552
 X2.863400
 X2.873900 Y-1.165802
 X2.882900 Y-1.159552
 X2.889150 Y-1.152052
 X2.894400 Y-1.139552
 Y-1.138302
 X2.894650
 Y-1.136802
 X2.894900
 Y-1.135052
 X2.895150
 Y-1.114802
 X2.894900
 Y-1.113052
 X2.894650
 Y-1.111552
 X2.894400
 Y-1.110302
 X2.889150 Y-1.097802
 X2.882900 Y-1.090302
 X2.873900 Y-1.084052
 X2.863400 Y-1.080302
 X2.861900
 Y-1.080052
 X2.860150
 Y-1.079802
 X2.839900
 Y-1.080052
 X2.838150
 Y-1.080302
 X2.836650
 Y-1.080552
 X2.835400
 X2.827400 Y-1.083302
 X2.734150 Y-0.990052
 Y-0.230052
 X2.733900
 Y-0.228302
 X2.729900 Y-0.220552
 X2.715400 Y-0.206052
 X2.582150 Y-0.072802
 X2.574150 Y-0.068552
 X2.572400
 Y-0.068302
 X1.695150
 Y-0.068552
 X1.693400
 X1.684150 Y-0.074302
G00 Z0.039370
 X2.861150 Y-0.076552
F7.874016
G01 Z-0.003937
 X2.838400 Y-0.087802
 X2.818150 Y-0.106302
 X2.805900 Y-0.125302
 X2.797650 Y-0.149052
 Y-0.150552
 X2.797400
 Y-0.152302
 X2.797150
 Y-0.153802
 X2.796900
 Y-0.155552
 X2.796650
 Y-0.157052
 X2.796400
 Y-0.158802
 X2.796150
 Y-0.163052
 X2.795900
 Y-0.168052
 X2.795650
 Y-0.181802
 X2.795900
 Y-0.186802
 X2.796150
 Y-0.191052
 X2.796400
 Y-0.192802
 X2.796650
 Y-0.194302
 X2.796900
 Y-0.196052
 X2.797150
 Y-0.197552
 X2.797400
 Y-0.199302
 X2.797650
 Y-0.200802
 X2.807650 Y-0.228052
 X2.823900 Y-0.249802
 X2.846900 Y-0.267302
 X2.874150 Y-0.277302
 X2.875650
 Y-0.277552
 X2.877150
 Y-0.277802
 X2.878900
 Y-0.278052
 X2.880650
 Y-0.278302
 X2.882150
 Y-0.278552
 X2.883900
 Y-0.278802
 X2.888150
 Y-0.279052
 X2.893150
 Y-0.279302
 X2.906900
 Y-0.279052
 X2.911900
 Y-0.278802
 X2.916150
 Y-0.278552
 X2.917900
 Y-0.278302
 X2.919400
 Y-0.278052
 X2.921150
 Y-0.277802
 X2.922900
 Y-0.277552
 X2.924400
 Y-0.277302
 X2.925900
 X2.953150 Y-0.267302
 X2.973650 Y-0.252302
 X2.982150 Y-0.243302
 X2.992400 Y-0.228052
 X3.002400 Y-0.200802
 Y-0.199302
 X3.002650
 Y-0.197802
 X3.002900
 Y-0.196052
 X3.003150
 Y-0.194302
 X3.003400
 Y-0.192802
 X3.003650
 Y-0.191052
 X3.003900
 Y-0.186802
 X3.004150
 Y-0.181802
 X3.004400
 Y-0.168052
 X3.004150
 Y-0.163052
 X3.003900
 Y-0.158802
 X3.003650
 Y-0.157052
 X3.003400
 Y-0.155552
 X3.003150
 Y-0.153802
 X3.002900
 Y-0.152052
 X3.002650
 Y-0.150552
 X3.002400
 Y-0.149052
 X2.992400 Y-0.121802
 X2.982150 Y-0.106552
 X2.973650 Y-0.097552
 X2.953150 Y-0.082552
 X2.925900 Y-0.072552
 X2.924400
 Y-0.072302
 X2.922900
 Y-0.072052
 X2.921150
 Y-0.071802
 X2.919400
 Y-0.071552
 X2.917900
 Y-0.071302
 X2.916150
 Y-0.071052
 X2.911900
 Y-0.070802
 X2.906900
 Y-0.070552
 X2.893150
 Y-0.070802
 X2.888150
 Y-0.071052
 X2.883900
 Y-0.071302
 X2.882150
 Y-0.071552
 X2.880650
 Y-0.071802
 X2.878900
 Y-0.072052
 X2.877150
 Y-0.072302
 X2.875650
 Y-0.072552
 X2.874150
 X2.861150 Y-0.076552
G00 Z0.039370
 X4.684900 Y-0.115052
F7.874016
G01 Z-0.003937
 X4.672400 Y-0.121552
 X4.656150 Y-0.136302
 X4.647900 Y-0.148552
 X4.640650 Y-0.168552
 Y-0.170052
 X4.640400
 Y-0.171552
 X4.640150
 Y-0.173302
 X4.639900
 Y-0.174802
 X4.639650
 Y-0.176552
 X4.639400
 Y-0.181552
 X4.639150
 Y-0.198302
 X4.639400
 Y-0.203302
 X4.639650
 Y-0.205052
 X4.639900
 Y-0.206552
 X4.640150
 Y-0.208302
 X4.640400
 Y-0.209802
 X4.640650
 Y-0.211302
 X4.648650 Y-0.232552
 X4.661650 Y-0.249552
 X4.678650 Y-0.262052
 X4.699900 Y-0.269552
 X4.701650
 Y-0.269802
 X4.703400
 Y-0.270052
 X4.704900
 Y-0.270302
 X4.706650
 Y-0.270552
 X4.711650
 Y-0.270802
 X4.728400
 Y-0.270552
 X4.733400
 Y-0.270302
 X4.735150
 Y-0.270052
 X4.736650
 Y-0.269802
 X4.738400
 Y-0.269552
 X4.740150
 X4.761400 Y-0.262052
 X4.779150 Y-0.248802
 X4.792150 Y-0.231302
 X4.799650 Y-0.210052
 Y-0.208302
 X4.799900
 Y-0.206552
 X4.800150
 Y-0.205052
 X4.800400
 Y-0.203302
 X4.800650
 Y-0.198302
 X4.800900
 Y-0.181552
 X4.800650
 Y-0.176552
 X4.800400
 Y-0.174802
 X4.800150
 Y-0.173302
 X4.799900
 Y-0.171552
 X4.799650
 Y-0.169802
 X4.792150 Y-0.148552
 X4.779150 Y-0.131052
 X4.761400 Y-0.117802
 X4.740150 Y-0.110302
 X4.738400
 Y-0.110052
 X4.736650
 Y-0.109802
 X4.735150
 Y-0.109552
 X4.733400
 Y-0.109302
 X4.728400
 Y-0.109052
 X4.711650
 Y-0.109302
 X4.706650
 Y-0.109552
 X4.704900
 Y-0.109802
 X4.703400
 Y-0.110052
 X4.701650
 Y-0.110302
 X4.699900
 X4.684900 Y-0.115052
G00 Z0.039370
 X0.661150 Y-0.126552
F7.874016
G01 Z-0.003937
 X0.638400 Y-0.137802
 X0.618150 Y-0.156302
 X0.605900 Y-0.175302
 X0.597650 Y-0.199052
 Y-0.200552
 X0.597400
 Y-0.202302
 X0.597150
 Y-0.203802
 X0.596900
 Y-0.205552
 X0.596650
 Y-0.207052
 X0.596400
 Y-0.208802
 X0.596150
 Y-0.213052
 X0.595900
 Y-0.218052
 X0.595650
 Y-0.231802
 X0.595900
 Y-0.236802
 X0.596150
 Y-0.241052
 X0.596400
 Y-0.242802
 X0.596650
 Y-0.244302
 X0.596900
 Y-0.246052
 X0.597150
 Y-0.247552
 X0.597400
 Y-0.249302
 X0.597650
 Y-0.250802
 X0.607650 Y-0.278052
 X0.622650 Y-0.298552
 X0.631400 Y-0.306802
 X0.646900 Y-0.317302
 X0.674150 Y-0.327302
 X0.675650
 Y-0.327552
 X0.677150
 Y-0.327802
 X0.678900
 Y-0.328052
 X0.680650
 Y-0.328302
 X0.682150
 Y-0.328552
 X0.683900
 Y-0.328802
 X0.688150
 Y-0.329052
 X0.693150
 Y-0.329302
 X0.706900
 Y-0.329052
 X0.711900
 Y-0.328802
 X0.716150
 Y-0.328552
 X0.717900
 Y-0.328302
 X0.719400
 Y-0.328052
 X0.721150
 Y-0.327802
 X0.722900
 Y-0.327552
 X0.724400
 Y-0.327302
 X0.725900
 X0.753150 Y-0.317302
 X0.773650 Y-0.302302
 X0.782150 Y-0.293302
 X0.792400 Y-0.278052
 X0.802400 Y-0.250802
 Y-0.249302
 X0.802650
 Y-0.247802
 X0.802900
 Y-0.246052
 X0.803150
 Y-0.244302
 X0.803400
 Y-0.242802
 X0.803650
 Y-0.241052
 X0.803900
 Y-0.236802
 X0.804150
 Y-0.231802
 X0.804400
 Y-0.218052
 X0.804150
 Y-0.213052
 X0.803900
 Y-0.208802
 X0.803650
 Y-0.207052
 X0.803400
 Y-0.205552
 X0.803150
 Y-0.203802
 X0.802900
 Y-0.202052
 X0.802650
 Y-0.200552
 X0.802400
 Y-0.199052
 X0.792400 Y-0.171802
 X0.776650 Y-0.150552
 X0.753150 Y-0.132552
 X0.725900 Y-0.122552
 X0.724400
 Y-0.122302
 X0.722900
 Y-0.122052
 X0.721150
 Y-0.121802
 X0.719400
 Y-0.121552
 X0.717900
 Y-0.121302
 X0.716150
 Y-0.121052
 X0.711900
 Y-0.120802
 X0.706900
 Y-0.120552
 X0.693150
 Y-0.120802
 X0.688150
 Y-0.121052
 X0.683900
 Y-0.121302
 X0.682150
 Y-0.121552
 X0.680650
 Y-0.121802
 X0.678900
 Y-0.122052
 X0.677150
 Y-0.122302
 X0.675650
 Y-0.122552
 X0.674150
 X0.661150 Y-0.126552
G00 Z0.039370
 X1.721650 Y-0.131802
F7.874016
G01 Z-0.003937
 X1.650650 Y-0.202552
 X1.646150 Y-0.210802
 Y-0.212552
 X1.645900
 Y-0.842552
 X1.601900 Y-0.886552
 X1.590400
 Y-0.886802
 X1.587900
 Y-0.887052
 X1.585400
 X1.573400 Y-0.892052
 X1.563400 Y-0.903302
 X1.516900
 X1.507900 Y-0.890302
 X1.498900 Y-0.884052
 X1.489650 Y-0.880552
 X1.488400
 Y-0.880302
 X1.486900
 Y-0.880052
 X1.485150
 Y-0.879802
 X1.464900
 Y-0.880052
 X1.463150
 Y-0.880302
 X1.461650
 Y-0.880552
 X1.460400
 X1.447900 Y-0.885802
 X1.441400 Y-0.891552
 X1.435900 Y-0.897802
 X1.430650 Y-0.910302
 Y-0.911552
 X1.430400
 Y-0.913052
 X1.430150
 Y-0.914802
 X1.429900
 Y-0.935052
 X1.430150
 Y-0.936802
 X1.430400
 Y-0.938302
 X1.430650
 Y-0.939552
 X1.435900 Y-0.952052
 X1.440900 Y-0.958302
 X1.447900 Y-0.964052
 X1.460400 Y-0.969302
 X1.461650
 Y-0.969552
 X1.463150
 Y-0.969802
 X1.464900
 Y-0.970052
 X1.485150
 Y-0.969802
 X1.486900
 Y-0.969552
 X1.488400
 Y-0.969302
 X1.489650
 X1.502150 Y-0.964052
 X1.507900 Y-0.959552
 X1.516900 Y-0.946552
 X1.563400
 X1.573400 Y-0.957802
 X1.585400 Y-0.962802
 X1.587900
 Y-0.963052
 X1.590400
 Y-0.963302
 X1.604650
 Y-0.963052
 X1.607150
 Y-0.962802
 X1.609650
 X1.620900 Y-0.958302
 X1.627400 Y-0.952802
 X1.635400 Y-0.937052
 Y-0.934552
 X1.635650
 Y-0.932052
 X1.635900
 Y-0.920552
 X1.684900 Y-0.871802
 X1.688900 Y-0.864052
 Y-0.862302
 X1.689150
 Y-0.232302
 X1.752400 Y-0.169052
 X2.545150
 X2.640900 Y-0.264802
 Y-1.057302
 X2.641150
 Y-1.059052
 X2.645650 Y-1.067302
 X2.804900 Y-1.226302
 Y-1.235052
 X2.805150
 Y-1.236802
 X2.805400
 Y-1.238302
 X2.805650
 Y-1.239552
 X2.810900 Y-1.252052
 X2.816900 Y-1.259302
 X2.822900 Y-1.264052
 X2.835400 Y-1.269302
 X2.836650
 Y-1.269552
 X2.838150
 Y-1.269802
 X2.839900
 Y-1.270052
 X2.860150
 Y-1.269802
 X2.861900
 Y-1.269552
 X2.863400
 X2.873900 Y-1.265802
 X2.882900 Y-1.259552
 X2.889150 Y-1.252052
 X2.894400 Y-1.239552
 Y-1.238302
 X2.894650
 Y-1.236802
 X2.894900
 Y-1.235052
 X2.895150
 Y-1.214802
 X2.894900
 Y-1.213052
 X2.894650
 Y-1.211552
 X2.894400
 Y-1.210302
 X2.889150 Y-1.197802
 X2.882900 Y-1.190302
 X2.873900 Y-1.184052
 X2.863400 Y-1.180302
 X2.861900
 Y-1.180052
 X2.860150
 Y-1.179802
 X2.839900
 Y-1.180052
 X2.838150
 Y-1.180302
 X2.836650
 Y-1.180552
 X2.835400
 X2.829150 Y-1.182552
 X2.684150 Y-1.037552
 Y-0.245052
 X2.683900
 Y-0.243302
 X2.677650 Y-0.235052
 X2.572400 Y-0.129802
 X2.566650 Y-0.126052
 X2.564900
 Y-0.125802
 X1.732650
 Y-0.126052
 X1.730900
 X1.721650 Y-0.131802
G00 Z0.039370
 X4.023400 Y-0.160802
F7.874016
G01 Z-0.003937
 X4.011900 Y-0.171302
 X4.005650 Y-0.185302
 Y-0.186552
 X4.005400
 Y-0.188052
 X4.005150
 Y-0.189802
 X4.004900
 Y-0.210052
 X3.937400 Y-0.278552
 X3.932150 Y-0.277052
 X3.929650
 Y-0.276802
 X3.927150
 Y-0.276552
 X3.912900
 Y-0.276802
 X3.910400
 Y-0.277052
 X3.907900
 X3.895900 Y-0.282052
 X3.885900 Y-0.293302
 X3.846400
 X3.837400 Y-0.283302
 X3.826150 Y-0.278552
 X3.823650
 Y-0.278302
 X3.821150
 Y-0.278052
 X3.778900
 Y-0.278302
 X3.776400
 Y-0.278552
 X3.773900
 X3.764400 Y-0.282302
 X3.757900 Y-0.287302
 X3.749650 Y-0.302802
 Y-0.305302
 X3.749400
 Y-0.307802
 X3.749150
 Y-0.322052
 X3.749400
 Y-0.324552
 X3.749650
 Y-0.327052
 X3.753400 Y-0.336552
 X3.757900 Y-0.342552
 X3.764400 Y-0.347552
 X3.773900 Y-0.351302
 X3.776400
 Y-0.351552
 X3.778900
 Y-0.351802
 X3.821150
 Y-0.351552
 X3.823650
 Y-0.351302
 X3.826150
 X3.837400 Y-0.346552
 X3.846400 Y-0.336552
 X3.885900
 X3.895900 Y-0.347802
 X3.907900 Y-0.352802
 X3.910400
 Y-0.353052
 X3.912900
 Y-0.353302
 X3.927150
 Y-0.353052
 X3.929650
 Y-0.352802
 X3.932150
 X3.943400 Y-0.348302
 X3.949400 Y-0.343302
 X3.954900 Y-0.335552
 X3.957900 Y-0.326052
 X4.039900 Y-0.245052
 X4.060150
 Y-0.244802
 X4.061900
 Y-0.244552
 X4.063400
 Y-0.244302
 X4.064650
 X4.077150 Y-0.239052
 X4.084650 Y-0.232802
 X4.090900 Y-0.223802
 X4.094650 Y-0.213302
 Y-0.211802
 X4.094900
 Y-0.210052
 X4.095150
 Y-0.189802
 X4.094900
 Y-0.188052
 X4.094650
 Y-0.186552
 X4.094400
 Y-0.185302
 X4.089150 Y-0.172802
 X4.082900 Y-0.165302
 X4.073900 Y-0.159052
 X4.064650 Y-0.155552
 X4.063400
 Y-0.155302
 X4.061900
 Y-0.155052
 X4.060150
 Y-0.154802
 X4.039900
 Y-0.155052
 X4.038150
 Y-0.155302
 X4.036650
 X4.023400 Y-0.160802
G00 Z0.039370
 X1.746650 Y-0.179302
F7.874016
G01 Z-0.003937
 X1.695650 Y-0.230052
 X1.691150 Y-0.238302
 Y-0.240052
 X1.690900
 Y-0.895052
 X1.596900 Y-0.989052
 X1.585400
 Y-0.989302
 X1.582900
 Y-0.989552
 X1.580400
 X1.568400 Y-0.994552
 X1.558400 Y-1.005802
 X1.517900
 X1.514150 Y-0.997802
 X1.507900 Y-0.990302
 X1.498900 Y-0.984052
 X1.489650 Y-0.980552
 X1.488400
 Y-0.980302
 X1.486900
 Y-0.980052
 X1.485150
 Y-0.979802
 X1.464900
 Y-0.980052
 X1.463150
 Y-0.980302
 X1.461650
 Y-0.980552
 X1.460400
 X1.447900 Y-0.985802
 X1.441400 Y-0.991052
 X1.435900 Y-0.997802
 X1.430650 Y-1.010302
 Y-1.011552
 X1.430400
 Y-1.013052
 X1.430150
 Y-1.014802
 X1.429900
 Y-1.035052
 X1.430150
 Y-1.036802
 X1.430400
 Y-1.038302
 X1.430650
 Y-1.039552
 X1.435900 Y-1.052052
 X1.440900 Y-1.058302
 X1.447900 Y-1.064052
 X1.460400 Y-1.069302
 X1.461650
 Y-1.069552
 X1.463150
 Y-1.069802
 X1.464900
 Y-1.070052
 X1.485150
 Y-1.069802
 X1.486900
 Y-1.069552
 X1.488400
 Y-1.069302
 X1.489650
 X1.503650 Y-1.063052
 X1.515400 Y-1.049052
 X1.558400
 X1.568400 Y-1.060302
 X1.580400 Y-1.065302
 X1.582900
 Y-1.065552
 X1.585400
 Y-1.065802
 X1.599650
 Y-1.065552
 X1.602150
 Y-1.065302
 X1.604650
 X1.613150 Y-1.062302
 X1.621150 Y-1.056552
 X1.627400 Y-1.048052
 X1.630400 Y-1.039552
 Y-1.037052
 X1.630650
 Y-1.034552
 X1.630900
 Y-1.023052
 X1.729900 Y-0.924302
 X1.733900 Y-0.916552
 Y-0.914802
 X1.734150
 Y-0.259802
 X1.777400 Y-0.216552
 X2.527650
 X2.588400 Y-0.277302
 Y-1.099802
 X2.588650
 Y-1.101552
 X2.593150 Y-1.109802
 X2.804900 Y-1.321302
 Y-1.335052
 X2.805150
 Y-1.336802
 X2.805400
 Y-1.338302
 X2.805650
 Y-1.339552
 X2.810900 Y-1.352052
 X2.816900 Y-1.359302
 X2.822900 Y-1.364052
 X2.835400 Y-1.369302
 X2.836650
 Y-1.369552
 X2.838150
 Y-1.369802
 X2.839900
 Y-1.370052
 X2.860150
 Y-1.369802
 X2.861900
 Y-1.369552
 X2.863400
 X2.873900 Y-1.365802
 X2.882900 Y-1.359552
 X2.889150 Y-1.352052
 X2.894400 Y-1.339552
 Y-1.338302
 X2.894650
 Y-1.336802
 X2.894900
 Y-1.335052
 X2.895150
 Y-1.314802
 X2.894900
 Y-1.313052
 X2.894650
 Y-1.311552
 X2.894400
 Y-1.310302
 X2.889150 Y-1.297802
 X2.882900 Y-1.290302
 X2.873900 Y-1.284052
 X2.863400 Y-1.280302
 X2.861900
 Y-1.280052
 X2.860150
 Y-1.279802
 X2.839900
 Y-1.280052
 X2.838150
 Y-1.280302
 X2.836650
 Y-1.280552
 X2.835400
 X2.832900 Y-1.281302
 X2.631650 Y-1.080052
 Y-0.257552
 X2.631400
 Y-0.255802
 X2.627650 Y-0.250052
 X2.559150 Y-0.181552
 X2.549150 Y-0.173552
 X2.547400
 Y-0.173302
 X1.757650
 Y-0.173552
 X1.755900
 X1.746650 Y-0.179302
G00 Z0.039370
 X3.462150 Y-0.184052
F7.874016
G01 Z-0.003937
 X3.454400 Y-0.191552
 X3.449650 Y-0.202802
 Y-0.205302
 X3.449400
 Y-0.207802
 X3.449150
 Y-0.222052
 X3.449400
 Y-0.224552
 X3.449650
 Y-0.227052
 X3.453400 Y-0.236552
 X3.458400 Y-0.243052
 X3.473900 Y-0.251302
 X3.476400
 Y-0.251552
 X3.478900
 Y-0.251802
 X3.521150
 Y-0.251552
 X3.523650
 Y-0.251302
 X3.526150
 X3.535650 Y-0.247552
 X3.541900 Y-0.242802
 X3.550400 Y-0.227052
 Y-0.224552
 X3.550650
 Y-0.222052
 X3.550900
 Y-0.207802
 X3.550650
 Y-0.205302
 X3.550400
 Y-0.202802
 X3.546650 Y-0.193302
 X3.541900 Y-0.187052
 X3.526150 Y-0.178552
 X3.523650
 Y-0.178302
 X3.521150
 Y-0.178052
 X3.478900
 Y-0.178302
 X3.476400
 Y-0.178552
 X3.473900
 X3.462150 Y-0.184052
G00 Z0.039370
 X1.764150 Y-0.241802
F7.874016
G01 Z-0.003937
 X1.745650 Y-0.260052
 X1.741150 Y-0.268302
 Y-0.270052
 X1.740900
 Y-1.145052
 X1.596900 Y-1.289052
 X1.585400
 Y-1.289302
 X1.582900
 Y-1.289552
 X1.580400
 X1.568400 Y-1.294552
 X1.558400 Y-1.305802
 X1.517900
 X1.514150 Y-1.297802
 X1.507900 Y-1.290302
 X1.498900 Y-1.284052
 X1.489650 Y-1.280552
 X1.488400
 Y-1.280302
 X1.486900
 Y-1.280052
 X1.485150
 Y-1.279802
 X1.464900
 Y-1.280052
 X1.463150
 Y-1.280302
 X1.461650
 Y-1.280552
 X1.460400
 X1.447900 Y-1.285802
 X1.441400 Y-1.291052
 X1.435900 Y-1.297802
 X1.430650 Y-1.310302
 Y-1.311552
 X1.430400
 Y-1.313052
 X1.430150
 Y-1.314802
 X1.429900
 Y-1.335052
 X1.430150
 Y-1.336802
 X1.430400
 Y-1.338302
 X1.430650
 Y-1.339552
 X1.435900 Y-1.352052
 X1.440400 Y-1.357802
 X1.447900 Y-1.364052
 X1.460400 Y-1.369302
 X1.461650
 Y-1.369552
 X1.463150
 Y-1.369802
 X1.464900
 Y-1.370052
 X1.485150
 Y-1.369802
 X1.486900
 Y-1.369552
 X1.488400
 Y-1.369302
 X1.489650
 X1.503650 Y-1.363052
 X1.515400 Y-1.349052
 X1.558400
 X1.568400 Y-1.360302
 X1.580400 Y-1.365302
 X1.582900
 Y-1.365552
 X1.585400
 Y-1.365802
 X1.599650
 Y-1.365552
 X1.602150
 Y-1.365302
 X1.604650
 X1.613150 Y-1.362302
 X1.620900 Y-1.356802
 X1.625900 Y-1.350802
 X1.630400 Y-1.339552
 Y-1.337052
 X1.630650
 Y-1.334552
 X1.630900
 Y-1.323052
 X1.779900 Y-1.174302
 X1.783900 Y-1.166552
 Y-1.164802
 X1.784150
 Y-0.289802
 X1.794900 Y-0.279052
 X2.500150
 X2.528400 Y-0.307302
 Y-1.142302
 X2.528650
 Y-1.144052
 X2.533150 Y-1.152302
 X2.804900 Y-1.423802
 Y-1.435052
 X2.805150
 Y-1.436802
 X2.805400
 Y-1.438302
 X2.809150 Y-1.448802
 X2.815400 Y-1.457802
 X2.822900 Y-1.464052
 X2.835400 Y-1.469302
 X2.836650
 Y-1.469552
 X2.838150
 Y-1.469802
 X2.839900
 Y-1.470052
 X2.860150
 Y-1.469802
 X2.861900
 Y-1.469552
 X2.863400
 X2.873900 Y-1.465802
 X2.883400 Y-1.459052
 X2.889150 Y-1.452052
 X2.894650 Y-1.438302
 Y-1.436802
 X2.894900
 Y-1.435052
 X2.895150
 Y-1.414802
 X2.894900
 Y-1.413052
 X2.894650
 Y-1.411552
 X2.890900 Y-1.401052
 X2.884400 Y-1.391802
 X2.877150 Y-1.385802
 X2.863400 Y-1.380302
 X2.861900
 Y-1.380052
 X2.860150
 Y-1.379802
 X2.839900
 Y-1.380052
 X2.838150
 Y-1.380302
 X2.836650
 Y-1.380552
 X2.835400
 X2.830900 Y-1.381802
 X2.571650 Y-1.122552
 Y-0.287552
 X2.571400
 Y-0.285802
 X2.567400 Y-0.278052
 X2.529650 Y-0.240302
 X2.521650 Y-0.236052
 X2.519900
 Y-0.235802
 X1.775150
 Y-0.236052
 X1.773400
 X1.764150 Y-0.241802
G00 Z0.039370
 X4.195650 Y-0.282552
F7.874016
G01 Z-0.003937
 X4.186650 Y-0.291552
 X4.182150 Y-0.302802
 Y-0.305302
 X4.181900
 Y-0.307802
 X4.181650
 Y-0.322052
 X4.181900
 Y-0.324552
 X4.182150
 Y-0.327052
 X4.187150 Y-0.338802
 X4.098150 Y-0.427552
 X4.093650 Y-0.435802
 Y-0.437552
 X4.093400
 Y-0.822302
 X4.093650
 Y-0.824052
 X4.098150 Y-0.832302
 X4.178400 Y-0.912302
 Y-2.002552
 X4.157650 Y-2.023302
 X4.021400
 X4.012400 Y-2.013302
 X4.001150 Y-2.008552
 X3.998650
 Y-2.008302
 X3.996150
 Y-2.008052
 X3.953900
 Y-2.008302
 X3.951400
 Y-2.008552
 X3.948900
 X3.937650 Y-2.013302
 X3.928650 Y-2.023302
 X3.922650
 Y-2.023552
 X3.920900
 X3.912900 Y-2.027802
 X3.873650 Y-2.067052
 X3.868650 Y-2.075802
 Y-2.077552
 X3.868400
 Y-2.232302
 X3.868650
 Y-2.234052
 X3.873150 Y-2.242302
 X3.968400 Y-2.337302
 Y-2.403052
 X3.955400 Y-2.412052
 X3.949150 Y-2.421052
 X3.945650 Y-2.430302
 Y-2.431552
 X3.945400
 Y-2.433052
 X3.945150
 Y-2.434802
 X3.944900
 Y-2.455052
 X3.945150
 Y-2.456802
 X3.945400
 Y-2.458302
 X3.945650
 Y-2.459552
 X3.950900 Y-2.472052
 X3.957150 Y-2.479552
 X3.966150 Y-2.485802
 X3.976650 Y-2.489552
 X3.978150
 Y-2.489802
 X3.979900
 Y-2.490052
 X4.000150
 X4.048150 Y-2.537302
 X4.055900 Y-2.541302
 X4.057650
 Y-2.541552
 X4.292400
 Y-2.541302
 X4.294150
 X4.302150 Y-2.537052
 X4.392400 Y-2.446552
 X4.498900
 X4.506650 Y-2.455302
 X4.518150 Y-2.460302
 X4.520400
 Y-2.460552
 X4.522900
 Y-2.460802
 X4.537150
 Y-2.460552
 X4.539650
 Y-2.460302
 X4.541900
 X4.553400 Y-2.455302
 X4.561150 Y-2.446552
 X4.577400
 Y-2.446302
 X4.579150
 X4.587150 Y-2.442052
 X4.717400 Y-2.311802
 X4.721400 Y-2.304052
 Y-2.302302
 X4.721650
 Y-2.017302
 X4.725150 Y-2.009552
 Y-2.007552
 X4.725400
 Y-1.855302
 X4.734900 Y-1.846302
 X4.740650 Y-1.833302
 Y-1.831302
 X4.740900
 Y-1.828802
 X4.741150
 Y-1.826302
 X4.741400
 Y-1.813552
 X4.741150
 Y-1.811052
 X4.740900
 Y-1.808552
 X4.740650
 Y-1.806552
 X4.735900 Y-1.795052
 X4.731400 Y-1.789302
 X4.724900 Y-1.784052
 X4.713400 Y-1.779302
 X4.711400
 Y-1.779052
 X4.708900
 Y-1.778802
 X4.706400
 Y-1.778552
 X4.693650
 Y-1.778802
 X4.691150
 Y-1.779052
 X4.688650
 Y-1.779302
 X4.686650
 X4.675150 Y-1.784052
 X4.668650 Y-1.789302
 X4.662650 Y-1.797802
 X4.659400 Y-1.806552
 Y-1.808552
 X4.659150
 Y-1.811052
 X4.658900
 Y-1.813552
 X4.658650
 Y-1.826302
 X4.658900
 Y-1.828802
 X4.659150
 Y-1.831302
 X4.659400
 Y-1.833302
 X4.665150 Y-1.846302
 X4.674400 Y-1.855052
 Y-1.909802
 X4.625400 Y-1.861052
 Y-1.342552
 X4.625150
 Y-1.340552
 X4.619650 Y-1.330052
 X4.550400 Y-1.261052
 Y-1.139052
 X4.688900 Y-1.000552
 X4.757400
 Y-1.000302
 X4.759400
 X4.767150 Y-0.997052
 X4.774650 Y-0.990052
 X4.819650 Y-0.945052
 X4.825150 Y-0.934552
 Y-0.932552
 X4.825400
 Y-0.777552
 X4.825150
 Y-0.775552
 X4.819650 Y-0.765052
 X4.779900 Y-0.725302
 X4.769400 Y-0.719802
 X4.767400
 Y-0.719552
 X4.748400
 X4.742650 Y-0.714052
 X4.731900 Y-0.709552
 X4.729650
 Y-0.709302
 X4.727150
 Y-0.709052
 X4.712900
 Y-0.709302
 X4.710400
 Y-0.709552
 X4.708150
 X4.698650 Y-0.713302
 X4.692150 Y-0.718552
 X4.684650 Y-0.733052
 Y-0.735302
 X4.684400
 Y-0.737802
 X4.684150
 Y-0.752052
 X4.684400
 Y-0.754552
 X4.684650
 Y-0.756802
 X4.692150 Y-0.771302
 X4.698650 Y-0.776552
 X4.708150 Y-0.780302
 X4.710400
 Y-0.780552
 X4.712900
 Y-0.780802
 X4.727150
 Y-0.780552
 X4.729650
 Y-0.780302
 X4.731900
 X4.747400 Y-0.772052
 X4.774400 Y-0.799052
 Y-0.911052
 X4.735900 Y-0.949552
 X4.667400
 Y-0.949802
 X4.665400
 X4.657650 Y-0.953052
 X4.647900 Y-0.962302
 X4.505150 Y-1.105052
 X4.499650 Y-1.115552
 Y-1.117552
 X4.499400
 Y-1.282552
 X4.499650
 Y-1.284552
 X4.505150 Y-1.295052
 X4.574400 Y-1.364052
 Y-1.882552
 X4.574650
 Y-1.884552
 X4.580150 Y-1.895052
 X4.674400 Y-1.989052
 Y-2.007552
 X4.674650
 Y-2.009552
 X4.678400 Y-2.017552
 Y-2.282552
 X4.559900 Y-2.401052
 X4.552650 Y-2.394052
 X4.541900 Y-2.389552
 X4.539650
 Y-2.389302
 X4.537150
 Y-2.389052
 X4.522900
 Y-2.389302
 X4.520400
 Y-2.389552
 X4.518150
 X4.506650 Y-2.394552
 X4.498900 Y-2.403302
 X4.372650
 Y-2.403552
 X4.370900
 X4.362900 Y-2.407802
 X4.272650 Y-2.498302
 X4.077400
 X4.035150 Y-2.455052
 Y-2.434802
 X4.034900
 Y-2.433052
 X4.034650
 Y-2.431552
 X4.034400
 Y-2.430302
 X4.029150 Y-2.417802
 X4.024650 Y-2.412052
 X4.011650 Y-2.403052
 Y-2.347302
 X4.050650 Y-2.308302
 X4.057150
 Y-2.308052
 X4.059650
 Y-2.307802
 X4.061650
 X4.075900 Y-2.299802
 X4.082900 Y-2.286552
 Y-2.284552
 X4.083150
 Y-2.282052
 X4.083400
 Y-2.267802
 X4.083150
 Y-2.265302
 X4.082900
 Y-2.263302
 X4.075150 Y-2.249302
 X4.061650 Y-2.242052
 X4.059650
 Y-2.241802
 X4.057150
 Y-2.241552
 X4.042900
 Y-2.241802
 X4.040400
 Y-2.242052
 X4.038400
 X4.024150 Y-2.250052
 X4.017150 Y-2.263302
 Y-2.265302
 X4.016900
 Y-2.267802
 X4.016650
 Y-2.274302
 X3.994900 Y-2.295802
 X3.911650 Y-2.212552
 Y-2.097302
 X3.934650 Y-2.074302
 X3.948900 Y-2.081302
 X3.951400
 Y-2.081552
 X3.953900
 Y-2.081802
 X3.996150
 Y-2.081552
 X3.998650
 Y-2.081302
 X4.001150
 X4.012400 Y-2.076552
 X4.021400 Y-2.066552
 X4.177400
 Y-2.066302
 X4.179150
 X4.187150 Y-2.062052
 X4.217400 Y-2.031802
 X4.221400 Y-2.024052
 Y-2.022302
 X4.221650
 Y-0.892552
 X4.221400
 Y-0.890802
 X4.217400 Y-0.883052
 X4.136650 Y-0.802552
 Y-0.457302
 X4.237400 Y-0.356802
 X4.241150 Y-0.349302
 X4.252900 Y-0.339052
 X4.257900 Y-0.327052
 Y-0.324552
 X4.258150
 Y-0.322052
 X4.258400
 Y-0.307802
 X4.258150
 Y-0.305302
 X4.257900
 Y-0.302802
 X4.253400 Y-0.291552
 X4.248650 Y-0.285802
 X4.240150 Y-0.279802
 X4.232150 Y-0.277052
 X4.229650
 Y-0.276802
 X4.227150
 Y-0.276552
 X4.212900
 Y-0.276802
 X4.210400
 Y-0.277052
 X4.207900
 X4.195650 Y-0.282552
G00 Z0.039370
 X1.792150 Y-0.292802
F7.874016
G01 Z-0.003937
 Y-1.151802
 X1.791900
 Y-1.153052
 X1.791650
 Y-1.154302
 X1.791400
 Y-1.155552
 X1.790900 Y-1.156802
 Y-1.158052
 X1.790650
 Y-1.159302
 X1.790400
 Y-1.160552
 X1.790150
 Y-1.161802
 X1.789650 Y-1.163052
 Y-1.164302
 X1.781650 Y-1.176552
 X1.638900 Y-1.320552
 Y-1.332052
 X1.631150 Y-1.350802
 X1.616150 Y-1.365802
 X1.597400 Y-1.373552
 X1.587900
 X1.568900 Y-1.365802
 X1.558650 Y-1.356802
 X1.516150
 X1.502650 Y-1.369302
 X1.481150 Y-1.378052
 X1.469150
 X1.448400 Y-1.369302
 X1.447150
 Y-1.369052
 X1.433900
 X1.429650 Y-1.373302
 Y-1.389802
 X1.535150 Y-1.495302
 X1.604400
 X1.614900 Y-1.483802
 X1.621650 Y-1.481052
 X1.678400
 X1.686900 Y-1.485302
 X1.690900 Y-1.489302
 X1.693900 Y-1.496552
 Y-1.501802
 X1.698150 Y-1.506052
 X1.705650
 X1.714400 Y-1.515302
 Y-1.517802
 X1.714150
 Y-1.532052
 X1.714400
 Y-1.534552
 X1.705650 Y-1.543552
 X1.698150
 X1.693900 Y-1.547802
 Y-1.553052
 X1.691150 Y-1.559802
 X1.685150 Y-1.565802
 X1.678400 Y-1.568552
 X1.621900
 X1.614650 Y-1.565552
 X1.604400 Y-1.554302
 X1.585150
 X1.510650 Y-1.628802
 Y-1.642052
 X1.514900 Y-1.646302
 X1.530900
 X1.534150 Y-1.649552
 Y-1.654802
 X1.504900
 Y-1.745052
 X1.528400
 Y-1.753302
 X1.512400
 X1.505150 Y-1.750302
 X1.497150 Y-1.743552
 X1.483900
 X1.479650 Y-1.747802
 Y-1.768552
 X1.481900 Y-1.772052
 X1.502400 Y-1.780302
 X1.519400 Y-1.797302
 X1.528150 Y-1.818802
 Y-1.830802
 X1.519400 Y-1.852552
 X1.500650 Y-1.872552
 Y-1.885802
 X1.719400 Y-2.106052
 Y-2.107552
 X1.719650
 Y-2.109052
 X1.719900
 Y-2.110552
 X1.720150
 Y-2.112052
 X1.720400
 Y-2.113552
 X1.720650
 Y-2.115052
 X1.720900
 Y-2.116552
 X1.721150
 Y-2.118052
 X1.721400
 Y-2.119552
 X1.721650
 Y-2.121052
 X1.721900
 Y-2.122552
 X1.722150
 Y-2.124052
 X1.722400
 Y-2.125552
 X1.722650
 Y-2.127052
 X1.722900
 Y-2.128552
 X1.723150
 Y-2.130052
 X1.723400
 Y-2.131552
 X1.723650
 Y-2.133052
 X1.723900
 Y-2.134552
 X1.724150
 Y-2.136052
 X1.724400
 Y-2.137552
 X1.724650
 Y-2.139052
 X1.724900
 Y-2.140552
 X1.725150
 Y-2.142052
 X1.725400
 Y-2.143552
 X1.725650
 Y-2.145052
 X1.725900
 Y-2.146552
 X1.726150
 Y-2.148052
 X1.726400
 Y-2.149552
 X1.726650
 Y-2.151052
 X1.726900
 Y-2.152552
 X1.727150
 Y-2.154052
 X1.727400
 Y-2.155552
 X1.727650
 Y-2.157052
 X1.727900
 Y-2.158552
 X1.728150
 Y-2.160052
 X1.728400
 Y-2.161552
 X1.728650
 Y-2.163052
 X1.728900
 Y-2.164552
 X1.729150
 Y-2.166052
 X1.729400
 Y-2.167552
 X1.729650
 Y-2.169052
 X1.729900
 Y-2.170802
 X1.730150
 Y-2.172302
 X1.730400
 Y-2.173802
 X1.730650
 Y-2.175302
 X1.730900
 Y-2.176802
 X1.731150
 Y-2.178302
 X1.731400
 Y-2.179802
 X1.731650
 Y-2.181302
 X1.731900
 Y-2.182802
 X1.732150
 Y-2.184302
 X1.732400
 Y-2.185802
 X1.732650
 Y-2.187302
 X1.732900
 Y-2.188802
 X1.733150
 Y-2.190302
 X1.733400
 Y-2.191802
 X1.733650
 Y-2.193302
 X1.733900
 Y-2.194802
 X1.734150
 Y-2.196302
 X1.734400
 Y-2.197802
 X1.734650
 Y-2.199302
 X1.734900
 Y-2.200802
 X1.735150
 Y-2.202302
 X1.735400
 Y-2.203802
 X1.735650
 Y-2.205302
 X1.735900
 Y-2.206802
 X1.736150
 Y-2.208302
 X1.736400
 Y-2.209802
 X1.736650
 Y-2.211302
 X1.736900
 Y-2.212802
 X1.737150
 Y-2.214302
 X1.737400
 Y-2.215802
 X1.737650
 Y-2.217302
 X1.737900
 Y-2.218802
 X1.738150
 Y-2.220302
 X1.738400
 Y-2.221802
 X1.738650
 Y-2.223302
 X1.738900
 Y-2.224802
 X1.739150
 Y-2.226302
 X1.739400
 Y-2.227802
 X1.739650
 Y-2.229302
 X1.739900
 Y-2.230802
 X1.740150
 Y-2.232302
 X1.740400
 Y-2.233802
 X1.740650
 Y-2.235302
 X1.740900
 Y-2.236802
 X1.741150
 Y-2.238302
 X1.741400
 Y-2.239802
 X1.741650
 Y-2.241302
 X1.741900
 Y-2.242802
 X1.742150
 Y-2.244302
 X1.742400
 Y-2.246052
 X1.742650
 Y-2.247552
 X1.742900
 Y-2.249052
 X1.743150
 Y-2.250552
 X1.743400
 Y-2.252052
 X1.743650
 Y-2.253552
 X1.743900
 Y-2.255052
 X1.744150
 Y-3.904802
 X1.744400 Y-3.905552
 X4.877400
 Y-3.407802
 X4.871900 Y-3.404302
 X4.867150 Y-3.396552
 Y-3.395302
 X4.866900
 Y-3.394052
 X4.866650
 Y-3.392802
 X4.866400
 Y-3.391552
 X4.866150
 Y-3.390302
 X4.865900
 Y-3.389052
 X4.865650
 Y-2.748302
 X4.861400 Y-2.744052
 X4.225150
 X4.279900 Y-2.690052
 X4.300150
 Y-2.689802
 X4.301900
 Y-2.689552
 X4.303400
 X4.313900 Y-2.685802
 X4.322900 Y-2.679552
 X4.329150 Y-2.672052
 X4.334400 Y-2.659552
 Y-2.658302
 X4.334650
 Y-2.656802
 X4.334900
 Y-2.655052
 X4.335150
 Y-2.634802
 X4.334900
 Y-2.633052
 X4.334650
 Y-2.631552
 X4.334400
 Y-2.630302
 X4.329150 Y-2.617802
 X4.322900 Y-2.610302
 X4.313900 Y-2.604052
 X4.303400 Y-2.600302
 X4.301900
 Y-2.600052
 X4.300150
 Y-2.599802
 X4.279900
 Y-2.600052
 X4.278150
 Y-2.600302
 X4.276650
 Y-2.600552
 X4.275400
 X4.262900 Y-2.605802
 X4.257150 Y-2.610302
 X4.250900 Y-2.617802
 X4.245650 Y-2.630302
 Y-2.631552
 X4.245400
 Y-2.633052
 X4.245150
 Y-2.634802
 X4.244900
 Y-2.655052
 X4.177650 Y-2.723302
 X4.160150
 X4.130150 Y-2.693552
 X4.055900 Y-2.661552
 X4.054650
 Y-2.661302
 X4.041400
 X4.037900 Y-2.663552
 X4.034400 Y-2.672552
 X4.017650 Y-2.689302
 X3.996150 Y-2.698052
 X3.984150
 X3.962650 Y-2.689302
 X3.945650 Y-2.672302
 X3.937650 Y-2.652302
 X3.933650 Y-2.649302
 X3.751900
 X3.745650 Y-2.654302
 X3.733900 Y-2.658802
 X3.730900 Y-2.662802
 Y-2.676052
 X3.737650 Y-2.681302
 X3.732150 Y-2.686552
 X3.717900
 X3.712650 Y-2.681552
 X3.717900 Y-2.679802
 X3.720150 Y-2.676302
 Y-2.663052
 X3.717900 Y-2.659552
 X3.704150 Y-2.654052
 X3.698400 Y-2.649302
 X3.555400
 X3.546650 Y-2.658302
 Y-2.671552
 X3.550900 Y-2.675802
 X3.553400
 X3.560650 Y-2.678802
 X3.566150 Y-2.684302
 X3.569150 Y-2.691552
 Y-2.698302
 X3.560900
 Y-2.684052
 X3.489150
 Y-2.704052
 X3.484150
 X3.480900 Y-2.700802
 Y-2.691552
 X3.483900 Y-2.684302
 X3.487900 Y-2.680302
 X3.496650 Y-2.675802
 X3.499400
 X3.503650 Y-2.671552
 Y-2.658302
 X3.494650 Y-2.649302
 X3.455150
 X3.389650 Y-2.715052
 Y-2.809802
 X3.700150 Y-3.120302
 X3.731650
 X3.747650 Y-3.105552
 X3.768900 Y-3.096552
 X3.781150
 X3.807150 Y-3.108802
 X3.820400
 X3.829900 Y-3.099552
 X3.837400 Y-3.096302
 X3.853400
 Y-3.104802
 X3.829900
 Y-3.195052
 X3.853400
 Y-3.203302
 X3.837400
 X3.830150 Y-3.200302
 X3.822150 Y-3.193552
 X3.808900
 X3.804650 Y-3.197802
 Y-3.323052
 X3.809400 Y-3.329052
 X3.816400 Y-3.346052
 Y-3.353552
 X3.809400 Y-3.370552
 X3.804650 Y-3.376552
 Y-3.447052
 X3.806900 Y-3.450552
 X3.815150 Y-3.453802
 X3.820900 Y-3.459302
 X3.823900 Y-3.466552
 Y-3.533052
 X3.821150 Y-3.539802
 X3.815150 Y-3.545802
 X3.806900 Y-3.549052
 X3.804650 Y-3.552552
 Y-3.623052
 X3.809150 Y-3.628802
 X3.814400 Y-3.641802
 X3.817900 Y-3.644052
 X3.831150
 X3.836400 Y-3.637552
 X3.841650 Y-3.642802
 Y-3.657052
 X3.836900 Y-3.662052
 X3.835150 Y-3.657052
 X3.831650 Y-3.654802
 X3.818400
 X3.814400 Y-3.657802
 X3.809400 Y-3.670552
 X3.804650 Y-3.676552
 Y-3.699802
 X3.855150 Y-3.750302
 X4.034900
 X4.056400 Y-3.729052
 Y-3.696302
 X4.059150 Y-3.689552
 X4.063650 Y-3.685052
 X4.071650 Y-3.681052
 X4.128400
 X4.138400 Y-3.686802
 X4.143900 Y-3.696552
 Y-3.701802
 X4.148150 Y-3.706052
 X4.155650
 X4.164400 Y-3.715302
 Y-3.717802
 X4.164150
 Y-3.732052
 X4.164400
 Y-3.734552
 X4.155650 Y-3.743552
 X4.148150
 X4.143900 Y-3.747802
 Y-3.753052
 X4.141150 Y-3.759802
 X4.135150 Y-3.765802
 X4.128400 Y-3.768552
 X4.095900
 X4.064150 Y-3.799052
 X4.050900 Y-3.807052
 X4.049650
 X4.048400 Y-3.807552
 X4.047150
 X4.045900 Y-3.808052
 X4.044400
 X4.043150 Y-3.808552
 X4.041900
 X4.039400 Y-3.809302
 X3.850650
 Y-3.809052
 X3.849400
 Y-3.808802
 X3.848150
 Y-3.808552
 X3.846900
 X3.845650 Y-3.808052
 X3.844150
 Y-3.807802
 X3.842900
 Y-3.807552
 X3.841650
 X3.840400 Y-3.807052
 X3.839150
 Y-3.806802
 X3.837900
 X3.825900 Y-3.799052
 X3.755900 Y-3.729052
 X3.748150 Y-3.717052
 Y-3.715802
 X3.747900
 Y-3.714552
 X3.747400 Y-3.713552
 Y-3.712302
 X3.747150
 Y-3.711052
 X3.746650 Y-3.710052
 Y-3.708802
 X3.746400
 Y-3.707552
 X3.745900 Y-3.706552
 Y-3.705302
 X3.745650
 Y-3.704052
 X3.745400
 Y-3.676552
 X3.740900 Y-3.670802
 X3.733900 Y-3.653552
 Y-3.646052
 X3.740900 Y-3.628802
 X3.745400 Y-3.623052
 Y-3.552552
 X3.743150 Y-3.549052
 X3.734900 Y-3.545802
 X3.729150 Y-3.540302
 X3.726400 Y-3.533302
 Y-3.466302
 X3.729150 Y-3.459552
 X3.734900 Y-3.453802
 X3.743150 Y-3.450552
 X3.745400 Y-3.447052
 Y-3.376552
 X3.740900 Y-3.370802
 X3.733900 Y-3.353552
 Y-3.346052
 X3.740900 Y-3.328802
 X3.745400 Y-3.323052
 Y-3.193302
 X3.731650 Y-3.179302
 X3.605650
 Y-3.179052
 X3.604400
 Y-3.178802
 X3.603150
 Y-3.178552
 X3.601900
 Y-3.178302
 X3.600650
 Y-3.178052
 X3.599150
 Y-3.177802
 X3.597900
 Y-3.177552
 X3.596650
 Y-3.177302
 X3.595400
 Y-3.177052
 X3.594150
 Y-3.176802
 X3.592900
 X3.580650 Y-3.168802
 X3.280900 Y-2.869052
 X3.273150 Y-2.857052
 Y-2.855802
 X3.272900
 Y-2.854552
 X3.272400 Y-2.853552
 Y-2.852302
 X3.272150
 Y-2.851052
 X3.271400 Y-2.848802
 Y-2.847552
 X3.270650 Y-2.845302
 Y-2.844052
 X3.270400
 Y-2.121552
 X3.255650 Y-2.105552
 X3.251150 Y-2.093802
 X3.247150 Y-2.090802
 X3.233900
 X3.228650 Y-2.097302
 X3.223400 Y-2.092052
 Y-2.077802
 X3.228150 Y-2.072802
 X3.229900 Y-2.077552
 X3.233400 Y-2.079802
 X3.246650
 X3.250650 Y-2.076802
 X3.255650 Y-2.064052
 X3.269400 Y-2.050552
 X3.286150 Y-2.043552
 X3.291650
 X3.355400 Y-1.979802
 Y-1.966552
 X3.343400 Y-1.946552
 Y-1.945302
 X3.343150
 Y-1.944052
 X3.342900
 Y-1.942802
 X3.342400 Y-1.941552
 Y-1.940302
 X3.342150
 Y-1.939052
 X3.341900
 Y-1.937802
 X3.341400 Y-1.936552
 Y-1.935302
 Y-1.934302
 Y-1.933052
 X3.341900 Y-1.931802
 Y-1.930552
 X3.342150
 Y-1.929302
 X3.342400
 Y-1.928052
 X3.342900 Y-1.926802
 Y-1.925552
 X3.343150
 Y-1.924302
 X3.343400
 Y-1.923052
 X3.354650 Y-1.904802
 X3.369650 Y-1.895302
 X3.372150 Y-1.891552
 Y-1.878302
 X3.369650 Y-1.874552
 X3.354650 Y-1.864802
 X3.343650 Y-1.847802
 Y-1.846552
 X3.343400
 Y-1.845302
 X3.343150
 Y-1.844052
 X3.342650 Y-1.842802
 Y-1.841552
 X3.342400
 Y-1.840302
 X3.342150
 Y-1.839052
 X3.341650 Y-1.837802
 Y-1.836552
 X3.341400
 Y-1.835302
 X3.341650 Y-1.833052
 Y-1.831802
 X3.341900
 Y-1.830552
 X3.342150
 Y-1.829302
 X3.342650 Y-1.828052
 Y-1.826802
 X3.342900
 Y-1.825552
 X3.343150
 Y-1.824302
 X3.343650 Y-1.823052
 Y-1.821802
 X3.354650 Y-1.804802
 X3.369650 Y-1.795302
 X3.372150 Y-1.791552
 Y-1.778302
 X3.369650 Y-1.774552
 X3.354650 Y-1.764802
 X3.343650 Y-1.747802
 Y-1.746552
 X3.343400
 Y-1.745302
 X3.342900 Y-1.744052
 Y-1.742802
 X3.342650
 Y-1.741552
 X3.342400
 Y-1.740302
 X3.342150
 Y-1.739052
 X3.341650 Y-1.737802
 Y-1.736552
 X3.341400
 Y-1.735302
 Y-1.734302
 Y-1.733052
 X3.341650
 Y-1.731802
 X3.341900
 Y-1.730552
 X3.342400 Y-1.729302
 Y-1.728052
 X3.342650
 Y-1.726802
 X3.342900
 Y-1.725552
 X3.343400 Y-1.724302
 Y-1.723052
 X3.343650
 Y-1.721802
 X3.354650 Y-1.704802
 X3.369650 Y-1.695302
 X3.372150 Y-1.691552
 Y-1.678302
 X3.369650 Y-1.674552
 X3.354650 Y-1.664802
 X3.343650 Y-1.647802
 Y-1.646552
 X3.343400
 Y-1.645302
 X3.342900 Y-1.644052
 Y-1.642802
 X3.342650
 Y-1.641552
 X3.342400
 Y-1.640302
 X3.341900 Y-1.639052
 Y-1.637802
 X3.341650
 Y-1.636552
 X3.341400
 Y-1.635302
 Y-1.634302
 Y-1.633052
 X3.341650
 Y-1.631802
 X3.342150 Y-1.630552
 Y-1.629302
 X3.342400
 Y-1.628052
 X3.342650
 Y-1.626802
 X3.342900
 Y-1.625552
 X3.343400 Y-1.624302
 Y-1.623052
 X3.343650
 Y-1.621802
 X3.353650 Y-1.606052
 Y-1.592802
 X3.349400 Y-1.588552
 X3.336150
 X3.309150 Y-1.614052
 X3.295150 Y-1.622302
 X3.293900
 Y-1.622552
 X3.292650
 X3.289400 Y-1.623802
 X3.159150 Y-1.754052
 X3.130650 Y-1.774552
 X3.128150 Y-1.778302
 Y-1.791552
 X3.130650 Y-1.795302
 X3.145400 Y-1.804802
 X3.156650 Y-1.821802
 Y-1.823052
 X3.156900
 Y-1.824552
 X3.157150
 Y-1.825802
 X3.157400
 Y-1.827052
 X3.157650
 Y-1.828552
 X3.157900
 Y-1.829802
 X3.158150
 Y-1.831302
 X3.158650 Y-1.832552
 Y-1.833802
 X3.158900
 Y-1.835802
 X3.158650
 Y-1.837302
 X3.158400
 Y-1.838552
 X3.158150
 Y-1.839802
 X3.157900
 Y-1.841302
 X3.157400 Y-1.842552
 Y-1.843802
 X3.157150
 Y-1.845302
 X3.156900
 Y-1.846552
 X3.156650
 Y-1.847802
 X3.145400 Y-1.864802
 X3.136650 Y-1.872552
 Y-1.885802
 X3.140900 Y-1.890052
 X3.143400
 X3.152900 Y-1.895302
 X3.158900 Y-1.905552
 Y-1.964052
 X3.155650 Y-1.971302
 X3.150150 Y-1.976802
 X3.143400 Y-1.979552
 X3.056900
 X3.048150 Y-1.975302
 X3.044150 Y-1.971302
 X3.041400 Y-1.964302
 Y-1.905302
 X3.047400 Y-1.895302
 X3.056650 Y-1.890052
 X3.059400
 X3.063650 Y-1.885802
 Y-1.872552
 X3.061150 Y-1.868802
 X3.051400 Y-1.863302
 X3.050150
 Y-1.863052
 X3.048900
 Y-1.862802
 X3.047650
 Y-1.862552
 X3.046400
 Y-1.862302
 X3.045150
 Y-1.862052
 X3.043900
 Y-1.861802
 X3.042650
 X3.030900 Y-1.854052
 X3.013650 Y-1.838052
 X2.994150
 X2.973400 Y-1.829302
 X2.972150
 Y-1.829052
 X2.958900
 X2.954650 Y-1.833302
 Y-2.969302
 X2.954400
 Y-2.970552
 X2.954150
 Y-2.971802
 X2.953900
 Y-2.973052
 X2.953650
 Y-2.974302
 X2.953400
 Y-2.975552
 X2.953150
 Y-2.976802
 X2.952650 Y-2.978052
 Y-2.979302
 X2.952400
 Y-2.980552
 X2.952150
 Y-2.981802
 X2.944150 Y-2.994052
 X2.471400 Y-3.468052
 Y-3.479552
 X2.463400 Y-3.498552
 X2.448650 Y-3.513302
 X2.429900 Y-3.521052
 X2.420400
 X2.401400 Y-3.513302
 X2.386650 Y-3.498552
 X2.378900 Y-3.479552
 Y-3.470052
 X2.386650 Y-3.451052
 X2.401400 Y-3.436302
 X2.420150 Y-3.428552
 X2.431650
 X2.451650 Y-3.408552
 Y-3.395302
 X2.447400 Y-3.391052
 X2.399400
 X2.391650 Y-3.387552
 X2.390400
 Y-3.387302
 X2.377150
 X2.269150 Y-3.494052
 X2.257150 Y-3.501802
 X2.255900
 Y-3.502052
 X2.254650
 Y-3.502302
 X2.253400
 Y-3.502552
 X2.252150
 Y-3.502802
 X2.250900
 Y-3.503052
 X2.249400
 Y-3.503302
 X2.248150
 Y-3.503552
 X2.246900
 Y-3.503802
 X2.245650
 Y-3.504052
 X2.244400
 Y-3.504302
 X2.158900
 X2.148650 Y-3.513302
 X2.129900 Y-3.521052
 X2.120400
 X2.101400 Y-3.513302
 X2.091150 Y-3.504302
 X1.880650
 X1.879400 Y-3.503802
 X1.878150
 Y-3.503552
 X1.876900
 Y-3.503302
 X1.875650
 Y-3.503052
 X1.874150
 Y-3.502802
 X1.872900
 Y-3.502552
 X1.871650
 Y-3.502302
 X1.870400
 X1.869150 Y-3.501802
 X1.867900
 X1.856900 Y-3.495052
 X1.845650
 X1.827150 Y-3.487552
 X1.812400 Y-3.472802
 X1.804900 Y-3.454552
 Y-3.445302
 X1.812400 Y-3.427052
 X1.833900 Y-3.406802
 Y-3.393552
 X1.838900 Y-3.386802
 X1.840400
 Y-3.387052
 X1.842900
 Y-3.387302
 X1.857150
 Y-3.387052
 X1.859650
 Y-3.386802
 X1.861400
 X1.866650 Y-3.392052
 X1.866150 Y-3.393552
 Y-3.406802
 X1.887900 Y-3.426802
 X1.893900 Y-3.442302
 X1.897900 Y-3.445302
 X2.091150
 X2.101400 Y-3.436302
 X2.120150 Y-3.428552
 X2.129900
 X2.148900 Y-3.436302
 X2.158900 Y-3.445302
 X2.239900
 X2.355900 Y-3.330552
 X2.367900 Y-3.322802
 X2.369150
 Y-3.322552
 X2.370400
 Y-3.322302
 X2.371650
 X2.372900 Y-3.321802
 X2.374400
 Y-3.321552
 X2.375650
 Y-3.321302
 X2.376900
 X2.378150 Y-3.320802
 X2.379400
 Y-3.320552
 X2.380650
 Y-3.320302
 X2.382900
 X2.392400 Y-3.311302
 X2.399150 Y-3.308552
 X2.450900
 X2.459400 Y-3.312802
 X2.463400 Y-3.316802
 X2.466400 Y-3.324052
 Y-3.372052
 X2.470650 Y-3.376302
 X2.483900
 X2.895400 Y-2.964802
 Y-1.673302
 X2.891150 Y-1.669052
 X2.877900
 Y-1.669302
 X2.876650
 X2.856150 Y-1.678052
 X2.844150
 X2.822650 Y-1.669302
 X2.806650 Y-1.654302
 X2.760150
 X2.679650 Y-1.735052
 Y-2.969302
 X2.679400
 Y-2.970552
 X2.679150
 Y-2.971802
 X2.678900
 Y-2.973052
 X2.678650
 Y-2.974302
 X2.678400
 Y-2.975552
 X2.678150
 Y-2.976802
 X2.677650 Y-2.978052
 Y-2.979302
 X2.677400
 Y-2.980552
 X2.677150
 Y-2.981802
 X2.669150 Y-2.994052
 X2.471400 Y-3.193052
 Y-3.204552
 X2.463400 Y-3.223552
 X2.448650 Y-3.238302
 X2.429900 Y-3.246052
 X2.420400
 X2.401400 Y-3.238302
 X2.386650 Y-3.223552
 X2.378900 Y-3.204552
 Y-3.194802
 X2.386400 Y-3.176302
 X2.401400 Y-3.161302
 X2.420150 Y-3.153552
 X2.431650
 X2.454650 Y-3.130552
 Y-3.117302
 X2.450400 Y-3.113052
 X2.437150
 X2.427650 Y-3.116302
 X2.425650
 Y-3.116052
 X2.420400
 Y-3.115802
 X2.418400
 X2.425650 Y-3.108302
 X2.432150
 Y-3.108052
 X2.434650
 Y-3.107802
 X2.436650
 X2.449900 Y-3.100802
 X2.457900 Y-3.086552
 Y-3.084552
 X2.458150
 Y-3.082052
 X2.458400
 Y-3.067802
 X2.463150 Y-3.062802
 X2.466650 Y-3.072302
 Y-3.074302
 X2.466400
 Y-3.079552
 X2.466150
 Y-3.081552
 X2.464400 Y-3.084802
 Y-3.086052
 X2.464150
 Y-3.099302
 X2.468400 Y-3.103552
 X2.481650
 X2.620400 Y-2.964802
 Y-2.812802
 X2.616150 Y-2.808552
 X2.602900
 X2.471400 Y-2.943052
 Y-2.954552
 X2.463400 Y-2.973552
 X2.448650 Y-2.988302
 X2.429900 Y-2.996052
 X2.420400
 X2.401400 Y-2.988302
 X2.386650 Y-2.973552
 X2.378900 Y-2.954552
 Y-2.944802
 X2.386400 Y-2.926302
 X2.401400 Y-2.911302
 X2.420150 Y-2.903552
 X2.431650
 X2.454650 Y-2.880552
 Y-2.867302
 X2.450400 Y-2.863052
 X2.437150
 X2.427650 Y-2.866302
 X2.425650
 Y-2.866052
 X2.420400
 Y-2.865802
 X2.418400
 X2.425650 Y-2.858302
 X2.432150
 Y-2.858052
 X2.434650
 Y-2.857802
 X2.436650
 X2.449900 Y-2.850802
 X2.457900 Y-2.836552
 Y-2.834552
 X2.458150
 Y-2.832052
 X2.458400
 Y-2.817802
 X2.463150 Y-2.812802
 X2.466650 Y-2.822302
 Y-2.824302
 X2.466400
 Y-2.829552
 X2.466150
 Y-2.831552
 X2.464400 Y-2.834802
 Y-2.836052
 X2.464150
 Y-2.849302
 X2.468400 Y-2.853552
 X2.481650
 X2.545400 Y-2.789802
 Y-2.715802
 X2.541150 Y-2.711552
 X2.527900
 X2.507150 Y-2.726802
 X2.505900
 Y-2.727052
 X2.504650
 Y-2.727302
 X2.503400
 Y-2.727552
 X2.502150
 Y-2.727802
 X2.500900
 Y-2.728052
 X2.499400
 Y-2.728302
 X2.498150
 Y-2.728552
 X2.496900
 Y-2.728802
 X2.495650
 Y-2.729052
 X2.494400
 Y-2.729302
 X2.458900
 X2.448650 Y-2.738302
 X2.429900 Y-2.746052
 X2.420400
 X2.401400 Y-2.738302
 X2.386650 Y-2.723552
 X2.378900 Y-2.704552
 Y-2.695052
 X2.386650 Y-2.676052
 X2.401400 Y-2.661302
 X2.420150 Y-2.653552
 X2.429900
 X2.448900 Y-2.661302
 X2.458900 Y-2.670302
 X2.489900
 X2.495400 Y-2.664802
 Y-2.510052
 X2.355900 Y-2.369052
 X2.348150 Y-2.357052
 Y-2.355802
 X2.347900
 Y-2.354552
 X2.347400 Y-2.353552
 Y-2.352302
 X2.347150
 Y-2.351052
 X2.346400 Y-2.348802
 Y-2.347552
 X2.345650 Y-2.345302
 Y-2.344052
 X2.345400
 Y-1.635052
 X2.320650 Y-1.610302
 X2.307400
 X2.303150 Y-1.614552
 Y-1.630802
 X2.294400 Y-1.652552
 X2.277650 Y-1.669302
 X2.256150 Y-1.678052
 X2.244150
 X2.222650 Y-1.669302
 X2.206650 Y-1.654302
 X2.110150
 X2.054650 Y-1.710052
 Y-1.814802
 X2.269150 Y-2.030552
 X2.277400 Y-2.044052
 Y-2.045302
 X2.277650
 Y-2.046552
 X2.277900
 Y-2.047802
 X2.278150
 Y-2.049052
 X2.278400
 Y-2.050552
 X2.278650
 Y-2.051802
 X2.278900
 Y-2.053052
 X2.279150
 Y-2.054302
 X2.279400
 Y-2.055552
 X2.279650
 Y-2.169302
 X2.279400
 Y-2.170552
 X2.279150
 Y-2.171802
 X2.278900
 Y-2.173052
 X2.278650
 Y-2.174302
 X2.278150 Y-2.175552
 Y-2.176802
 X2.277900
 Y-2.178052
 X2.277650
 Y-2.179302
 X2.277400
 Y-2.180552
 X2.277150
 Y-2.181802
 X2.269150 Y-2.194052
 X2.179650 Y-2.285052
 Y-2.391052
 X2.188650 Y-2.401302
 X2.196400 Y-2.420052
 Y-2.429552
 X2.188650 Y-2.448302
 X2.173900 Y-2.463052
 X2.154900 Y-2.471052
 X2.145400
 X2.126400 Y-2.463302
 X2.111650 Y-2.448552
 X2.103900 Y-2.429552
 Y-2.420052
 X2.111650 Y-2.401052
 X2.120400 Y-2.391052
 Y-2.280802
 X2.120650
 Y-2.279552
 X2.120900
 Y-2.278302
 X2.121150
 Y-2.277052
 X2.121650 Y-2.276052
 Y-2.274802
 X2.121900
 Y-2.273552
 X2.122150
 Y-2.272302
 X2.122650 Y-2.271302
 Y-2.270052
 X2.122900
 Y-2.268802
 X2.123150
 Y-2.267552
 X2.130900 Y-2.255552
 X2.220400 Y-2.164802
 Y-2.060052
 X2.005900 Y-1.844052
 X1.998150 Y-1.832052
 Y-1.830802
 X1.997400 Y-1.828552
 Y-1.827302
 X1.997150
 Y-1.826052
 X1.996650 Y-1.825052
 Y-1.823802
 X1.996400
 Y-1.822552
 X1.995900 Y-1.821552
 Y-1.820302
 X1.995650
 Y-1.819052
 X1.995400
 Y-1.715802
 X1.991150 Y-1.711552
 X1.977900
 X1.904650 Y-1.785052
 Y-1.806302
 X1.919400 Y-1.822302
 X1.928150 Y-1.843802
 Y-1.855802
 X1.919400 Y-1.877552
 X1.902650 Y-1.894302
 X1.881150 Y-1.903052
 X1.869150
 X1.847650 Y-1.894302
 X1.830650 Y-1.877302
 X1.821900 Y-1.856052
 Y-1.843802
 X1.830650 Y-1.822552
 X1.845400 Y-1.806302
 Y-1.780802
 X1.845650
 Y-1.779552
 X1.845900
 Y-1.778302
 X1.846650 Y-1.776052
 Y-1.774802
 X1.846900
 Y-1.773552
 X1.847650 Y-1.771302
 Y-1.770052
 X1.848150 Y-1.768802
 Y-1.767552
 X1.855900 Y-1.755552
 X2.020400 Y-1.589802
 Y-1.180802
 X2.020650
 Y-1.179552
 X2.021150 Y-1.178302
 Y-1.177052
 X2.021650 Y-1.176052
 Y-1.174802
 X2.022150 Y-1.173552
 Y-1.172302
 X2.022900 Y-1.170052
 Y-1.168802
 X2.023150
 Y-1.167552
 X2.030900 Y-1.155552
 X2.070400 Y-1.114802
 Y-0.873302
 X2.066150 Y-0.869052
 X2.052900
 Y-0.869302
 X2.051650
 X2.031150 Y-0.878052
 X2.019150
 X1.997650 Y-0.869302
 X1.980650 Y-0.852302
 X1.971900 Y-0.831052
 Y-0.818802
 X1.980650 Y-0.797552
 X1.997650 Y-0.780552
 X2.018900 Y-0.771552
 X2.031150
 X2.051650 Y-0.780052
 X2.058150 Y-0.784802
 X2.071400
 Y-0.784552
 X2.072650
 X2.074150 Y-0.783552
 X2.125900
 X2.138900 Y-0.791302
 X2.210400
 X2.220400 Y-0.781302
 Y-0.768052
 X2.205650 Y-0.752302
 X2.196900 Y-0.731052
 Y-0.718802
 X2.205650 Y-0.697552
 X2.232400 Y-0.668302
 X2.236650 Y-0.669552
 X2.238150
 Y-0.669802
 X2.239900
 Y-0.670052
 X2.260150
 Y-0.669802
 X2.261900
 Y-0.669552
 X2.263400
 Y-0.669302
 X2.264650
 X2.267900 Y-0.668302
 X2.294400 Y-0.697302
 X2.303150 Y-0.718802
 Y-0.730802
 X2.294400 Y-0.752552
 X2.279650 Y-0.768302
 Y-0.781552
 X2.294400 Y-0.797302
 X2.303150 Y-0.818802
 Y-0.830802
 X2.294400 Y-0.852552
 X2.279650 Y-0.868302
 Y-0.881552
 X2.294400 Y-0.897302
 X2.303150 Y-0.918802
 Y-0.930802
 X2.294400 Y-0.952552
 X2.279650 Y-0.968302
 Y-0.981552
 X2.294400 Y-0.997302
 X2.303150 Y-1.018802
 Y-1.030802
 X2.294400 Y-1.052552
 X2.279650 Y-1.068302
 Y-1.081552
 X2.294400 Y-1.097302
 X2.303150 Y-1.118802
 Y-1.130802
 X2.294400 Y-1.152552
 X2.279650 Y-1.168302
 Y-1.181552
 X2.294400 Y-1.197302
 X2.303150 Y-1.218802
 Y-1.230802
 X2.294400 Y-1.252552
 X2.279650 Y-1.268302
 Y-1.281552
 X2.294400 Y-1.297302
 X2.303150 Y-1.318802
 Y-1.330802
 X2.294400 Y-1.352552
 X2.279650 Y-1.368302
 Y-1.381552
 X2.294400 Y-1.397302
 X2.300900 Y-1.412552
 X2.444150 Y-1.555552
 X2.452150 Y-1.567802
 Y-1.569052
 X2.452400
 Y-1.570302
 X2.452650
 Y-1.571552
 X2.453150 Y-1.572802
 Y-1.574052
 X2.453400
 Y-1.575552
 X2.453650
 Y-1.576802
 X2.453900
 Y-1.578052
 X2.454400 Y-1.579302
 Y-1.580552
 X2.454650
 Y-2.314802
 X2.602900 Y-2.466052
 X2.616150
 X2.620400 Y-2.461802
 Y-1.730802
 X2.620900 Y-1.729552
 Y-1.728302
 X2.621150
 Y-1.727052
 X2.621650 Y-1.726052
 Y-1.724802
 X2.621900
 Y-1.723552
 X2.622150
 Y-1.722302
 X2.622650 Y-1.721302
 Y-1.720052
 X2.622900
 Y-1.718802
 X2.623150
 Y-1.717552
 X2.630900 Y-1.705552
 X2.729650 Y-1.606802
 X2.742900 Y-1.597802
 X2.744150
 Y-1.597552
 X2.745400
 Y-1.597302
 X2.746650
 X2.747900 Y-1.596802
 X2.749400
 Y-1.596552
 X2.750650
 Y-1.596302
 X2.751900
 X2.753150 Y-1.595802
 X2.754400
 Y-1.595552
 X2.755650
 Y-1.595302
 X2.806650
 X2.820400 Y-1.581302
 Y-1.568052
 X2.805650 Y-1.552302
 X2.796900 Y-1.531052
 Y-1.518802
 X2.805650 Y-1.497552
 X2.820400 Y-1.481302
 Y-1.468052
 X2.805650 Y-1.452302
 X2.796900 Y-1.431052
 Y-1.421302
 X2.530900 Y-1.154052
 X2.523150 Y-1.142052
 Y-1.140802
 X2.522900
 Y-1.139552
 X2.522150 Y-1.137302
 Y-1.136052
 X2.521400 Y-1.133802
 Y-1.132552
 X2.520900 Y-1.131552
 Y-1.130302
 X2.520400 Y-1.129052
 Y-0.305052
 X2.502400 Y-0.286802
 X1.796400
 X1.792150 Y-0.291052
 Y-0.292802
G00 Z0.039370
 X3.246650 Y-0.307552
F7.874016
G01 Z-0.003937
 Y-0.368302
 X3.278400
 Y-0.500802
 X3.267150 Y-0.510802
 X3.262150 Y-0.522802
 Y-0.525302
 X3.261900
 Y-0.527802
 X3.261650
 Y-0.542052
 X3.261900
 Y-0.544552
 X3.262150
 Y-0.547052
 X3.266650 Y-0.558302
 X3.270900 Y-0.563552
 X3.276650 Y-0.568302
 X3.287900 Y-0.572802
 X3.290400
 Y-0.573052
 X3.292900
 Y-0.573302
 X3.307150
 Y-0.573052
 X3.309650
 Y-0.572802
 X3.312150
 X3.324150 Y-0.567802
 X3.334150 Y-0.556552
 X3.347650
 X3.354900 Y-0.564802
 Y-0.585052
 X3.355150
 Y-0.586802
 X3.355400
 Y-0.588302
 X3.359150 Y-0.598802
 X3.365400 Y-0.607802
 X3.372900 Y-0.614052
 X3.385400 Y-0.619302
 X3.386650
 Y-0.619552
 X3.388150
 Y-0.619802
 X3.389900
 Y-0.620052
 X3.410150
 Y-0.619802
 X3.411900
 Y-0.619552
 X3.413400
 Y-0.619302
 X3.414650
 X3.427150 Y-0.614052
 X3.434650 Y-0.607802
 X3.440900 Y-0.598802
 X3.444650 Y-0.588302
 Y-0.586802
 X3.444900
 Y-0.585052
 X3.445150
 Y-0.564802
 X3.444900
 Y-0.563052
 X3.444650
 Y-0.561552
 X3.440900 Y-0.551052
 X3.434650 Y-0.542052
 X3.427150 Y-0.535802
 X3.414650 Y-0.530552
 X3.413400
 Y-0.530302
 X3.411900
 Y-0.530052
 X3.410150
 Y-0.529802
 X3.389900
 X3.375650 Y-0.516552
 X3.369150 Y-0.513552
 X3.367400
 Y-0.513302
 X3.334150
 X3.327900 Y-0.505052
 X3.321650 Y-0.500802
 Y-0.347552
 X3.321400
 Y-0.345802
 X3.319650 Y-0.341052
 X3.313400 Y-0.334302
 Y-0.301552
 X3.246650
 Y-0.307552
G00 Z0.039370
 X3.157400
F7.874016
G01 Z-0.003937
 X3.151150 Y-0.313802
 X3.147150 Y-0.323302
 Y-0.325302
 X3.146900
 Y-0.327802
 X3.146650
 Y-0.342052
 X3.146900
 Y-0.344552
 X3.147150
 Y-0.346552
 X3.151650 Y-0.356802
 X3.158400 Y-0.363302
 Y-0.490802
 X3.151150 Y-0.496052
 X3.145900 Y-0.503302
 X3.009150
 X2.999150 Y-0.492052
 X2.987150 Y-0.487052
 X2.984650
 Y-0.486802
 X2.982150
 Y-0.486552
 X2.967900
 Y-0.486802
 X2.965400
 Y-0.487052
 X2.962900
 X2.954900 Y-0.489802
 X2.947150 Y-0.495052
 X2.941650 Y-0.501552
 X2.937150 Y-0.512802
 Y-0.515302
 X2.936900
 Y-0.517802
 X2.936650
 Y-0.532052
 X2.936900
 Y-0.534552
 X2.937150
 Y-0.537052
 X2.941650 Y-0.548302
 X2.947150 Y-0.554802
 X2.962900 Y-0.562802
 X2.965400
 Y-0.563052
 X2.967900
 Y-0.563302
 X2.982150
 Y-0.563052
 X2.984650
 Y-0.562802
 X2.987150
 X2.999150 Y-0.557802
 X3.009150 Y-0.546552
 X3.145900
 X3.155900 Y-0.557802
 X3.167900 Y-0.562802
 X3.170400
 Y-0.563052
 X3.172900
 Y-0.563302
 X3.187150
 Y-0.563052
 X3.189650
 Y-0.562802
 X3.192150
 X3.200650 Y-0.559802
 X3.208900 Y-0.553802
 X3.214900 Y-0.545552
 X3.217900 Y-0.537052
 Y-0.534552
 X3.218150
 Y-0.532052
 X3.218400
 Y-0.517802
 X3.218150
 Y-0.515302
 X3.217900
 Y-0.512802
 X3.212900 Y-0.500802
 X3.201650 Y-0.490802
 Y-0.363302
 X3.208400 Y-0.356802
 X3.212900 Y-0.346552
 Y-0.344552
 X3.213150
 Y-0.342052
 X3.213400
 Y-0.327802
 X3.213150
 Y-0.325302
 X3.212900
 Y-0.323302
 X3.205900 Y-0.310052
 X3.191650 Y-0.302052
 X3.189650
 Y-0.301802
 X3.187150
 Y-0.301552
 X3.172900
 Y-0.301802
 X3.170400
 Y-0.302052
 X3.168400
 X3.157400 Y-0.307552
G00 Z0.039370
 X3.762150 Y-0.384052
F7.874016
G01 Z-0.003937
 X3.754400 Y-0.391552
 X3.749650 Y-0.402802
 Y-0.405302
 X3.749400
 Y-0.407802
 X3.749150
 Y-0.422052
 X3.749400
 Y-0.424552
 X3.749650
 Y-0.427052
 X3.753400 Y-0.436552
 X3.757900 Y-0.442552
 X3.764400 Y-0.447552
 X3.773900 Y-0.451302
 X3.776400
 Y-0.451552
 X3.778900
 Y-0.451802
 X3.821150
 Y-0.451552
 X3.823650
 Y-0.451302
 X3.826150
 X3.835650 Y-0.447552
 X3.842150 Y-0.442552
 X3.850400 Y-0.427052
 Y-0.424552
 X3.850650
 Y-0.422052
 X3.850900
 Y-0.407802
 X3.850650
 Y-0.405302
 X3.850400
 Y-0.402802
 X3.846650 Y-0.393302
 X3.842150 Y-0.387302
 X3.835650 Y-0.382302
 X3.826150 Y-0.378552
 X3.823650
 Y-0.378302
 X3.821150
 Y-0.378052
 X3.778900
 Y-0.378302
 X3.776400
 Y-0.378552
 X3.773900
 X3.762150 Y-0.384052
G00 Z0.039370
 X0.575650 Y-0.467552
F7.874016
G01 Z-0.003937
 X0.566650 Y-0.476552
 X0.562150 Y-0.487802
 Y-0.490302
 X0.561900
 Y-0.492802
 X0.561650
 Y-0.507052
 X0.561900
 Y-0.509552
 X0.562150
 Y-0.512052
 X0.564900 Y-0.520052
 X0.570150 Y-0.527802
 X0.576650 Y-0.533302
 X0.587900 Y-0.537802
 X0.590400
 Y-0.538052
 X0.592900
 Y-0.538302
 X0.607150
 Y-0.538052
 X0.609650
 Y-0.537802
 X0.612150
 X0.624150 Y-0.532802
 X0.634150 Y-0.521552
 X1.037650
 X1.129900 Y-0.614802
 Y-0.635052
 X1.130150
 Y-0.636802
 X1.130400
 Y-0.638302
 X1.130650
 Y-0.639552
 X1.135900 Y-0.652052
 X1.142150 Y-0.659552
 X1.151150 Y-0.665802
 X1.161650 Y-0.669552
 X1.163150
 Y-0.669802
 X1.164900
 Y-0.670052
 X1.185150
 Y-0.669802
 X1.186900
 Y-0.669552
 X1.188400
 X1.198900 Y-0.665802
 X1.207900 Y-0.659552
 X1.214150 Y-0.652052
 X1.219400 Y-0.639552
 Y-0.638302
 X1.219650
 Y-0.636802
 X1.219900
 Y-0.635052
 X1.220150
 Y-0.614802
 X1.219900
 Y-0.613052
 X1.219650
 Y-0.611552
 X1.219400
 Y-0.610302
 X1.214150 Y-0.597802
 X1.207900 Y-0.590302
 X1.198900 Y-0.584052
 X1.188400 Y-0.580302
 X1.186900
 Y-0.580052
 X1.185150
 Y-0.579802
 X1.164900
 X1.067150 Y-0.482802
 X1.059150 Y-0.478552
 X1.057400
 Y-0.478302
 X0.634150
 X0.624150 Y-0.467052
 X0.612150 Y-0.462052
 X0.609650
 Y-0.461802
 X0.607150
 Y-0.461552
 X0.592900
 Y-0.461802
 X0.590400
 Y-0.462052
 X0.587900
 X0.575650 Y-0.467552
G00 Z0.039370
 X0.375650
F7.874016
G01 Z-0.003937
 X0.367150 Y-0.475802
 X0.362150 Y-0.487802
 Y-0.490302
 X0.361900
 Y-0.492802
 X0.361650
 Y-0.507052
 X0.361900
 Y-0.509552
 X0.362150
 Y-0.512052
 X0.366650 Y-0.523302
 X0.372150 Y-0.529802
 X0.387900 Y-0.537802
 X0.390400
 Y-0.538052
 X0.392900
 Y-0.538302
 X0.404400
 X0.483150 Y-0.617302
 X0.490900 Y-0.621302
 X0.492650
 Y-0.621552
 X0.962650
 X1.053400 Y-0.712302
 Y-0.857302
 X1.053650
 Y-0.859052
 X1.058150 Y-0.867302
 X1.130900 Y-0.939802
 X1.135900 Y-0.952052
 X1.140400 Y-0.957802
 X1.147900 Y-0.964052
 X1.161650 Y-0.969552
 X1.163150
 Y-0.969802
 X1.164900
 Y-0.970052
 X1.185150
 Y-0.969802
 X1.186900
 Y-0.969552
 X1.188400
 X1.198900 Y-0.965802
 X1.207900 Y-0.959552
 X1.214150 Y-0.952052
 X1.219400 Y-0.939552
 Y-0.938302
 X1.219650
 Y-0.936802
 X1.219900
 Y-0.935052
 X1.220150
 Y-0.914802
 X1.219900
 Y-0.913052
 X1.219650
 Y-0.911552
 X1.219400
 Y-0.910302
 X1.214150 Y-0.897802
 X1.207900 Y-0.890302
 X1.198900 Y-0.884052
 X1.188400 Y-0.880302
 X1.186900
 Y-0.880052
 X1.185150
 Y-0.879802
 X1.164900
 Y-0.880052
 X1.163150
 Y-0.880302
 X1.161650
 X1.146150 Y-0.887052
 X1.096650 Y-0.837552
 Y-0.692552
 X1.096400
 Y-0.690802
 X1.092400 Y-0.683052
 X1.010650 Y-0.601302
 X0.992150 Y-0.582802
 X0.984150 Y-0.578552
 X0.982400
 Y-0.578302
 X0.512400
 X0.438400 Y-0.504302
 Y-0.492802
 X0.438150
 Y-0.490302
 X0.437900
 Y-0.487802
 X0.434900 Y-0.479302
 X0.429400 Y-0.471552
 X0.423400 Y-0.466552
 X0.412150 Y-0.462052
 X0.409650
 Y-0.461802
 X0.407150
 Y-0.461552
 X0.392900
 Y-0.461802
 X0.390400
 Y-0.462052
 X0.387900
 X0.375650 Y-0.467552
G00 Z0.039370
 X2.823400 Y-0.485802
F7.874016
G01 Z-0.003937
 X2.811900 Y-0.496302
 X2.805400 Y-0.511552
 Y-0.513052
 X2.805150
 Y-0.514802
 X2.804900
 Y-0.535052
 X2.805150
 Y-0.536802
 X2.805400
 Y-0.538302
 X2.809150 Y-0.548802
 X2.815400 Y-0.557802
 X2.822900 Y-0.564052
 X2.835400 Y-0.569302
 X2.836650
 Y-0.569552
 X2.838150
 Y-0.569802
 X2.839900
 Y-0.570052
 X2.860150
 Y-0.569802
 X2.861900
 Y-0.569552
 X2.863400
 X2.873900 Y-0.565802
 X2.883400 Y-0.559052
 X2.889150 Y-0.552052
 X2.894650 Y-0.538302
 Y-0.536802
 X2.894900
 Y-0.535052
 X2.895150
 Y-0.514802
 X2.894900
 Y-0.513052
 X2.894650
 Y-0.511552
 X2.889150 Y-0.497802
 X2.883400 Y-0.490802
 X2.873900 Y-0.484052
 X2.863400 Y-0.480302
 X2.861900
 Y-0.480052
 X2.860150
 Y-0.479802
 X2.839900
 Y-0.480052
 X2.838150
 Y-0.480302
 X2.836650
 Y-0.480552
 X2.835400
 X2.823400 Y-0.485802
G00 Z0.039370
 X2.223400
F7.874016
G01 Z-0.003937
 X2.211900 Y-0.496302
 X2.205400 Y-0.511552
 Y-0.513052
 X2.205150
 Y-0.514802
 X2.204900
 Y-0.535052
 X2.205150
 Y-0.536802
 X2.205400
 Y-0.538302
 X2.210900 Y-0.552052
 X2.216650 Y-0.559052
 X2.226150 Y-0.565802
 X2.236650 Y-0.569552
 X2.238150
 Y-0.569802
 X2.239900
 Y-0.570052
 X2.260150
 Y-0.569802
 X2.261900
 Y-0.569552
 X2.263400
 Y-0.569302
 X2.264650
 X2.277150 Y-0.564052
 X2.284650 Y-0.557802
 X2.290900 Y-0.548802
 X2.294650 Y-0.538302
 Y-0.536802
 X2.294900
 Y-0.535052
 X2.295150
 Y-0.514802
 X2.294900
 Y-0.513052
 X2.294650
 Y-0.511552
 X2.290900 Y-0.501052
 X2.284650 Y-0.492052
 X2.277150 Y-0.485802
 X2.264650 Y-0.480552
 X2.263400
 Y-0.480302
 X2.261900
 Y-0.480052
 X2.260150
 Y-0.479802
 X2.239900
 Y-0.480052
 X2.238150
 Y-0.480302
 X2.236650
 X2.223400 Y-0.485802
G00 Z0.039370
 X2.823400 Y-0.585802
F7.874016
G01 Z-0.003937
 X2.811900 Y-0.596302
 X2.805650 Y-0.610302
 Y-0.611552
 X2.805400
 Y-0.613052
 X2.805150
 Y-0.614802
 X2.804900
 Y-0.635052
 X2.805150
 Y-0.636802
 X2.805400
 Y-0.638302
 X2.805650
 Y-0.639552
 X2.810900 Y-0.652052
 X2.816900 Y-0.659302
 X2.822900 Y-0.664052
 X2.835400 Y-0.669302
 X2.836650
 Y-0.669552
 X2.838150
 Y-0.669802
 X2.839900
 Y-0.670052
 X2.860150
 Y-0.669802
 X2.861900
 Y-0.669552
 X2.863400
 X2.873900 Y-0.665802
 X2.882900 Y-0.659552
 X2.889150 Y-0.652052
 X2.894400 Y-0.639552
 Y-0.638302
 X2.894650
 Y-0.636802
 X2.894900
 Y-0.635052
 X2.895150
 Y-0.614802
 X2.894900
 Y-0.613052
 X2.894650
 Y-0.611552
 X2.894400
 Y-0.610302
 X2.889150 Y-0.597802
 X2.882900 Y-0.590302
 X2.873900 Y-0.584052
 X2.863400 Y-0.580302
 X2.861900
 Y-0.580052
 X2.860150
 Y-0.579802
 X2.839900
 Y-0.580052
 X2.838150
 Y-0.580302
 X2.836650
 Y-0.580552
 X2.835400
 X2.823400 Y-0.585802
G00 Z0.039370
 X3.055650 Y-0.592552
F7.874016
G01 Z-0.003937
 X3.047150 Y-0.600802
 X3.042150 Y-0.612802
 Y-0.615302
 X3.041900
 Y-0.617802
 X3.041650
 Y-0.632052
 X3.041900
 Y-0.634552
 X3.042150
 Y-0.637052
 X3.046650 Y-0.648302
 X3.052150 Y-0.654802
 X3.067900 Y-0.662802
 X3.070400
 Y-0.663052
 X3.072900
 Y-0.663302
 X3.084400
 X3.158400 Y-0.737302
 Y-0.790802
 X3.147150 Y-0.800802
 X3.142150 Y-0.812802
 Y-0.815302
 X3.141900
 Y-0.817802
 X3.141650
 Y-0.832052
 X3.141900
 Y-0.834552
 X3.142150
 Y-0.837052
 X3.146650 Y-0.848302
 X3.151150 Y-0.853802
 X3.159900 Y-0.860052
 X3.167900 Y-0.862802
 X3.170400
 Y-0.863052
 X3.172900
 Y-0.863302
 X3.187150
 Y-0.863052
 X3.189650
 Y-0.862802
 X3.192150
 X3.200650 Y-0.859802
 X3.208900 Y-0.853802
 X3.214900 Y-0.845552
 X3.217900 Y-0.837052
 Y-0.834552
 X3.218150
 Y-0.832052
 X3.218400
 Y-0.817802
 X3.218150
 Y-0.815302
 X3.217900
 Y-0.812802
 X3.212900 Y-0.800802
 X3.201650 Y-0.790802
 Y-0.717552
 X3.201400
 Y-0.715802
 X3.197400 Y-0.708052
 X3.118400 Y-0.629302
 Y-0.617802
 X3.118150
 Y-0.615302
 X3.117900
 Y-0.612802
 X3.114900 Y-0.604302
 X3.109150 Y-0.596302
 X3.103400 Y-0.591552
 X3.092150 Y-0.587052
 X3.089650
 Y-0.586802
 X3.087150
 Y-0.586552
 X3.072900
 Y-0.586802
 X3.070400
 Y-0.587052
 X3.067900
 X3.055650 Y-0.592552
G00 Z0.039370
 X4.696400 Y-0.610052
F7.874016
G01 Z-0.003937
 X4.689150 Y-0.617302
 X4.684650 Y-0.628052
 Y-0.629302
 X4.522900
 Y-0.629552
 X4.521400
 X4.515150 Y-0.634302
 X4.342900
 Y-0.634552
 X4.341400
 X4.265150 Y-0.709302
 X4.236650
 X4.233400 Y-0.701552
 X4.227900 Y-0.695052
 X4.212150 Y-0.687052
 X4.209650
 Y-0.686802
 X4.207150
 Y-0.686552
 X4.192900
 Y-0.686802
 X4.190400
 Y-0.687052
 X4.187900
 X4.179900 Y-0.689802
 X4.172150 Y-0.695052
 X4.166650 Y-0.701552
 X4.162150 Y-0.712802
 Y-0.715302
 X4.161900
 Y-0.717802
 X4.161650
 Y-0.732052
 X4.161900
 Y-0.734552
 X4.162150
 Y-0.737052
 X4.166650 Y-0.748302
 X4.172150 Y-0.754802
 X4.187900 Y-0.762802
 X4.190400
 Y-0.763052
 X4.192900
 Y-0.763302
 X4.207150
 Y-0.763052
 X4.209650
 Y-0.762802
 X4.212150
 X4.220650 Y-0.759802
 X4.227900 Y-0.754802
 X4.236650 Y-0.740802
 X4.281900
 Y-0.740552
 X4.283400
 X4.359650 Y-0.665802
 X4.531900
 Y-0.665552
 X4.533400
 X4.539650 Y-0.660802
 X4.605900
 Y-0.660552
 X4.607650
 Y-0.660302
 X4.611150
 Y-0.660052
 X4.628900
 Y-0.660302
 X4.632400
 Y-0.660552
 X4.634150
 Y-0.660802
 X4.688400
 X4.696650 Y-0.670302
 X4.708150 Y-0.675302
 X4.710400
 Y-0.675552
 X4.712900
 Y-0.675802
 X4.727150
 Y-0.675552
 X4.729650
 Y-0.675302
 X4.731900
 X4.746900 Y-0.667302
 X4.751650 Y-0.661302
 X4.755400 Y-0.651802
 Y-0.649552
 X4.755650
 Y-0.647052
 X4.755900
 Y-0.632802
 X4.755650
 Y-0.630302
 X4.755400
 Y-0.628052
 X4.751650 Y-0.618552
 X4.746900 Y-0.612552
 X4.731900 Y-0.604552
 X4.729650
 Y-0.604302
 X4.727150
 Y-0.604052
 X4.712900
 Y-0.604302
 X4.710400
 Y-0.604552
 X4.708150
 X4.696400 Y-0.610052
G00 Z0.039370
 X4.596400 Y-0.665052
F7.874016
G01 Z-0.003937
 X4.588900 Y-0.673302
 X4.447650
 Y-0.673552
 X4.445900
 X4.439400 Y-0.676552
 X4.429150 Y-0.686552
 X4.283150 Y-0.832552
 X4.278650 Y-0.840802
 Y-0.842552
 X4.278400
 Y-1.557302
 X4.278650
 Y-1.559052
 X4.283150 Y-1.567302
 X4.350150 Y-1.634302
 X4.360900 Y-1.641302
 X4.362400
 X4.373650 Y-1.654802
 X4.386650 Y-1.660552
 X4.388650
 Y-1.660802
 X4.391150
 Y-1.661052
 X4.393650
 Y-1.661302
 X4.406400
 Y-1.661052
 X4.408900
 Y-1.660802
 X4.411400
 Y-1.660552
 X4.413400
 X4.424900 Y-1.655802
 X4.430900 Y-1.651052
 X4.435900 Y-1.644802
 X4.440650 Y-1.633302
 Y-1.631302
 X4.440900
 Y-1.628802
 X4.441150
 Y-1.626302
 X4.441400
 Y-1.613552
 X4.441150
 Y-1.611052
 X4.440900
 Y-1.608552
 X4.440650
 Y-1.606552
 X4.435900 Y-1.595052
 X4.430900 Y-1.588802
 X4.422150 Y-1.582552
 X4.413400 Y-1.579302
 X4.411400
 Y-1.579052
 X4.408900
 Y-1.578802
 X4.406400
 Y-1.578552
 X4.393650
 Y-1.578802
 X4.391150
 Y-1.579052
 X4.388650
 Y-1.579302
 X4.386650
 X4.371150 Y-1.587052
 X4.321650 Y-1.537552
 Y-0.862302
 X4.467400 Y-0.716552
 X4.588900
 X4.596650 Y-0.725302
 X4.608150 Y-0.730302
 X4.610400
 Y-0.730552
 X4.612900
 Y-0.730802
 X4.627150
 Y-0.730552
 X4.629650
 Y-0.730302
 X4.631900
 X4.641400 Y-0.726552
 X4.647150 Y-0.722052
 X4.655400 Y-0.706802
 Y-0.704552
 X4.655650
 Y-0.702052
 X4.655900
 Y-0.687802
 X4.655650
 Y-0.685302
 X4.655400
 Y-0.683052
 X4.647900 Y-0.668552
 X4.635900 Y-0.660802
 X4.634150
 Y-0.660552
 X4.632400
 Y-0.660302
 X4.628900
 Y-0.660052
 X4.611150
 Y-0.660302
 X4.607650
 Y-0.660552
 X4.605900
 Y-0.660802
 X4.604150
 X4.596400 Y-0.665052
G00 Z0.039370
 X4.661400 Y-0.674552
F7.874016
G01 Z-0.003937
 X4.661900 Y-0.675302
 Y-0.686052
 X4.663900 Y-0.690552
 Y-0.699052
 X4.656650 Y-0.716802
 X4.642150 Y-0.731302
 X4.629400 Y-0.736302
 X4.626400 Y-0.740302
 Y-0.753552
 X4.628650 Y-0.757052
 X4.634400 Y-0.759302
 X4.629650 Y-0.764302
 X4.627150
 Y-0.764052
 X4.612900
 Y-0.764302
 X4.610400
 X4.605900 Y-0.759552
 X4.612400 Y-0.757302
 X4.614650 Y-0.753802
 Y-0.740552
 X4.612400 Y-0.737052
 X4.597650 Y-0.731052
 X4.589650 Y-0.724302
 X4.465150
 X4.329650 Y-0.860052
 Y-1.511302
 X4.333900 Y-1.515552
 X4.347150
 X4.351150 Y-1.512552
 X4.355400 Y-1.501552
 X4.359400 Y-1.506552
 Y-1.508552
 X4.359150
 Y-1.511052
 X4.358900
 Y-1.513552
 X4.358650
 Y-1.526302
 X4.358900
 Y-1.528802
 X4.359150
 Y-1.531302
 X4.359400
 Y-1.533302
 X4.364150 Y-1.544802
 X4.369150 Y-1.551052
 X4.377900 Y-1.557302
 X4.386650 Y-1.560552
 X4.388650
 Y-1.560802
 X4.391150
 Y-1.561052
 X4.393650
 Y-1.561302
 X4.406400
 X4.441400 Y-1.595302
 X4.449400 Y-1.614302
 Y-1.625052
 X4.441150 Y-1.645052
 X4.424150 Y-1.663302
 Y-1.676552
 X4.437900 Y-1.690302
 X4.469400
 X4.470650 Y-1.690802
 X4.471900
 X4.473150 Y-1.691302
 X4.474400
 X4.475650 Y-1.691802
 X4.477150
 X4.478400 Y-1.692302
 X4.479650
 X4.480900 Y-1.692802
 X4.482150
 X4.494150 Y-1.700552
 X4.502400 Y-1.714052
 Y-1.715302
 X4.502650
 Y-1.716552
 X4.502900
 Y-1.717802
 X4.503400 Y-1.719052
 Y-1.720552
 X4.503650
 Y-1.721802
 X4.503900
 Y-1.723052
 X4.504150
 Y-1.724302
 X4.504650 Y-1.725552
 Y-1.989302
 X4.504150 Y-1.990552
 Y-1.991802
 X4.503900
 Y-1.993052
 X4.503650
 Y-1.994302
 X4.503150 Y-1.995552
 Y-1.996802
 X4.502900
 Y-1.998052
 X4.502650
 Y-1.999302
 X4.502150 Y-2.000552
 Y-2.001802
 X4.494150 Y-2.014052
 X4.444150 Y-2.064052
 X4.430900 Y-2.072052
 X4.429650
 X4.428400 Y-2.072552
 X4.427150
 X4.425900 Y-2.073052
 X4.424400
 X4.423150 Y-2.073552
 X4.421900
 X4.420650 Y-2.074052
 X4.419400
 Y-2.074302
 X4.310150
 X4.219150 Y-2.164052
 X4.207150 Y-2.171802
 X4.205900
 X4.204650 Y-2.172302
 X4.203400
 X4.200900 Y-2.173052
 X4.199400
 Y-2.173302
 X4.198150
 X4.195650 Y-2.174052
 X4.194400
 Y-2.174302
 X4.133900
 X4.123650 Y-2.183302
 X4.104900 Y-2.191052
 X4.095400
 X4.076400 Y-2.183302
 X4.066150 Y-2.174302
 X4.021650
 X4.002400 Y-2.186052
 X4.001150
 X3.999900 Y-2.186552
 X3.998650
 Y-2.186802
 X3.997400
 Y-2.187052
 X3.996150
 Y-2.187302
 X3.994900
 X3.993650 Y-2.187802
 X3.992400
 Y-2.188052
 X3.991150
 Y-2.188302
 X3.989900
 Y-2.188552
 X3.988650
 Y-2.188802
 X3.987400
 Y-2.189052
 X3.986150
 Y-2.189302
 X3.984900
 Y-2.189552
 X3.965400
 Y-2.189302
 X3.964150
 Y-2.189052
 X3.962900
 Y-2.188802
 X3.961650
 Y-2.188552
 X3.960400
 Y-2.188302
 X3.959150
 Y-2.188052
 X3.957900
 Y-2.187802
 X3.956650
 Y-2.187552
 X3.955400
 X3.954150 Y-2.187052
 X3.952900
 Y-2.186802
 X3.951650
 Y-2.186552
 X3.950400
 Y-2.186302
 X3.949150
 Y-2.186052
 X3.947900
 Y-2.185802
 X3.946650
 X3.937150 Y-2.180052
 X3.923900
 X3.919650 Y-2.184302
 Y-2.214802
 X3.988400 Y-2.283552
 X4.001650
 X4.008900 Y-2.276552
 Y-2.271052
 X4.015900 Y-2.253802
 X4.029400 Y-2.240552
 X4.046150 Y-2.233552
 X4.053900
 X4.070650 Y-2.240552
 X4.084150 Y-2.253802
 X4.089400 Y-2.266802
 X4.092900 Y-2.269052
 X4.106150
 X4.111400 Y-2.262552
 X4.116650 Y-2.267802
 Y-2.282052
 X4.111900 Y-2.287052
 X4.110150 Y-2.282052
 X4.106650 Y-2.279802
 X4.093400
 X4.089400 Y-2.282802
 X4.084400 Y-2.295552
 X4.070650 Y-2.309302
 X4.053900 Y-2.316052
 X4.048400
 X4.019650 Y-2.345052
 Y-2.401302
 X4.034400 Y-2.417302
 X4.043150 Y-2.438802
 Y-2.458302
 X4.075150 Y-2.490302
 X4.141150
 X4.145400 Y-2.486052
 Y-2.472802
 X4.136650 Y-2.450052
 Y-2.445302
 X4.136900
 Y-2.438802
 X4.137150
 Y-2.436302
 X4.142400 Y-2.423552
 X4.146650 Y-2.427302
 X4.145650 Y-2.430302
 Y-2.431552
 X4.145400
 Y-2.433052
 X4.145150
 Y-2.434802
 X4.144900
 Y-2.455052
 X4.145150
 Y-2.456802
 X4.145400
 Y-2.458302
 X4.145650
 Y-2.459552
 X4.150900 Y-2.472052
 X4.155400 Y-2.477802
 X4.162900 Y-2.484052
 X4.175400 Y-2.489302
 X4.176650
 Y-2.489552
 X4.178150
 Y-2.489802
 X4.179900
 Y-2.490052
 X4.200150
 Y-2.489802
 X4.201900
 Y-2.489552
 X4.203400
 Y-2.489302
 X4.204650
 X4.217150 Y-2.484052
 X4.222900 Y-2.479552
 X4.229150 Y-2.472052
 X4.234400 Y-2.459552
 Y-2.458302
 X4.234650
 Y-2.456802
 X4.234900
 Y-2.455052
 X4.235150
 Y-2.434802
 X4.239650 Y-2.429552
 X4.243650 Y-2.440052
 Y-2.441302
 X4.243400
 Y-2.449802
 X4.243150
 Y-2.453302
 X4.234650 Y-2.472802
 Y-2.486052
 X4.238900 Y-2.490302
 X4.274900
 X4.360900 Y-2.405552
 X4.372150 Y-2.398052
 X4.373650
 X4.376150 Y-2.397302
 X4.377400
 X4.378650 Y-2.396802
 X4.379900
 X4.382150 Y-2.396052
 X4.383400
 X4.384650 Y-2.395552
 X4.385900
 Y-2.395302
 X4.499650
 X4.508650 Y-2.386302
 Y-2.373052
 X4.504400 Y-2.368802
 X4.501650
 X4.494900 Y-2.366052
 X4.488900 Y-2.360302
 X4.485900 Y-2.353052
 Y-2.346552
 X4.494150
 Y-2.360802
 X4.565900
 Y-2.340802
 X4.570900
 X4.574150 Y-2.344052
 Y-2.359302
 X4.578400 Y-2.363552
 X4.591650
 X4.670400 Y-2.284802
 Y-2.011052
 X4.669400 Y-2.008302
 Y-2.007052
 X4.669150
 Y-2.005802
 X4.668900
 Y-2.004552
 X4.668400 Y-2.003302
 Y-2.002052
 X4.668150
 Y-2.000552
 X4.667650 Y-1.999302
 Y-1.998052
 X4.667400
 Y-1.996802
 X4.667150
 Y-1.995552
 X4.666650 Y-1.994302
 Y-1.987552
 X4.654900 Y-1.973552
 X4.578150 Y-1.896802
 X4.569400 Y-1.883302
 Y-1.881802
 X4.568900 Y-1.880552
 Y-1.879302
 X4.568650
 Y-1.878052
 X4.568400
 Y-1.876802
 X4.568150
 Y-1.875552
 X4.567650 Y-1.874302
 Y-1.873052
 X4.567400
 Y-1.871802
 X4.567150
 Y-1.870552
 X4.566650 Y-1.869302
 Y-1.361552
 X4.503150 Y-1.296802
 X4.494150 Y-1.282052
 Y-1.280802
 X4.493900
 Y-1.279552
 X4.493650
 Y-1.278302
 X4.493150 Y-1.277052
 Y-1.275552
 X4.492900
 Y-1.274302
 X4.492650
 Y-1.273052
 X4.492400
 Y-1.271802
 X4.491900 Y-1.270552
 Y-1.269302
 X4.491650
 Y-1.130552
 X4.491900
 Y-1.129302
 X4.492150
 Y-1.128052
 X4.492400
 Y-1.126802
 X4.492650
 Y-1.125302
 X4.493150 Y-1.124052
 Y-1.122802
 X4.493400
 Y-1.121552
 X4.493650
 Y-1.120052
 X4.493900
 Y-1.118802
 X4.494400 Y-1.117552
 Y-1.116302
 X4.503150 Y-1.102802
 X4.633400 Y-0.971052
 Y-0.957802
 X4.629150 Y-0.953552
 X4.591900
 X4.586400 Y-0.951052
 X4.585150
 Y-0.950802
 X4.571900
 X4.552650 Y-0.969302
 X4.531150 Y-0.978052
 X4.519150
 X4.497650 Y-0.969302
 X4.480650 Y-0.952302
 X4.471900 Y-0.931052
 Y-0.918802
 X4.480650 Y-0.897552
 X4.497650 Y-0.880552
 X4.518900 Y-0.871552
 X4.531150
 X4.550650 Y-0.880052
 X4.551900
 Y-0.880302
 X4.574400
 X4.584900 Y-0.868802
 X4.591650 Y-0.866052
 X4.648400
 X4.664650 Y-0.875802
 X4.663900 Y-0.877802
 Y-0.937052
 X4.668150 Y-0.941302
