( pcb2gcode 1.1.4 )

( This file uses 8 drill bit sizes. )

G94     ( Inches per minute feed rate. )
G21     ( Units == MM.             )
G90     ( Absolute coordinates.        )
S20000  ( RPM spindle speed.           )

G00 Z30.00000 ( Retract )
T1
M5      ( Spindle stop.                )
M6      ( Tool change.                 )
(MSG, CHANGE TOOL BIT: to drill size 0.80000 mm)
M0      ( Temporary machine stop.      )
M3      ( Spindle on clockwise.        )

G0 X119.37746 Y-38.60800
G1 Z-2.50000 F300.00000
G0 Z1.00000
G0 X119.37746 Y-41.14800
G1 Z-2.50000 F300.00000
G0 Z1.00000
G0 X119.37746 Y-43.68800
G1 Z-2.50000 F300.00000
G0 Z1.00000
G0 X119.37746 Y-46.22800
G1 Z-2.50000 F300.00000
G0 Z1.00000
G0 X115.82146 Y-55.49900
G1 Z-2.50000 F300.00000
G0 Z1.00000
G0 X114.93246 Y-23.49500
G1 Z-2.50000 F300.00000
G0 Z1.00000
G0 X111.75746 Y-38.60800
G1 Z-2.50000 F300.00000
G0 Z1.00000
G0 X111.75746 Y-41.14800
G1 Z-2.50000 F300.00000
G0 Z1.00000
G0 X111.75746 Y-43.68800
G1 Z-2.50000 F300.00000
G0 Z1.00000
G0 X111.75746 Y-46.22800
G1 Z-2.50000 F300.00000
G0 Z1.00000
G0 X108.96346 Y-67.18300
G1 Z-2.50000 F300.00000
G0 Z1.00000
G0 X106.42346 Y-62.10300
G1 Z-2.50000 F300.00000
G0 Z1.00000
G0 X103.75646 Y-43.05300
G1 Z-2.50000 F300.00000
G0 Z1.00000
G0 X102.86746 Y-5.08000
G1 Z-2.50000 F300.00000
G0 Z1.00000
G0 X102.86746 Y-72.39000
G1 Z-2.50000 F300.00000
G0 Z1.00000
G0 X101.34346 Y-62.10300
G1 Z-2.50000 F300.00000
G0 Z1.00000
G0 X101.34346 Y-67.18300
G1 Z-2.50000 F300.00000
G0 Z1.00000
G0 X90.80246 Y-40.64000
G1 Z-2.50000 F300.00000
G0 Z1.00000
G0 X86.35746 Y-14.60500
G1 Z-2.50000 F300.00000
G0 Z1.00000
G0 X82.54746 Y-35.56000
G1 Z-2.50000 F300.00000
G0 Z1.00000
G0 X80.64246 Y-60.32500
G1 Z-2.50000 F300.00000
G0 Z1.00000
G0 X76.19746 Y-45.33900
G1 Z-2.50000 F300.00000
G0 Z1.00000
G0 X54.35346 Y-37.46500
G1 Z-2.50000 F300.00000
G0 Z1.00000
G0 X51.43246 Y-20.95500
G1 Z-2.50000 F300.00000
G0 Z1.00000
G0 X47.62246 Y-46.99000
G1 Z-2.50000 F300.00000
G0 Z1.00000
G0 X46.98746 Y-69.85000
G1 Z-2.50000 F300.00000
G0 Z1.00000
G0 X46.98746 Y-72.39000
G1 Z-2.50000 F300.00000
G0 Z1.00000
G0 X46.98746 Y-74.93000
G1 Z-2.50000 F300.00000
G0 Z1.00000
G0 X46.98746 Y-77.47000
G1 Z-2.50000 F300.00000
G0 Z1.00000
G0 X46.98746 Y-80.01000
G1 Z-2.50000 F300.00000
G0 Z1.00000
G0 X46.98746 Y-82.55000
G1 Z-2.50000 F300.00000
G0 Z1.00000
G0 X46.98746 Y-85.09000
G1 Z-2.50000 F300.00000
G0 Z1.00000
G0 X46.98746 Y-87.63000
G1 Z-2.50000 F300.00000
G0 Z1.00000
G0 X39.36746 Y-43.18000
G1 Z-2.50000 F300.00000
G0 Z1.00000
G0 X39.36746 Y-69.85000
G1 Z-2.50000 F300.00000
G0 Z1.00000
G0 X39.36746 Y-72.39000
G1 Z-2.50000 F300.00000
G0 Z1.00000
G0 X39.36746 Y-74.93000
G1 Z-2.50000 F300.00000
G0 Z1.00000
G0 X39.36746 Y-77.47000
G1 Z-2.50000 F300.00000
G0 Z1.00000
G0 X39.36746 Y-80.01000
G1 Z-2.50000 F300.00000
G0 Z1.00000
G0 X39.36746 Y-82.55000
G1 Z-2.50000 F300.00000
G0 Z1.00000
G0 X39.36746 Y-85.09000
G1 Z-2.50000 F300.00000
G0 Z1.00000
G0 X39.36746 Y-87.63000
G1 Z-2.50000 F300.00000
G0 Z1.00000
G0 X37.46246 Y-15.87500
G1 Z-2.50000 F300.00000
G0 Z1.00000
G0 X37.46246 Y-18.41500
G1 Z-2.50000 F300.00000
G0 Z1.00000
G0 X37.46246 Y-20.95500
G1 Z-2.50000 F300.00000
G0 Z1.00000
G0 X37.46246 Y-23.49500
G1 Z-2.50000 F300.00000
G0 Z1.00000
G0 X37.46246 Y-26.03500
G1 Z-2.50000 F300.00000
G0 Z1.00000
G0 X37.46246 Y-28.57500
G1 Z-2.50000 F300.00000
G0 Z1.00000
G0 X37.46246 Y-31.11500
G1 Z-2.50000 F300.00000
G0 Z1.00000
G0 X37.46246 Y-33.65500
G1 Z-2.50000 F300.00000
G0 Z1.00000
G0 X37.46246 Y-46.35500
G1 Z-2.50000 F300.00000
G0 Z1.00000
G0 X36.82746 Y-43.18000
G1 Z-2.50000 F300.00000
G0 Z1.00000
G0 X34.28746 Y-43.18000
G1 Z-2.50000 F300.00000
G0 Z1.00000
G0 X32.00146 Y-84.70900
G1 Z-2.50000 F300.00000
G0 Z1.00000
G0 X31.74746 Y-43.18000
G1 Z-2.50000 F300.00000
G0 Z1.00000
G0 X29.84246 Y-15.87500
G1 Z-2.50000 F300.00000
G0 Z1.00000
G0 X29.84246 Y-18.41500
G1 Z-2.50000 F300.00000
G0 Z1.00000
G0 X29.84246 Y-20.95500
G1 Z-2.50000 F300.00000
G0 Z1.00000
G0 X29.84246 Y-23.49500
G1 Z-2.50000 F300.00000
G0 Z1.00000
G0 X29.84246 Y-26.03500
G1 Z-2.50000 F300.00000
G0 Z1.00000
G0 X29.84246 Y-28.57500
G1 Z-2.50000 F300.00000
G0 Z1.00000
G0 X29.84246 Y-31.11500
G1 Z-2.50000 F300.00000
G0 Z1.00000
G0 X29.84246 Y-33.65500
G1 Z-2.50000 F300.00000
G0 Z1.00000
G0 X27.93746 Y-43.18000
G1 Z-2.50000 F300.00000
G0 Z1.00000
G0 X23.49246 Y-22.86000
G1 Z-2.50000 F300.00000
G0 Z1.00000
G0 X20.31746 Y-23.49500
G1 Z-2.50000 F300.00000
G0 Z1.00000
G0 X20.31746 Y-31.11500
G1 Z-2.50000 F300.00000
G0 Z1.00000
G0 X17.77746 Y-23.49500
G1 Z-2.50000 F300.00000
G0 Z1.00000
G0 X17.77746 Y-31.11500
G1 Z-2.50000 F300.00000
G0 Z1.00000
G0 X15.23746 Y-23.49500
G1 Z-2.50000 F300.00000
G0 Z1.00000
G0 X15.23746 Y-31.11500
G1 Z-2.50000 F300.00000
G0 Z1.00000
G0 X13.45946 Y-88.26500
G1 Z-2.50000 F300.00000
G0 Z1.00000
G0 X12.69746 Y-23.49500
G1 Z-2.50000 F300.00000
G0 Z1.00000
G0 X12.69746 Y-31.11500
G1 Z-2.50000 F300.00000
G0 Z1.00000
G0 X10.15746 Y-23.49500
G1 Z-2.50000 F300.00000
G0 Z1.00000
G0 X10.15746 Y-31.11500
G1 Z-2.50000 F300.00000
G0 Z1.00000
G0 X9.52246 Y-52.07000
G1 Z-2.50000 F300.00000
G0 Z1.00000
G0 X9.52246 Y-54.86400
G1 Z-2.50000 F300.00000
G0 Z1.00000
G0 X9.52246 Y-57.53100
G1 Z-2.50000 F300.00000
G0 Z1.00000
G0 X9.52246 Y-60.32500
G1 Z-2.50000 F300.00000
G0 Z1.00000
G0 X9.52246 Y-63.11900
G1 Z-2.50000 F300.00000
G0 Z1.00000
G0 X9.52246 Y-65.91300
G1 Z-2.50000 F300.00000
G0 Z1.00000
G0 X9.52246 Y-68.58000
G1 Z-2.50000 F300.00000
G0 Z1.00000
G0 X9.52246 Y-71.37400
G1 Z-2.50000 F300.00000
G0 Z1.00000
G0 X9.52246 Y-74.16800
G1 Z-2.50000 F300.00000
G0 Z1.00000
G0 X9.52246 Y-76.96200
G1 Z-2.50000 F300.00000
G0 Z1.00000
G0 X9.52246 Y-79.62900
G1 Z-2.50000 F300.00000
G0 Z1.00000
G0 X9.52246 Y-82.42300
G1 Z-2.50000 F300.00000
G0 Z1.00000
G0 X9.52246 Y-85.21700
G1 Z-2.50000 F300.00000
G0 Z1.00000
G0 X7.61746 Y-23.49500
G1 Z-2.50000 F300.00000
G0 Z1.00000
G0 X7.61746 Y-31.11500
G1 Z-2.50000 F300.00000
G0 Z1.00000
G0 X6.98246 Y-53.64500
G1 Z-2.50000 F300.00000
G0 Z1.00000
G0 X6.98246 Y-56.18500
G1 Z-2.50000 F300.00000
G0 Z1.00000
G0 X6.98246 Y-58.97900
G1 Z-2.50000 F300.00000
G0 Z1.00000
G0 X6.98246 Y-61.72200
G1 Z-2.50000 F300.00000
G0 Z1.00000
G0 X6.98246 Y-64.46500
G1 Z-2.50000 F300.00000
G0 Z1.00000
G0 X6.98246 Y-67.25900
G1 Z-2.50000 F300.00000
G0 Z1.00000
G0 X6.98246 Y-70.00200
G1 Z-2.50000 F300.00000
G0 Z1.00000
G0 X6.98246 Y-72.74600
G1 Z-2.50000 F300.00000
G0 Z1.00000
G0 X6.98246 Y-75.59000
G1 Z-2.50000 F300.00000
G0 Z1.00000
G0 X6.98246 Y-78.28300
G1 Z-2.50000 F300.00000
G0 Z1.00000
G0 X6.98246 Y-81.02600
G1 Z-2.50000 F300.00000
G0 Z1.00000
G0 X6.98246 Y-83.82000
G1 Z-2.50000 F300.00000
G0 Z1.00000
G0 X5.07746 Y-23.49500
G1 Z-2.50000 F300.00000
G0 Z1.00000
G0 X5.07746 Y-31.11500
G1 Z-2.50000 F300.00000
G0 Z1.00000


G00 Z30.00000 ( Retract )
T2
M5      ( Spindle stop.                )
M6      ( Tool change.                 )
(MSG, CHANGE TOOL BIT: to drill size 0.81300 mm)
M0      ( Temporary machine stop.      )
M3      ( Spindle on clockwise.        )

G0 X121.66346 Y-49.65700
G1 Z-2.50000 F300.00000
G0 Z1.00000
G0 X119.12346 Y-49.65700
G1 Z-2.50000 F300.00000
G0 Z1.00000
G0 X115.05946 Y-59.05500
G1 Z-2.50000 F300.00000
G0 Z1.00000
G0 X115.05946 Y-61.59500
G1 Z-2.50000 F300.00000
G0 Z1.00000
G0 X111.75746 Y-49.40300
G1 Z-2.50000 F300.00000
G0 Z1.00000
G0 X111.75746 Y-54.48300
G1 Z-2.50000 F300.00000
G0 Z1.00000
G0 X107.18546 Y-8.00100
G1 Z-2.50000 F300.00000
G0 Z1.00000
G0 X106.67746 Y-18.41500
G1 Z-2.50000 F300.00000
G0 Z1.00000
G0 X106.67746 Y-94.61500
G1 Z-2.50000 F300.00000
G0 Z1.00000
G0 X106.04246 Y-85.09000
G1 Z-2.50000 F300.00000
G0 Z1.00000
G0 X105.40746 Y-57.78500
G1 Z-2.50000 F300.00000
G0 Z1.00000
G0 X104.13746 Y-49.40300
G1 Z-2.50000 F300.00000
G0 Z1.00000
G0 X104.13746 Y-54.48300
G1 Z-2.50000 F300.00000
G0 Z1.00000
G0 X104.13746 Y-94.61500
G1 Z-2.50000 F300.00000
G0 Z1.00000
G0 X102.86746 Y-57.78500
G1 Z-2.50000 F300.00000
G0 Z1.00000
G0 X100.96246 Y-46.86300
G1 Z-2.50000 F300.00000
G0 Z1.00000
G0 X100.96246 Y-49.40300
G1 Z-2.50000 F300.00000
G0 Z1.00000
G0 X100.96246 Y-51.94300
G1 Z-2.50000 F300.00000
G0 Z1.00000
G0 X100.96246 Y-54.48300
G1 Z-2.50000 F300.00000
G0 Z1.00000
G0 X100.96246 Y-75.56500
G1 Z-2.50000 F300.00000
G0 Z1.00000
G0 X99.56546 Y-8.00100
G1 Z-2.50000 F300.00000
G0 Z1.00000
G0 X99.05746 Y-18.41500
G1 Z-2.50000 F300.00000
G0 Z1.00000
G0 X98.42246 Y-75.56500
G1 Z-2.50000 F300.00000
G0 Z1.00000
G0 X98.42246 Y-92.71000
G1 Z-2.50000 F300.00000
G0 Z1.00000
G0 X96.51746 Y-5.46100
G1 Z-2.50000 F300.00000
G0 Z1.00000
G0 X96.51746 Y-8.00100
G1 Z-2.50000 F300.00000
G0 Z1.00000
G0 X96.51746 Y-10.54100
G1 Z-2.50000 F300.00000
G0 Z1.00000
G0 X95.88246 Y-85.09000
G1 Z-2.50000 F300.00000
G0 Z1.00000
G0 X95.88246 Y-92.71000
G1 Z-2.50000 F300.00000
G0 Z1.00000
G0 X95.24746 Y-18.66900
G1 Z-2.50000 F300.00000
G0 Z1.00000
G0 X95.24746 Y-21.20900
G1 Z-2.50000 F300.00000
G0 Z1.00000
G0 X95.24746 Y-23.74900
G1 Z-2.50000 F300.00000
G0 Z1.00000
G0 X94.61246 Y-66.54800
G1 Z-2.50000 F300.00000
G0 Z1.00000
G0 X94.61246 Y-69.08800
G1 Z-2.50000 F300.00000
G0 Z1.00000
G0 X93.34246 Y-46.86300
G1 Z-2.50000 F300.00000
G0 Z1.00000
G0 X93.34246 Y-49.40300
G1 Z-2.50000 F300.00000
G0 Z1.00000
G0 X93.34246 Y-51.94300
G1 Z-2.50000 F300.00000
G0 Z1.00000
G0 X93.34246 Y-54.48300
G1 Z-2.50000 F300.00000
G0 Z1.00000
G0 X89.53246 Y-66.54800
G1 Z-2.50000 F300.00000
G0 Z1.00000
G0 X89.53246 Y-69.08800
G1 Z-2.50000 F300.00000
G0 Z1.00000
G0 X88.89746 Y-5.46100
G1 Z-2.50000 F300.00000
G0 Z1.00000
G0 X88.89746 Y-8.00100
G1 Z-2.50000 F300.00000
G0 Z1.00000
G0 X88.89746 Y-10.54100
G1 Z-2.50000 F300.00000
G0 Z1.00000
G0 X88.38946 Y-2.15900
G1 Z-2.50000 F300.00000
G0 Z1.00000
G0 X87.62746 Y-18.66900
G1 Z-2.50000 F300.00000
G0 Z1.00000
G0 X87.62746 Y-21.20900
G1 Z-2.50000 F300.00000
G0 Z1.00000
G0 X87.62746 Y-23.74900
G1 Z-2.50000 F300.00000
G0 Z1.00000
G0 X86.35746 Y-41.52900
G1 Z-2.50000 F300.00000
G0 Z1.00000
G0 X86.35746 Y-44.06900
G1 Z-2.50000 F300.00000
G0 Z1.00000
G0 X86.35746 Y-46.60900
G1 Z-2.50000 F300.00000
G0 Z1.00000
G0 X86.35746 Y-49.14900
G1 Z-2.50000 F300.00000
G0 Z1.00000
G0 X86.10346 Y-37.97300
G1 Z-2.50000 F300.00000
G0 Z1.00000
G0 X83.81746 Y-13.58900
G1 Z-2.50000 F300.00000
G0 Z1.00000
G0 X83.81746 Y-21.20900
G1 Z-2.50000 F300.00000
G0 Z1.00000
G0 X83.81746 Y-23.74900
G1 Z-2.50000 F300.00000
G0 Z1.00000
G0 X83.81746 Y-31.36900
G1 Z-2.50000 F300.00000
G0 Z1.00000
G0 X83.56346 Y-52.95900
G1 Z-2.50000 F300.00000
G0 Z1.00000
G0 X83.30946 Y-8.50900
G1 Z-2.50000 F300.00000
G0 Z1.00000
G0 X81.02346 Y-52.95900
G1 Z-2.50000 F300.00000
G0 Z1.00000
G0 X80.76946 Y-2.15900
G1 Z-2.50000 F300.00000
G0 Z1.00000
G0 X80.76946 Y-5.96900
G1 Z-2.50000 F300.00000
G0 Z1.00000
G0 X80.76946 Y-8.50900
G1 Z-2.50000 F300.00000
G0 Z1.00000
G0 X80.76946 Y-13.33500
G1 Z-2.50000 F300.00000
G0 Z1.00000
G0 X80.76946 Y-20.95500
G1 Z-2.50000 F300.00000
G0 Z1.00000
G0 X78.73746 Y-41.52900
G1 Z-2.50000 F300.00000
G0 Z1.00000
G0 X78.73746 Y-44.06900
G1 Z-2.50000 F300.00000
G0 Z1.00000
G0 X78.73746 Y-46.60900
G1 Z-2.50000 F300.00000
G0 Z1.00000
G0 X78.73746 Y-49.14900
G1 Z-2.50000 F300.00000
G0 Z1.00000
G0 X78.48346 Y-37.97300
G1 Z-2.50000 F300.00000
G0 Z1.00000
G0 X78.22946 Y-15.87500
G1 Z-2.50000 F300.00000
G0 Z1.00000
G0 X78.22946 Y-23.49500
G1 Z-2.50000 F300.00000
G0 Z1.00000
G0 X78.22946 Y-26.03500
G1 Z-2.50000 F300.00000
G0 Z1.00000
G0 X78.22946 Y-33.65500
G1 Z-2.50000 F300.00000
G0 Z1.00000
G0 X75.56246 Y-13.33500
G1 Z-2.50000 F300.00000
G0 Z1.00000
G0 X75.56246 Y-20.95500
G1 Z-2.50000 F300.00000
G0 Z1.00000
G0 X75.56246 Y-23.49500
G1 Z-2.50000 F300.00000
G0 Z1.00000
G0 X75.56246 Y-31.11500
G1 Z-2.50000 F300.00000
G0 Z1.00000
G0 X61.59246 Y-65.40500
G1 Z-2.50000 F300.00000
G0 Z1.00000
G0 X61.59246 Y-68.58000
G1 Z-2.50000 F300.00000
G0 Z1.00000
G0 X61.59246 Y-71.75500
G1 Z-2.50000 F300.00000
G0 Z1.00000
G0 X61.59246 Y-74.93000
G1 Z-2.50000 F300.00000
G0 Z1.00000
G0 X61.59246 Y-78.10500
G1 Z-2.50000 F300.00000
G0 Z1.00000
G0 X61.59246 Y-81.28000
G1 Z-2.50000 F300.00000
G0 Z1.00000
G0 X61.59246 Y-85.09000
G1 Z-2.50000 F300.00000
G0 Z1.00000
G0 X61.59246 Y-88.26500
G1 Z-2.50000 F300.00000
G0 Z1.00000
G0 X54.60746 Y-53.97500
G1 Z-2.50000 F300.00000
G0 Z1.00000
G0 X54.60746 Y-61.59500
G1 Z-2.50000 F300.00000
G0 Z1.00000
G0 X53.97246 Y-65.40500
G1 Z-2.50000 F300.00000
G0 Z1.00000
G0 X53.97246 Y-68.58000
G1 Z-2.50000 F300.00000
G0 Z1.00000
G0 X53.97246 Y-71.75500
G1 Z-2.50000 F300.00000
G0 Z1.00000
G0 X53.97246 Y-74.93000
G1 Z-2.50000 F300.00000
G0 Z1.00000
G0 X53.97246 Y-78.10500
G1 Z-2.50000 F300.00000
G0 Z1.00000
G0 X53.97246 Y-81.28000
G1 Z-2.50000 F300.00000
G0 Z1.00000
G0 X53.97246 Y-85.09000
G1 Z-2.50000 F300.00000
G0 Z1.00000
G0 X53.97246 Y-88.26500
G1 Z-2.50000 F300.00000
G0 Z1.00000
G0 X53.33746 Y-13.33500
G1 Z-2.50000 F300.00000
G0 Z1.00000
G0 X53.33746 Y-20.95500
G1 Z-2.50000 F300.00000
G0 Z1.00000
G0 X51.43246 Y-53.97500
G1 Z-2.50000 F300.00000
G0 Z1.00000
G0 X51.43246 Y-61.59500
G1 Z-2.50000 F300.00000
G0 Z1.00000
G0 X48.25746 Y-15.87500
G1 Z-2.50000 F300.00000
G0 Z1.00000
G0 X48.19346 Y-23.49500
G1 Z-2.50000 F300.00000
G0 Z1.00000
G0 X48.06746 Y-26.09800
G1 Z-2.50000 F300.00000
G0 Z1.00000
G0 X48.06746 Y-33.71800
G1 Z-2.50000 F300.00000
G0 Z1.00000
G0 X46.98746 Y-56.51500
G1 Z-2.50000 F300.00000
G0 Z1.00000
G0 X46.98746 Y-59.05500
G1 Z-2.50000 F300.00000
G0 Z1.00000
G0 X46.98746 Y-61.59500
G1 Z-2.50000 F300.00000
G0 Z1.00000
G0 X44.44746 Y-38.73500
G1 Z-2.50000 F300.00000
G0 Z1.00000
G0 X41.90746 Y-38.73500
G1 Z-2.50000 F300.00000
G0 Z1.00000
G0 X40.63746 Y-15.87500
G1 Z-2.50000 F300.00000
G0 Z1.00000
G0 X40.57446 Y-23.49500
G1 Z-2.50000 F300.00000
G0 Z1.00000
G0 X40.44646 Y-26.09800
G1 Z-2.50000 F300.00000
G0 Z1.00000
G0 X40.44646 Y-33.71800
G1 Z-2.50000 F300.00000
G0 Z1.00000
G0 X39.36746 Y-56.51500
G1 Z-2.50000 F300.00000
G0 Z1.00000
G0 X39.36746 Y-59.05500
G1 Z-2.50000 F300.00000
G0 Z1.00000
G0 X39.36746 Y-61.59500
G1 Z-2.50000 F300.00000
G0 Z1.00000
G0 X35.55746 Y-53.97500
G1 Z-2.50000 F300.00000
G0 Z1.00000
G0 X35.55746 Y-61.59500
G1 Z-2.50000 F300.00000
G0 Z1.00000
G0 X35.55746 Y-69.85000
G1 Z-2.50000 F300.00000
G0 Z1.00000
G0 X35.55746 Y-77.47000
G1 Z-2.50000 F300.00000
G0 Z1.00000
G0 X35.55746 Y-80.01000
G1 Z-2.50000 F300.00000
G0 Z1.00000
G0 X35.55746 Y-87.63000
G1 Z-2.50000 F300.00000
G0 Z1.00000
G0 X34.28746 Y-48.26000
G1 Z-2.50000 F300.00000
G0 Z1.00000
G0 X31.74746 Y-48.26000
G1 Z-2.50000 F300.00000
G0 Z1.00000
G0 X27.93746 Y-69.85000
G1 Z-2.50000 F300.00000
G0 Z1.00000
G0 X27.93746 Y-77.47000
G1 Z-2.50000 F300.00000
G0 Z1.00000
G0 X27.93746 Y-80.01000
G1 Z-2.50000 F300.00000
G0 Z1.00000
G0 X27.93746 Y-87.63000
G1 Z-2.50000 F300.00000
G0 Z1.00000
G0 X25.39746 Y-35.56000
G1 Z-2.50000 F300.00000
G0 Z1.00000
G0 X20.95246 Y-39.37000
G1 Z-2.50000 F300.00000
G0 Z1.00000
G0 X19.04746 Y-17.65300
G1 Z-2.50000 F300.00000
G0 Z1.00000
G0 X19.04746 Y-20.19300
G1 Z-2.50000 F300.00000
G0 Z1.00000
G0 X17.77746 Y-35.56000
G1 Z-2.50000 F300.00000
G0 Z1.00000
G0 X15.23746 Y-12.70000
G1 Z-2.50000 F300.00000
G0 Z1.00000
G0 X15.23746 Y-20.32000
G1 Z-2.50000 F300.00000
G0 Z1.00000
G0 X13.33246 Y-39.37000
G1 Z-2.50000 F300.00000
G0 Z1.00000
G0 X10.15746 Y-12.70000
G1 Z-2.50000 F300.00000
G0 Z1.00000
G0 X10.15746 Y-20.32000
G1 Z-2.50000 F300.00000
G0 Z1.00000


G00 Z30.00000 ( Retract )
T3
M5      ( Spindle stop.                )
M6      ( Tool change.                 )
(MSG, CHANGE TOOL BIT: to drill size 1.00000 mm)
M0      ( Temporary machine stop.      )
M3      ( Spindle on clockwise.        )

G0 X100.96246 Y-80.01000
G1 Z-2.50000 F300.00000
G0 Z1.00000
G0 X98.42246 Y-80.01000
G1 Z-2.50000 F300.00000
G0 Z1.00000
G0 X95.88246 Y-80.01000
G1 Z-2.50000 F300.00000
G0 Z1.00000
G0 X72.38746 Y-13.33500
G1 Z-2.50000 F300.00000
G0 Z1.00000
G0 X72.38746 Y-15.87500
G1 Z-2.50000 F300.00000
G0 Z1.00000
G0 X72.38746 Y-18.41500
G1 Z-2.50000 F300.00000
G0 Z1.00000
G0 X72.38746 Y-20.95500
G1 Z-2.50000 F300.00000
G0 Z1.00000
G0 X72.38746 Y-23.49500
G1 Z-2.50000 F300.00000
G0 Z1.00000
G0 X72.38746 Y-26.03500
G1 Z-2.50000 F300.00000
G0 Z1.00000
G0 X72.38746 Y-28.57500
G1 Z-2.50000 F300.00000
G0 Z1.00000
G0 X72.38746 Y-31.11500
G1 Z-2.50000 F300.00000
G0 Z1.00000
G0 X72.38746 Y-33.65500
G1 Z-2.50000 F300.00000
G0 Z1.00000
G0 X72.38746 Y-36.19500
G1 Z-2.50000 F300.00000
G0 Z1.00000
G0 X72.38746 Y-38.73500
G1 Z-2.50000 F300.00000
G0 Z1.00000
G0 X72.38746 Y-41.27500
G1 Z-2.50000 F300.00000
G0 Z1.00000
G0 X57.14746 Y-13.33500
G1 Z-2.50000 F300.00000
G0 Z1.00000
G0 X57.14746 Y-15.87500
G1 Z-2.50000 F300.00000
G0 Z1.00000
G0 X57.14746 Y-18.41500
G1 Z-2.50000 F300.00000
G0 Z1.00000
G0 X57.14746 Y-20.95500
G1 Z-2.50000 F300.00000
G0 Z1.00000
G0 X57.14746 Y-23.49500
G1 Z-2.50000 F300.00000
G0 Z1.00000
G0 X57.14746 Y-26.03500
G1 Z-2.50000 F300.00000
G0 Z1.00000
G0 X57.14746 Y-28.57500
G1 Z-2.50000 F300.00000
G0 Z1.00000
G0 X57.14746 Y-31.11500
G1 Z-2.50000 F300.00000
G0 Z1.00000
G0 X57.14746 Y-33.65500
G1 Z-2.50000 F300.00000
G0 Z1.00000
G0 X57.14746 Y-36.19500
G1 Z-2.50000 F300.00000
G0 Z1.00000
G0 X57.14746 Y-38.73500
G1 Z-2.50000 F300.00000
G0 Z1.00000
G0 X57.14746 Y-41.27500
G1 Z-2.50000 F300.00000
G0 Z1.00000


G00 Z30.00000 ( Retract )
T4
M5      ( Spindle stop.                )
M6      ( Tool change.                 )
(MSG, CHANGE TOOL BIT: to drill size 1.00100 mm)
M0      ( Temporary machine stop.      )
M3      ( Spindle on clockwise.        )

G0 X118.54146 Y-84.09100
G1 Z-2.50000 F300.00000
G0 Z1.00000
G0 X116.54146 Y-89.78900
G1 Z-2.50000 F300.00000
G0 Z1.00000
G0 X112.54246 Y-84.09100
G1 Z-2.50000 F300.00000
G0 Z1.00000


G00 Z30.00000 ( Retract )
T5
M5      ( Spindle stop.                )
M6      ( Tool change.                 )
(MSG, CHANGE TOOL BIT: to drill size 1.01600 mm)
M0      ( Temporary machine stop.      )
M3      ( Spindle on clockwise.        )

G0 X119.88546 Y-13.46200
G1 Z-2.50000 F300.00000
G0 Z1.00000
G0 X119.88546 Y-16.25600
G1 Z-2.50000 F300.00000
G0 Z1.00000
G0 X119.88546 Y-18.92300
G1 Z-2.50000 F300.00000
G0 Z1.00000
G0 X119.88546 Y-21.71700
G1 Z-2.50000 F300.00000
G0 Z1.00000
G0 X117.34546 Y-12.06500
G1 Z-2.50000 F300.00000
G0 Z1.00000
G0 X117.34546 Y-14.85900
G1 Z-2.50000 F300.00000
G0 Z1.00000
G0 X117.34546 Y-17.65300
G1 Z-2.50000 F300.00000
G0 Z1.00000
G0 X117.34546 Y-20.32000
G1 Z-2.50000 F300.00000
G0 Z1.00000
G0 X117.34546 Y-23.11400
G1 Z-2.50000 F300.00000
G0 Z1.00000


G00 Z30.00000 ( Retract )
T6
M5      ( Spindle stop.                )
M6      ( Tool change.                 )
(MSG, CHANGE TOOL BIT: to drill size 1.14300 mm)
M0      ( Temporary machine stop.      )
M3      ( Spindle on clockwise.        )

G0 X108.58246 Y-88.90000
G1 Z-2.50000 F300.00000
G0 Z1.00000
G0 X95.88246 Y-88.90000
G1 Z-2.50000 F300.00000
G0 Z1.00000


G00 Z30.00000 ( Retract )
T7
M5      ( Spindle stop.                )
M6      ( Tool change.                 )
(MSG, CHANGE TOOL BIT: to drill size 3.00000 mm)
M0      ( Temporary machine stop.      )
M3      ( Spindle on clockwise.        )

G0 X115.56746 Y-74.29500
G1 Z-2.50000 F300.00000
G0 Z1.00000
G0 X73.65746 Y-4.44500
G1 Z-2.50000 F300.00000
G0 Z1.00000
G0 X17.77746 Y-5.71500
G1 Z-2.50000 F300.00000
G0 Z1.00000
G0 X17.77746 Y-94.61500
G1 Z-2.50000 F300.00000
G0 Z1.00000
G0 X6.98246 Y-45.08500
G1 Z-2.50000 F300.00000
G0 Z1.00000
G0 X6.98246 Y-92.07500
G1 Z-2.50000 F300.00000
G0 Z1.00000


G00 Z30.00000 ( Retract )
T8
M5      ( Spindle stop.                )
M6      ( Tool change.                 )
(MSG, CHANGE TOOL BIT: to drill size 3.04800 mm)
M0      ( Temporary machine stop.      )
M3      ( Spindle on clockwise.        )

G0 X119.88546 Y-4.82600
G1 Z-2.50000 F300.00000
G0 Z1.00000
G0 X119.88546 Y-30.22600
G1 Z-2.50000 F300.00000
G0 Z1.00000


G00 Z30.00000 ( All done -- retract )

M9 ( Coolant off. )
M2 ( Program end. )

