( pcb2gcode 1.1.4 )

( This file uses 6 drill bit sizes. )

G94     ( Inches per minute feed rate. )
G21     ( Units == MM.             )
G90     ( Absolute coordinates.        )
S20000  ( RPM spindle speed.           )

G00 Z25.00000 ( Retract )
T1
M5      ( Spindle stop.                )
M6      ( Tool change.                 )
(MSG, CHANGE TOOL BIT: to drill size 0.80000 mm)
M0      ( Temporary machine stop.      )
M3      ( Spindle on clockwise.        )

G0 X117.72664 Y-17.06900
G1 Z-3.00000 F300.00000
G0 Z1.00000
G0 X117.72664 Y-19.86300
G1 Z-3.00000 F300.00000
G0 Z1.00000
G0 X117.72664 Y-22.53000
G1 Z-3.00000 F300.00000
G0 Z1.00000
G0 X117.72664 Y-25.32400
G1 Z-3.00000 F300.00000
G0 Z1.00000
G0 X115.18664 Y-15.67200
G1 Z-3.00000 F300.00000
G0 Z1.00000
G0 X115.18664 Y-18.46600
G1 Z-3.00000 F300.00000
G0 Z1.00000
G0 X115.18664 Y-21.26000
G1 Z-3.00000 F300.00000
G0 Z1.00000
G0 X115.18664 Y-23.92700
G1 Z-3.00000 F300.00000
G0 Z1.00000
G0 X115.18664 Y-26.72100
G1 Z-3.00000 F300.00000
G0 Z1.00000
G0 X107.82064 Y-31.92800
G1 Z-3.00000 F300.00000
G0 Z1.00000
G0 X107.56664 Y-16.18000
G1 Z-3.00000 F300.00000
G0 Z1.00000
G0 X107.56664 Y-18.72000
G1 Z-3.00000 F300.00000
G0 Z1.00000
G0 X107.56664 Y-21.26000
G1 Z-3.00000 F300.00000
G0 Z1.00000
G0 X107.56664 Y-23.80000
G1 Z-3.00000 F300.00000
G0 Z1.00000
G0 X99.94664 Y-16.18000
G1 Z-3.00000 F300.00000
G0 Z1.00000
G0 X99.94664 Y-18.72000
G1 Z-3.00000 F300.00000
G0 Z1.00000
G0 X99.94664 Y-21.26000
G1 Z-3.00000 F300.00000
G0 Z1.00000
G0 X99.94664 Y-23.80000
G1 Z-3.00000 F300.00000
G0 Z1.00000
G0 X89.02464 Y-18.21200
G1 Z-3.00000 F300.00000
G0 Z1.00000
G0 X88.51664 Y-33.96000
G1 Z-3.00000 F300.00000
G0 Z1.00000
G0 X74.54664 Y-74.60000
G1 Z-3.00000 F300.00000
G0 Z1.00000
G0 X74.54664 Y-77.14000
G1 Z-3.00000 F300.00000
G0 Z1.00000
G0 X74.54664 Y-79.68000
G1 Z-3.00000 F300.00000
G0 Z1.00000
G0 X74.54664 Y-82.22000
G1 Z-3.00000 F300.00000
G0 Z1.00000
G0 X74.54664 Y-84.76000
G1 Z-3.00000 F300.00000
G0 Z1.00000
G0 X74.54664 Y-87.30000
G1 Z-3.00000 F300.00000
G0 Z1.00000
G0 X74.54664 Y-89.84000
G1 Z-3.00000 F300.00000
G0 Z1.00000
G0 X74.54664 Y-92.38000
G1 Z-3.00000 F300.00000
G0 Z1.00000
G0 X69.91164 Y-2.52700
G1 Z-3.00000 F300.00000
G0 Z1.00000
G0 X66.92664 Y-74.60000
G1 Z-3.00000 F300.00000
G0 Z1.00000
G0 X66.92664 Y-77.14000
G1 Z-3.00000 F300.00000
G0 Z1.00000
G0 X66.92664 Y-79.68000
G1 Z-3.00000 F300.00000
G0 Z1.00000
G0 X66.92664 Y-82.22000
G1 Z-3.00000 F300.00000
G0 Z1.00000
G0 X66.92664 Y-84.76000
G1 Z-3.00000 F300.00000
G0 Z1.00000
G0 X66.92664 Y-87.30000
G1 Z-3.00000 F300.00000
G0 Z1.00000
G0 X66.92664 Y-89.84000
G1 Z-3.00000 F300.00000
G0 Z1.00000
G0 X66.92664 Y-92.38000
G1 Z-3.00000 F300.00000
G0 Z1.00000
G0 X63.11664 Y-89.58600
G1 Z-3.00000 F300.00000
G0 Z1.00000
G0 X52.95664 Y-47.16800
G1 Z-3.00000 F300.00000
G0 Z1.00000
G0 X39.49464 Y-52.88300
G1 Z-3.00000 F300.00000
G0 Z1.00000
G0 X38.35164 Y-16.18000
G1 Z-3.00000 F300.00000
G0 Z1.00000
G0 X38.35164 Y-18.72000
G1 Z-3.00000 F300.00000
G0 Z1.00000
G0 X38.35164 Y-21.26000
G1 Z-3.00000 F300.00000
G0 Z1.00000
G0 X38.35164 Y-23.80000
G1 Z-3.00000 F300.00000
G0 Z1.00000
G0 X38.35164 Y-26.34000
G1 Z-3.00000 F300.00000
G0 Z1.00000
G0 X38.35164 Y-28.88000
G1 Z-3.00000 F300.00000
G0 Z1.00000
G0 X38.35164 Y-31.42000
G1 Z-3.00000 F300.00000
G0 Z1.00000
G0 X38.35164 Y-33.96000
G1 Z-3.00000 F300.00000
G0 Z1.00000
G0 X36.95464 Y-52.88300
G1 Z-3.00000 F300.00000
G0 Z1.00000
G0 X34.41464 Y-52.88300
G1 Z-3.00000 F300.00000
G0 Z1.00000
G0 X31.87464 Y-52.88300
G1 Z-3.00000 F300.00000
G0 Z1.00000
G0 X30.73164 Y-16.18000
G1 Z-3.00000 F300.00000
G0 Z1.00000
G0 X30.73164 Y-18.72000
G1 Z-3.00000 F300.00000
G0 Z1.00000
G0 X30.73164 Y-21.26000
G1 Z-3.00000 F300.00000
G0 Z1.00000
G0 X30.73164 Y-23.80000
G1 Z-3.00000 F300.00000
G0 Z1.00000
G0 X30.73164 Y-26.34000
G1 Z-3.00000 F300.00000
G0 Z1.00000
G0 X30.73164 Y-28.88000
G1 Z-3.00000 F300.00000
G0 Z1.00000
G0 X30.73164 Y-31.42000
G1 Z-3.00000 F300.00000
G0 Z1.00000
G0 X30.73164 Y-33.96000
G1 Z-3.00000 F300.00000
G0 Z1.00000
G0 X28.31864 Y-60.63000
G1 Z-3.00000 F300.00000
G0 Z1.00000
G0 X23.74664 Y-22.02200
G1 Z-3.00000 F300.00000
G0 Z1.00000
G0 X22.47664 Y-89.33200
G1 Z-3.00000 F300.00000
G0 Z1.00000
G0 X21.20664 Y-23.80000
G1 Z-3.00000 F300.00000
G0 Z1.00000
G0 X21.20664 Y-31.42000
G1 Z-3.00000 F300.00000
G0 Z1.00000
G0 X18.66664 Y-23.80000
G1 Z-3.00000 F300.00000
G0 Z1.00000
G0 X18.66664 Y-31.42000
G1 Z-3.00000 F300.00000
G0 Z1.00000
G0 X16.12664 Y-23.80000
G1 Z-3.00000 F300.00000
G0 Z1.00000
G0 X16.12664 Y-31.42000
G1 Z-3.00000 F300.00000
G0 Z1.00000
G0 X15.61864 Y-52.24800
G1 Z-3.00000 F300.00000
G0 Z1.00000
G0 X15.61864 Y-55.04200
G1 Z-3.00000 F300.00000
G0 Z1.00000
G0 X15.61864 Y-57.70900
G1 Z-3.00000 F300.00000
G0 Z1.00000
G0 X15.61864 Y-60.50300
G1 Z-3.00000 F300.00000
G0 Z1.00000
G0 X15.61864 Y-63.29700
G1 Z-3.00000 F300.00000
G0 Z1.00000
G0 X15.61864 Y-66.09100
G1 Z-3.00000 F300.00000
G0 Z1.00000
G0 X15.61864 Y-68.75800
G1 Z-3.00000 F300.00000
G0 Z1.00000
G0 X15.61864 Y-71.55200
G1 Z-3.00000 F300.00000
G0 Z1.00000
G0 X15.61864 Y-74.34600
G1 Z-3.00000 F300.00000
G0 Z1.00000
G0 X15.61864 Y-77.14000
G1 Z-3.00000 F300.00000
G0 Z1.00000
G0 X15.61864 Y-79.80700
G1 Z-3.00000 F300.00000
G0 Z1.00000
G0 X15.61864 Y-82.60100
G1 Z-3.00000 F300.00000
G0 Z1.00000
G0 X15.61864 Y-85.39500
G1 Z-3.00000 F300.00000
G0 Z1.00000
G0 X13.58664 Y-23.80000
G1 Z-3.00000 F300.00000
G0 Z1.00000
G0 X13.58664 Y-31.42000
G1 Z-3.00000 F300.00000
G0 Z1.00000
G0 X13.07864 Y-53.82300
G1 Z-3.00000 F300.00000
G0 Z1.00000
G0 X13.07864 Y-56.36300
G1 Z-3.00000 F300.00000
G0 Z1.00000
G0 X13.07864 Y-59.15700
G1 Z-3.00000 F300.00000
G0 Z1.00000
G0 X13.07864 Y-61.90000
G1 Z-3.00000 F300.00000
G0 Z1.00000
G0 X13.07864 Y-64.64300
G1 Z-3.00000 F300.00000
G0 Z1.00000
G0 X13.07864 Y-67.43700
G1 Z-3.00000 F300.00000
G0 Z1.00000
G0 X13.07864 Y-70.18000
G1 Z-3.00000 F300.00000
G0 Z1.00000
G0 X13.07864 Y-72.92400
G1 Z-3.00000 F300.00000
G0 Z1.00000
G0 X13.07864 Y-75.76800
G1 Z-3.00000 F300.00000
G0 Z1.00000
G0 X13.07864 Y-78.46100
G1 Z-3.00000 F300.00000
G0 Z1.00000
G0 X13.07864 Y-81.20400
G1 Z-3.00000 F300.00000
G0 Z1.00000
G0 X13.07864 Y-83.99800
G1 Z-3.00000 F300.00000
G0 Z1.00000
G0 X11.04664 Y-23.80000
G1 Z-3.00000 F300.00000
G0 Z1.00000
G0 X11.04664 Y-31.42000
G1 Z-3.00000 F300.00000
G0 Z1.00000
G0 X8.50664 Y-23.80000
G1 Z-3.00000 F300.00000
G0 Z1.00000
G0 X8.50664 Y-31.42000
G1 Z-3.00000 F300.00000
G0 Z1.00000
G0 X5.96664 Y-23.80000
G1 Z-3.00000 F300.00000
G0 Z1.00000
G0 X5.96664 Y-31.42000
G1 Z-3.00000 F300.00000
G0 Z1.00000


G00 Z25.00000 ( Retract )
T2
M5      ( Spindle stop.                )
M6      ( Tool change.                 )
(MSG, CHANGE TOOL BIT: to drill size 0.81300 mm)
M0      ( Temporary machine stop.      )
M3      ( Spindle on clockwise.        )

G0 X113.28164 Y-57.45500
G1 Z-3.00000 F300.00000
G0 Z1.00000
G0 X112.64664 Y-47.93000
G1 Z-3.00000 F300.00000
G0 Z1.00000
G0 X111.37664 Y-7.29000
G1 Z-3.00000 F300.00000
G0 Z1.00000
G0 X111.37664 Y-11.10000
G1 Z-3.00000 F300.00000
G0 Z1.00000
G0 X111.37664 Y-18.72000
G1 Z-3.00000 F300.00000
G0 Z1.00000
G0 X110.74164 Y-57.45500
G1 Z-3.00000 F300.00000
G0 Z1.00000
G0 X108.83664 Y-27.61000
G1 Z-3.00000 F300.00000
G0 Z1.00000
G0 X107.56664 Y-38.40500
G1 Z-3.00000 F300.00000
G0 Z1.00000
G0 X105.02664 Y-11.10000
G1 Z-3.00000 F300.00000
G0 Z1.00000
G0 X105.02664 Y-38.40500
G1 Z-3.00000 F300.00000
G0 Z1.00000
G0 X105.02664 Y-55.55000
G1 Z-3.00000 F300.00000
G0 Z1.00000
G0 X103.75664 Y-7.29000
G1 Z-3.00000 F300.00000
G0 Z1.00000
G0 X102.48664 Y-11.10000
G1 Z-3.00000 F300.00000
G0 Z1.00000
G0 X102.48664 Y-47.93000
G1 Z-3.00000 F300.00000
G0 Z1.00000
G0 X102.48664 Y-55.55000
G1 Z-3.00000 F300.00000
G0 Z1.00000
G0 X101.21664 Y-27.61000
G1 Z-3.00000 F300.00000
G0 Z1.00000
G0 X98.67664 Y-27.61000
G1 Z-3.00000 F300.00000
G0 Z1.00000
G0 X92.32664 Y-9.83000
G1 Z-3.00000 F300.00000
G0 Z1.00000
G0 X91.05664 Y-27.61000
G1 Z-3.00000 F300.00000
G0 Z1.00000
G0 X89.15164 Y-70.15500
G1 Z-3.00000 F300.00000
G0 Z1.00000
G0 X89.15164 Y-73.33000
G1 Z-3.00000 F300.00000
G0 Z1.00000
G0 X89.15164 Y-76.50500
G1 Z-3.00000 F300.00000
G0 Z1.00000
G0 X89.15164 Y-79.68000
G1 Z-3.00000 F300.00000
G0 Z1.00000
G0 X89.15164 Y-82.85500
G1 Z-3.00000 F300.00000
G0 Z1.00000
G0 X89.15164 Y-86.03000
G1 Z-3.00000 F300.00000
G0 Z1.00000
G0 X89.15164 Y-89.84000
G1 Z-3.00000 F300.00000
G0 Z1.00000
G0 X89.15164 Y-93.01500
G1 Z-3.00000 F300.00000
G0 Z1.00000
G0 X84.70664 Y-9.83000
G1 Z-3.00000 F300.00000
G0 Z1.00000
G0 X83.81764 Y-18.14800
G1 Z-3.00000 F300.00000
G0 Z1.00000
G0 X83.81764 Y-25.76800
G1 Z-3.00000 F300.00000
G0 Z1.00000
G0 X82.16664 Y-58.72500
G1 Z-3.00000 F300.00000
G0 Z1.00000
G0 X82.16664 Y-66.34500
G1 Z-3.00000 F300.00000
G0 Z1.00000
G0 X81.97564 Y-11.48100
G1 Z-3.00000 F300.00000
G0 Z1.00000
G0 X81.97564 Y-14.02100
G1 Z-3.00000 F300.00000
G0 Z1.00000
G0 X81.53164 Y-70.15500
G1 Z-3.00000 F300.00000
G0 Z1.00000
G0 X81.53164 Y-73.33000
G1 Z-3.00000 F300.00000
G0 Z1.00000
G0 X81.53164 Y-76.50500
G1 Z-3.00000 F300.00000
G0 Z1.00000
G0 X81.53164 Y-79.68000
G1 Z-3.00000 F300.00000
G0 Z1.00000
G0 X81.53164 Y-82.85500
G1 Z-3.00000 F300.00000
G0 Z1.00000
G0 X81.53164 Y-86.03000
G1 Z-3.00000 F300.00000
G0 Z1.00000
G0 X81.53164 Y-89.84000
G1 Z-3.00000 F300.00000
G0 Z1.00000
G0 X81.53164 Y-93.01500
G1 Z-3.00000 F300.00000
G0 Z1.00000
G0 X79.43664 Y-11.48100
G1 Z-3.00000 F300.00000
G0 Z1.00000
G0 X78.99164 Y-58.72500
G1 Z-3.00000 F300.00000
G0 Z1.00000
G0 X78.99164 Y-66.34500
G1 Z-3.00000 F300.00000
G0 Z1.00000
G0 X76.51564 Y-2.71800
G1 Z-3.00000 F300.00000
G0 Z1.00000
G0 X76.51564 Y-10.33800
G1 Z-3.00000 F300.00000
G0 Z1.00000
G0 X76.51564 Y-13.38600
G1 Z-3.00000 F300.00000
G0 Z1.00000
G0 X76.51564 Y-21.00600
G1 Z-3.00000 F300.00000
G0 Z1.00000
G0 X74.54664 Y-61.26500
G1 Z-3.00000 F300.00000
G0 Z1.00000
G0 X74.54664 Y-63.80500
G1 Z-3.00000 F300.00000
G0 Z1.00000
G0 X74.54664 Y-66.34500
G1 Z-3.00000 F300.00000
G0 Z1.00000
G0 X66.92664 Y-61.26500
G1 Z-3.00000 F300.00000
G0 Z1.00000
G0 X66.92664 Y-63.80500
G1 Z-3.00000 F300.00000
G0 Z1.00000
G0 X66.92664 Y-66.34500
G1 Z-3.00000 F300.00000
G0 Z1.00000
G0 X63.11664 Y-58.72500
G1 Z-3.00000 F300.00000
G0 Z1.00000
G0 X63.11664 Y-66.34500
G1 Z-3.00000 F300.00000
G0 Z1.00000
G0 X63.11664 Y-74.60000
G1 Z-3.00000 F300.00000
G0 Z1.00000
G0 X63.11664 Y-82.22000
G1 Z-3.00000 F300.00000
G0 Z1.00000
G0 X63.11664 Y-84.76000
G1 Z-3.00000 F300.00000
G0 Z1.00000
G0 X63.11664 Y-92.38000
G1 Z-3.00000 F300.00000
G0 Z1.00000
G0 X55.49664 Y-74.60000
G1 Z-3.00000 F300.00000
G0 Z1.00000
G0 X55.49664 Y-82.22000
G1 Z-3.00000 F300.00000
G0 Z1.00000
G0 X55.49664 Y-84.76000
G1 Z-3.00000 F300.00000
G0 Z1.00000
G0 X55.49664 Y-92.38000
G1 Z-3.00000 F300.00000
G0 Z1.00000
G0 X49.14664 Y-13.64000
G1 Z-3.00000 F300.00000
G0 Z1.00000
G0 X49.14664 Y-16.18000
G1 Z-3.00000 F300.00000
G0 Z1.00000
G0 X49.14664 Y-19.35500
G1 Z-3.00000 F300.00000
G0 Z1.00000
G0 X49.14664 Y-21.89500
G1 Z-3.00000 F300.00000
G0 Z1.00000
G0 X49.14664 Y-25.07000
G1 Z-3.00000 F300.00000
G0 Z1.00000
G0 X49.14664 Y-27.61000
G1 Z-3.00000 F300.00000
G0 Z1.00000
G0 X49.14664 Y-31.42000
G1 Z-3.00000 F300.00000
G0 Z1.00000
G0 X49.14664 Y-33.96000
G1 Z-3.00000 F300.00000
G0 Z1.00000
G0 X41.52664 Y-13.64000
G1 Z-3.00000 F300.00000
G0 Z1.00000
G0 X41.52664 Y-16.18000
G1 Z-3.00000 F300.00000
G0 Z1.00000
G0 X41.52664 Y-19.35500
G1 Z-3.00000 F300.00000
G0 Z1.00000
G0 X41.52664 Y-21.89500
G1 Z-3.00000 F300.00000
G0 Z1.00000
G0 X41.52664 Y-25.07000
G1 Z-3.00000 F300.00000
G0 Z1.00000
G0 X41.52664 Y-27.61000
G1 Z-3.00000 F300.00000
G0 Z1.00000
G0 X41.52664 Y-31.42000
G1 Z-3.00000 F300.00000
G0 Z1.00000
G0 X41.52664 Y-33.96000
G1 Z-3.00000 F300.00000
G0 Z1.00000
G0 X39.49464 Y-59.23300
G1 Z-3.00000 F300.00000
G0 Z1.00000
G0 X36.95464 Y-59.23300
G1 Z-3.00000 F300.00000
G0 Z1.00000
G0 X34.41464 Y-47.16800
G1 Z-3.00000 F300.00000
G0 Z1.00000
G0 X31.87464 Y-47.16800
G1 Z-3.00000 F300.00000
G0 Z1.00000
G0 X26.28664 Y-35.86500
G1 Z-3.00000 F300.00000
G0 Z1.00000
G0 X21.84164 Y-39.67500
G1 Z-3.00000 F300.00000
G0 Z1.00000
G0 X19.93664 Y-17.95800
G1 Z-3.00000 F300.00000
G0 Z1.00000
G0 X19.93664 Y-20.49800
G1 Z-3.00000 F300.00000
G0 Z1.00000
G0 X18.66664 Y-35.86500
G1 Z-3.00000 F300.00000
G0 Z1.00000
G0 X16.12664 Y-13.00500
G1 Z-3.00000 F300.00000
G0 Z1.00000
G0 X16.12664 Y-20.62500
G1 Z-3.00000 F300.00000
G0 Z1.00000
G0 X14.22164 Y-39.67500
G1 Z-3.00000 F300.00000
G0 Z1.00000
G0 X11.04664 Y-13.00500
G1 Z-3.00000 F300.00000
G0 Z1.00000
G0 X11.04664 Y-20.62500
G1 Z-3.00000 F300.00000
G0 Z1.00000


G00 Z25.00000 ( Retract )
T3
M5      ( Spindle stop.                )
M6      ( Tool change.                 )
(MSG, CHANGE TOOL BIT: to drill size 1.00000 mm)
M0      ( Temporary machine stop.      )
M3      ( Spindle on clockwise.        )

G0 X107.56664 Y-42.85000
G1 Z-3.00000 F300.00000
G0 Z1.00000
G0 X105.02664 Y-42.85000
G1 Z-3.00000 F300.00000
G0 Z1.00000
G0 X102.48664 Y-42.85000
G1 Z-3.00000 F300.00000
G0 Z1.00000
G0 X73.27664 Y-13.64000
G1 Z-3.00000 F300.00000
G0 Z1.00000
G0 X73.27664 Y-16.18000
G1 Z-3.00000 F300.00000
G0 Z1.00000
G0 X73.27664 Y-18.72000
G1 Z-3.00000 F300.00000
G0 Z1.00000
G0 X73.27664 Y-21.26000
G1 Z-3.00000 F300.00000
G0 Z1.00000
G0 X73.27664 Y-23.80000
G1 Z-3.00000 F300.00000
G0 Z1.00000
G0 X73.27664 Y-26.34000
G1 Z-3.00000 F300.00000
G0 Z1.00000
G0 X73.27664 Y-28.88000
G1 Z-3.00000 F300.00000
G0 Z1.00000
G0 X73.27664 Y-31.42000
G1 Z-3.00000 F300.00000
G0 Z1.00000
G0 X73.27664 Y-33.96000
G1 Z-3.00000 F300.00000
G0 Z1.00000
G0 X73.27664 Y-36.50000
G1 Z-3.00000 F300.00000
G0 Z1.00000
G0 X73.27664 Y-39.04000
G1 Z-3.00000 F300.00000
G0 Z1.00000
G0 X73.27664 Y-41.58000
G1 Z-3.00000 F300.00000
G0 Z1.00000
G0 X58.03664 Y-13.64000
G1 Z-3.00000 F300.00000
G0 Z1.00000
G0 X58.03664 Y-16.18000
G1 Z-3.00000 F300.00000
G0 Z1.00000
G0 X58.03664 Y-18.72000
G1 Z-3.00000 F300.00000
G0 Z1.00000
G0 X58.03664 Y-21.26000
G1 Z-3.00000 F300.00000
G0 Z1.00000
G0 X58.03664 Y-23.80000
G1 Z-3.00000 F300.00000
G0 Z1.00000
G0 X58.03664 Y-26.34000
G1 Z-3.00000 F300.00000
G0 Z1.00000
G0 X58.03664 Y-28.88000
G1 Z-3.00000 F300.00000
G0 Z1.00000
G0 X58.03664 Y-31.42000
G1 Z-3.00000 F300.00000
G0 Z1.00000
G0 X58.03664 Y-33.96000
G1 Z-3.00000 F300.00000
G0 Z1.00000
G0 X58.03664 Y-36.50000
G1 Z-3.00000 F300.00000
G0 Z1.00000
G0 X58.03664 Y-39.04000
G1 Z-3.00000 F300.00000
G0 Z1.00000
G0 X58.03664 Y-41.58000
G1 Z-3.00000 F300.00000
G0 Z1.00000


G00 Z25.00000 ( Retract )
T4
M5      ( Spindle stop.                )
M6      ( Tool change.                 )
(MSG, CHANGE TOOL BIT: to drill size 1.00100 mm)
M0      ( Temporary machine stop.      )
M3      ( Spindle on clockwise.        )

G0 X125.14564 Y-46.93100
G1 Z-3.00000 F300.00000
G0 Z1.00000
G0 X123.14564 Y-52.62900
G1 Z-3.00000 F300.00000
G0 Z1.00000
G0 X119.14664 Y-46.93100
G1 Z-3.00000 F300.00000
G0 Z1.00000


G00 Z25.00000 ( Retract )
T5
M5      ( Spindle stop.                )
M6      ( Tool change.                 )
(MSG, CHANGE TOOL BIT: to drill size 1.14300 mm)
M0      ( Temporary machine stop.      )
M3      ( Spindle on clockwise.        )

G0 X115.18664 Y-51.74000
G1 Z-3.00000 F300.00000
G0 Z1.00000
G0 X102.48664 Y-51.74000
G1 Z-3.00000 F300.00000
G0 Z1.00000


G00 Z25.00000 ( Retract )
T6
M5      ( Spindle stop.                )
M6      ( Tool change.                 )
(MSG, CHANGE TOOL BIT: to drill size 3.00000 mm)
M0      ( Temporary machine stop.      )
M3      ( Spindle on clockwise.        )

G0 X117.72664 Y-8.43300
G1 Z-3.00000 F300.00000
G0 Z1.00000
G0 X117.72664 Y-33.83300
G1 Z-3.00000 F300.00000
G0 Z1.00000
G0 X13.07864 Y-45.26300
G1 Z-3.00000 F300.00000
G0 Z1.00000
G0 X13.07864 Y-92.25300
G1 Z-3.00000 F300.00000
G0 Z1.00000


G00 Z25.00000 ( All done -- retract )

M9 ( Coolant off. )
M2 ( Program end. )

